; generated by Slic3r 1.2.9 on 2020-12-03 at 21:22:31

; external perimeters extrusion width = 0.40mm
; perimeters extrusion width = 0.67mm
; infill extrusion width = 0.67mm
; solid infill extrusion width = 0.67mm
; top infill extrusion width = 0.67mm
; support material extrusion width = 0.40mm

M190 S60 ; set bed temperature
M104 S200 ; set temperature
G28 ; home all axes
G1 Z5 F5000 ; lift nozzle

M109 S200 ; wait for temperature to be reached
G21 ; set units to millimeters
G90 ; use absolute coordinates
M82 ; use absolute distances for extrusion
G92 E0
G1 Z0.200 F1800.000
G1 E-3.00000 F2400.00000
G92 E0
G1 X35.316 Y35.323 F1800.000
G1 E3.00000 F2400.00000
G1 X35.805 Y34.853 E3.01356 F1800.000
G1 X36.367 Y34.355 E3.02856
G1 X37.076 Y33.786 E3.04673
G1 X37.556 Y33.434 E3.05861
G1 X38.179 Y33.014 E3.07362
G1 X38.955 Y32.543 E3.09176
G1 X39.478 Y32.256 E3.10367
G1 X40.149 Y31.922 E3.11865
G1 X40.981 Y31.555 E3.13681
G1 X41.536 Y31.340 E3.14871
G1 X42.246 Y31.095 E3.16372
G1 X42.965 Y30.882 E3.17870
G1 X43.694 Y30.700 E3.19370
G1 X44.434 Y30.549 E3.20878
G1 X45.330 Y30.411 E3.22690
G1 X46.077 Y30.333 E3.24191
G1 X46.828 Y30.287 E3.25694
G1 X59.472 Y30.274 E3.50954
G1 X59.572 Y30.258 E3.51155
G1 X65.264 Y28.367 E3.63138
G1 X65.974 Y28.723 E3.64726
G1 X66.117 Y28.757 E3.65019
G1 X67.075 Y28.757 E3.66933
G1 X78.117 Y28.756 E3.88993
G1 X78.518 Y28.641 E3.89827
G1 X79.998 Y28.753 E3.92791
G1 X80.122 Y28.738 E3.93041
G1 X81.241 Y28.366 E3.95396
G1 X81.951 Y28.722 E3.96984
G1 X82.094 Y28.756 E3.97277
G1 X84.643 Y28.756 E4.02369
G1 X87.292 Y30.234 E4.08429
G1 X87.448 Y30.274 E4.08750
G1 X96.206 Y30.274 E4.26247
G1 X96.305 Y30.258 E4.26448
G1 X102.013 Y28.362 E4.38464
G1 X102.724 Y28.718 E4.40053
G1 X102.866 Y28.752 E4.40346 F1800.000
G1 X114.202 Y28.754 E4.62992
G1 X116.854 Y30.234 E4.69060
G1 X117.010 Y30.274 E4.69381
G1 X133.173 Y30.287 E5.01670
G1 X134.080 Y30.347 E5.03486
G1 X134.673 Y30.412 E5.04678
G1 X135.415 Y30.523 E5.06177
G1 X136.306 Y30.700 E5.07992
G1 X136.885 Y30.842 E5.09182
G1 X137.606 Y31.048 E5.10682
G1 X138.465 Y31.340 E5.12494
G1 X139.163 Y31.615 E5.13993
G1 X139.708 Y31.855 E5.15181
G1 X140.524 Y32.257 E5.17001
G1 X141.047 Y32.544 E5.18191
G1 X141.688 Y32.929 E5.19686
G1 X142.445 Y33.435 E5.21504
G1 X143.048 Y33.882 E5.23004
G1 X143.511 Y34.253 E5.24189
G1 X144.195 Y34.852 E5.26005
G1 X144.736 Y35.375 E5.27509
G1 X145.253 Y35.920 E5.29009
G1 X145.648 Y36.371 E5.30208
G1 X146.213 Y37.075 E5.32010
G1 X146.568 Y37.559 E5.33209
G1 X146.984 Y38.175 E5.34695
G1 X147.457 Y38.955 E5.36517
G1 X147.815 Y39.615 E5.38017
G1 X148.081 Y40.154 E5.39218
G1 X148.444 Y40.979 E5.41019
G1 X148.714 Y41.682 E5.42522
G1 X148.904 Y42.242 E5.43704
G1 X149.120 Y42.972 E5.45226
G1 X149.334 Y43.849 E5.47029
G1 X149.477 Y44.584 E5.48525
G1 X149.568 Y45.171 E5.49710
G1 X149.667 Y46.078 E5.51535
G1 X149.713 Y46.829 E5.53037
G1 X149.726 Y47.463 E5.54304
G1 X149.726 Y132.537 E7.24264
G1 X149.706 Y133.330 E7.25848
G1 X149.653 Y134.078 E7.27345
G1 X149.589 Y134.666 E7.28528
G1 X149.450 Y135.570 E7.30355
G1 X149.300 Y136.308 E7.31858
G1 X149.118 Y137.034 E7.33354
G1 X148.906 Y137.752 E7.34851
G1 X148.713 Y138.321 E7.36050
G1 X148.384 Y139.165 E7.37860
G1 X148.078 Y139.852 E7.39363
G1 X147.744 Y140.523 E7.40859
G1 X147.453 Y141.052 E7.42065
G1 X147.069 Y141.691 E7.43554
G1 X146.653 Y142.320 E7.45062
G1 X146.219 Y142.918 E7.46538
G1 X145.644 Y143.634 E7.48374
G1 X145.149 Y144.193 E7.49865
G1 X144.624 Y144.736 E7.51373
G1 X144.080 Y145.253 E7.52873
G1 X143.626 Y145.651 E7.54079
G1 X143.054 Y146.114 E7.55550
G1 X142.509 Y146.518 E7.56905
G1 X141.690 Y147.069 E7.58876
G1 X141.045 Y147.457 E7.60380
G1 X140.386 Y147.815 E7.61877
G1 X139.849 Y148.079 E7.63073
G1 X139.168 Y148.383 E7.64564
G1 X138.318 Y148.714 E7.66386
G1 X137.606 Y148.952 E7.67885
G1 X137.028 Y149.120 E7.69089
G1 X136.152 Y149.334 E7.70890
G1 X135.416 Y149.477 E7.72388
G1 X134.830 Y149.567 E7.73571
G1 X133.922 Y149.667 E7.75396
G1 X133.171 Y149.713 E7.76900
G1 X132.537 Y149.726 E7.78166
G1 X47.463 Y149.726 E9.48125
G1 X46.675 Y149.706 E9.49701
G1 X45.924 Y149.654 E9.51205
G1 X45.171 Y149.568 E9.52719
G1 X44.424 Y149.449 E9.54229
G1 X43.696 Y149.301 E9.55714
G1 X43.120 Y149.160 E9.56898
G1 X42.394 Y148.952 E9.58408
G1 X41.682 Y148.714 E9.59908
G1 X40.979 Y148.444 E9.61411
G1 X40.154 Y148.081 E9.63211
G1 X39.474 Y147.742 E9.64731
G1 X38.818 Y147.378 E9.66229
G1 X38.175 Y146.984 E9.67735
G1 X37.559 Y146.568 E9.69221
G1 X37.075 Y146.213 E9.70420
G1 X36.489 Y145.747 E9.71914
G1 X35.920 Y145.253 E9.73421
G1 X35.264 Y144.624 E9.75236
G1 X34.744 Y144.076 E9.76745
G1 X34.253 Y143.511 E9.78241
G1 X33.784 Y142.922 E9.79745
G1 X33.345 Y142.316 E9.81240
G1 X32.929 Y141.688 E9.82744
G1 X32.544 Y141.047 E9.84239
G1 X32.185 Y140.386 E9.85741
G1 X31.921 Y139.851 E9.86933
G1 X31.615 Y139.163 E9.88436
G1 X31.340 Y138.465 E9.89935
G1 X31.096 Y137.756 E9.91435
G1 X30.882 Y137.035 E9.92936
G1 X30.700 Y136.306 E9.94438
G1 X30.550 Y135.569 E9.95940
G1 X30.432 Y134.827 E9.97440
G1 X30.347 Y134.080 E9.98944
G1 X30.294 Y133.330 E10.00445
G1 X30.274 Y132.539 E10.02026
G1 X30.274 Y47.461 E11.71994
G1 X30.294 Y46.670 E11.73573
G1 X30.347 Y45.920 E11.75077
G1 X30.432 Y45.174 E11.76576
G1 X30.550 Y44.431 E11.78079
G1 X30.700 Y43.695 E11.79580
G1 X30.882 Y42.965 E11.81083
G1 X31.095 Y42.245 E11.82582
G1 X31.286 Y41.683 E11.83769
G1 X31.555 Y40.982 E11.85268
G1 X31.856 Y40.290 E11.86776
G1 X32.185 Y39.615 E11.88276
G1 X32.622 Y38.819 E11.90090
G1 X33.015 Y38.178 E11.91592
G1 X33.738 Y37.141 E11.94117
G1 X34.254 Y36.488 E11.95780
G1 X34.747 Y35.920 E11.97282
G1 X35.273 Y35.366 E11.98810
G1 X35.760 Y35.768 F1800.000
G1 X36.234 Y35.312 E12.00125 F1800.000
G1 X36.776 Y34.832 E12.01570
G1 X37.340 Y34.376 E12.03019
G1 X37.922 Y33.945 E12.04466
G1 X38.522 Y33.540 E12.05912
G1 X39.138 Y33.163 E12.07355
G1 X39.774 Y32.810 E12.08808
G1 X40.420 Y32.488 E12.10250
G1 X41.081 Y32.194 E12.11695
G1 X41.757 Y31.928 E12.13147
G1 X42.442 Y31.692 E12.14593
G1 X43.135 Y31.487 E12.16037
G1 X43.837 Y31.312 E12.17482
G1 X44.549 Y31.167 E12.18935
G1 X45.262 Y31.054 E12.20377
G1 X45.981 Y30.972 E12.21823
G1 X46.707 Y30.921 E12.23275
G1 X47.465 Y30.903 E12.24791
G1 X59.751 Y30.903 E12.49337
G1 X59.899 Y30.811 E12.49684
G1 X65.215 Y29.045 E12.60874
G1 X65.826 Y29.351 E12.62239
G1 X65.968 Y29.385 E12.62532
G1 X67.075 Y29.385 E12.64743
G1 X78.218 Y29.385 E12.87004
G1 X78.596 Y29.277 E12.87789
G1 X80.118 Y29.385 E12.90837
G1 X80.218 Y29.368 E12.91039
G1 X81.192 Y29.045 E12.93090
G1 X81.803 Y29.351 E12.94455
G1 X81.945 Y29.384 E12.94748
G1 X84.479 Y29.384 E12.99810
G1 X87.129 Y30.862 E13.05871
G1 X87.284 Y30.903 E13.06192
G1 X96.498 Y30.903 E13.24599
G1 X96.661 Y30.802 E13.24981
G1 X101.964 Y29.040 E13.36145
G1 X102.575 Y29.346 E13.37511 F1800.000
G1 X102.718 Y29.380 E13.37804
G1 X114.039 Y29.382 E13.60421
G1 X116.691 Y30.862 E13.66488
G1 X116.847 Y30.903 E13.66809
G1 X133.152 Y30.915 E13.99384
G1 X134.018 Y30.972 E14.01118
G1 X134.597 Y31.036 E14.02282
G1 X135.313 Y31.143 E14.03727
G1 X136.163 Y31.312 E14.05459
G1 X137.351 Y31.629 E14.07916
G1 X138.108 Y31.879 E14.09509
G1 X138.917 Y32.193 E14.11242
G1 X139.579 Y32.488 E14.12690
G1 X140.102 Y32.746 E14.13854
G1 X140.862 Y33.163 E14.15586
G1 X141.478 Y33.541 E14.17031
G1 X141.962 Y33.864 E14.18193
G1 X142.660 Y34.376 E14.19923
G1 X143.112 Y34.739 E14.21081
G1 X143.657 Y35.212 E14.22522
G1 X144.185 Y35.713 E14.23976
G1 X144.785 Y36.339 E14.25709
G1 X145.171 Y36.780 E14.26880
G1 X145.620 Y37.335 E14.28306
G1 X146.138 Y38.040 E14.30054
G1 X146.536 Y38.642 E14.31496
G1 X146.837 Y39.137 E14.32653
G1 X147.255 Y39.899 E14.34389
G1 X147.514 Y40.426 E14.35562
G1 X147.805 Y41.078 E14.36988
G1 X148.121 Y41.890 E14.38730
G1 X148.351 Y42.577 E14.40176
G1 X148.515 Y43.141 E14.41350
G1 X148.689 Y43.839 E14.42786
G1 X148.832 Y44.541 E14.44218
G1 X148.946 Y45.260 E14.45672
G1 X149.041 Y46.126 E14.47413
G1 X149.085 Y46.849 E14.48861
G1 X149.097 Y47.466 E14.50094
G1 X149.097 Y132.534 E16.20040
G1 X149.078 Y133.296 E16.21563
G1 X149.028 Y134.016 E16.23005
G1 X148.946 Y134.737 E16.24453
G1 X148.857 Y135.315 E16.25622
G1 X148.718 Y136.029 E16.27075
G1 X148.551 Y136.725 E16.28506
G1 X148.308 Y137.557 E16.30237
G1 X148.071 Y138.245 E16.31691
G1 X147.806 Y138.918 E16.33136
G1 X147.571 Y139.452 E16.34301
G1 X147.257 Y140.097 E16.35734
G1 X146.906 Y140.743 E16.37203
G1 X146.574 Y141.295 E16.38490
G1 X146.054 Y142.080 E16.40372
G1 X145.625 Y142.659 E16.41811
G1 X145.257 Y143.118 E16.42986
G1 X144.791 Y143.654 E16.44404
G1 X144.338 Y144.132 E16.45721
G1 X143.660 Y144.785 E16.47602
G1 X143.111 Y145.262 E16.49055
G1 X142.548 Y145.710 E16.50492
G1 X142.075 Y146.057 E16.51665
G1 X141.482 Y146.457 E16.53092
G1 X140.737 Y146.910 E16.54835
G1 X140.102 Y147.254 E16.56278
G1 X139.578 Y147.513 E16.57445
G1 X138.921 Y147.805 E16.58882
G1 X138.245 Y148.071 E16.60333
G1 X137.424 Y148.350 E16.62066
G1 X136.724 Y148.551 E16.63520
G1 X136.023 Y148.719 E16.64961
G1 X135.313 Y148.857 E16.66405
G1 X134.741 Y148.945 E16.67561
G1 X133.874 Y149.040 E16.69304
G1 X133.151 Y149.085 E16.70752
G1 X132.534 Y149.097 E16.71984
G1 X47.466 Y149.097 E18.41930
G1 X46.709 Y149.079 E18.43444
G1 X45.985 Y149.028 E18.44894
G1 X45.260 Y148.946 E18.46352
G1 X44.541 Y148.832 E18.47806
G1 X43.839 Y148.689 E18.49238
G1 X43.276 Y148.551 E18.50395
G1 X42.576 Y148.350 E18.51849
G1 X41.890 Y148.121 E18.53294
G1 X41.214 Y147.861 E18.54743
G1 X40.426 Y147.514 E18.56462
G1 X39.770 Y147.188 E18.57926
G1 X39.138 Y146.837 E18.59369
G1 X38.519 Y146.458 E18.60820
G1 X37.924 Y146.057 E18.62253
G1 X37.452 Y145.710 E18.63423
G1 X36.888 Y145.262 E18.64863
G1 X36.339 Y144.785 E18.66315
G1 X35.713 Y144.185 E18.68048
G1 X35.212 Y143.657 E18.69502
G1 X34.739 Y143.112 E18.70943
G1 X34.287 Y142.545 E18.72392
G1 X33.863 Y141.961 E18.73833
G1 X33.463 Y141.357 E18.75282
G1 X33.091 Y140.738 E18.76723
G1 X32.746 Y140.102 E18.78170
G1 X32.488 Y139.579 E18.79334
G1 X32.193 Y138.917 E18.80782
G1 X31.928 Y138.244 E18.82227
G1 X31.693 Y137.560 E18.83672
G1 X31.487 Y136.866 E18.85118
G1 X31.312 Y136.163 E18.86565
G1 X31.167 Y135.453 E18.88012
G1 X31.054 Y134.739 E18.89458
G1 X30.972 Y134.018 E18.90907
G1 X30.922 Y133.296 E18.92353
G1 X30.903 Y132.536 E18.93872
G1 X30.903 Y47.464 E20.63827
G1 X30.922 Y46.704 E20.65345
G1 X30.972 Y45.981 E20.66793
G1 X31.054 Y45.263 E20.68238
G1 X31.167 Y44.547 E20.69686
G1 X31.312 Y43.838 E20.71132
G1 X31.487 Y43.134 E20.72580
G1 X31.692 Y42.441 E20.74025
G1 X31.879 Y41.891 E20.75184
G1 X32.138 Y41.216 E20.76628
G1 X32.428 Y40.549 E20.78082
G1 X32.745 Y39.899 E20.79526
G1 X33.162 Y39.139 E20.81259
G1 X33.541 Y38.521 E20.82706
G1 X34.245 Y37.513 E20.85163
G1 X34.739 Y36.887 E20.86757
G1 X35.215 Y36.340 E20.88204
G1 X35.718 Y35.810 E20.89664
G1 X36.204 Y36.212 F1800.000
G1 X36.664 Y35.770 E20.90937 F1800.000
G1 X37.185 Y35.309 E20.92328
G1 X37.831 Y34.791 E20.93981
G1 X38.865 Y34.067 E20.96505
G1 X39.572 Y33.638 E20.98155
G1 X40.692 Y33.055 E21.00679
G1 X41.449 Y32.722 E21.02331
G1 X42.637 Y32.289 E21.04857
G1 X43.304 Y32.092 E21.06246
G1 X43.979 Y31.924 E21.07637
G1 X44.665 Y31.785 E21.09034
G1 X45.480 Y31.659 E21.10682
G1 X46.173 Y31.586 E21.12073
G1 X46.869 Y31.543 E21.13467
G1 X60.139 Y31.531 E21.39978
G1 X60.443 Y31.344 E21.40691
G1 X60.473 Y31.283 E21.40827
G1 X65.166 Y29.724 E21.50705
G1 X65.677 Y29.980 E21.51847
G1 X65.820 Y30.013 E21.52140
G1 X67.075 Y30.013 E21.54648
G1 X78.319 Y30.013 E21.77111
G1 X78.673 Y29.913 E21.77846
G1 X79.976 Y30.012 E21.80456
G1 X80.219 Y30.013 E21.80943
G1 X80.319 Y29.997 E21.81145
G1 X81.143 Y29.723 E21.82879
G1 X81.654 Y29.979 E21.84021
G1 X81.797 Y30.013 E21.84314
G1 X84.316 Y30.013 E21.89347
G1 X86.965 Y31.491 E21.95407
G1 X87.121 Y31.531 E21.95729
G1 X96.886 Y31.531 E22.15237
G1 X97.189 Y31.344 E22.15949
G1 X97.223 Y31.278 E22.16097
G1 X101.915 Y29.718 E22.25976
G1 X102.426 Y29.975 E22.27118
G1 X102.569 Y30.008 E22.27411 F1800.000
G1 X113.875 Y30.011 E22.49999
G1 X116.528 Y31.491 E22.56066
G1 X116.683 Y31.531 E22.56387
G1 X133.131 Y31.543 E22.89247
G1 X133.957 Y31.597 E22.90899
G1 X135.143 Y31.752 E22.93289
G1 X135.894 Y31.896 E22.94818
G1 X136.697 Y32.092 E22.96468
G1 X137.900 Y32.472 E22.98989
G1 X138.670 Y32.771 E23.00639
G1 X139.756 Y33.276 E23.03031
G1 X140.430 Y33.639 E23.04561
G1 X141.135 Y34.067 E23.06209
G1 X142.168 Y34.790 E23.08729
G1 X142.814 Y35.309 E23.10383
G1 X143.746 Y36.162 E23.12907
G1 X144.317 Y36.759 E23.14558
G1 X145.126 Y37.723 E23.17073
G1 X145.619 Y38.395 E23.18737
G1 X146.296 Y39.458 E23.21254
G1 X146.694 Y40.183 E23.22908
G1 X147.227 Y41.325 E23.25425
G1 X147.528 Y42.099 E23.27084
G1 X147.749 Y42.759 E23.28475
G1 X148.077 Y43.981 E23.31002
G1 X148.214 Y44.657 E23.32381
G1 X148.324 Y45.349 E23.33779
G1 X148.414 Y46.174 E23.35438
G1 X148.457 Y46.870 E23.36831
G1 X148.469 Y47.470 E23.38029
G1 X148.469 Y132.531 E25.07963
G1 X148.451 Y133.262 E25.09423
G1 X148.403 Y133.955 E25.10811
G1 X148.237 Y135.212 E25.13344
G1 X148.103 Y135.899 E25.14742
G1 X147.942 Y136.569 E25.16120
G1 X147.711 Y137.362 E25.17769
G1 X147.483 Y138.024 E25.19168
G1 X147.228 Y138.671 E25.20558
G1 X146.696 Y139.813 E25.23074
G1 X146.359 Y140.434 E25.24486
G1 X146.037 Y140.969 E25.25733
G1 X145.543 Y141.714 E25.27519
G1 X144.772 Y142.719 E25.30050
G1 X144.323 Y143.235 E25.31416
G1 X143.884 Y143.697 E25.32690
G1 X143.241 Y144.317 E25.34475
G1 X142.713 Y144.776 E25.35873
G1 X142.171 Y145.208 E25.37256
G1 X141.139 Y145.931 E25.39774
G1 X140.428 Y146.362 E25.41434
G1 X139.306 Y146.946 E25.43961
G1 X138.674 Y147.227 E25.45344
G1 X138.024 Y147.483 E25.46740
G1 X137.241 Y147.749 E25.48391
G1 X136.568 Y147.942 E25.49790
G1 X135.893 Y148.104 E25.51176
G1 X134.652 Y148.323 E25.53694
G1 X133.826 Y148.414 E25.55354
G1 X133.130 Y148.457 E25.56747
G1 X132.531 Y148.469 E25.57945
G1 X47.470 Y148.469 E27.27878
G1 X46.743 Y148.451 E27.29331
G1 X46.046 Y148.403 E27.30725
G1 X45.349 Y148.324 E27.32128
G1 X44.657 Y148.214 E27.33527
G1 X43.432 Y147.942 E27.36035
G1 X42.759 Y147.749 E27.37433
G1 X42.099 Y147.528 E27.38824
G1 X41.448 Y147.278 E27.40217
G1 X40.697 Y146.948 E27.41856
G1 X40.066 Y146.633 E27.43263
G1 X39.458 Y146.296 E27.44652
G1 X38.863 Y145.932 E27.46047
G1 X37.829 Y145.208 E27.48568
G1 X37.286 Y144.776 E27.49954
G1 X36.759 Y144.317 E27.51351
G1 X36.162 Y143.746 E27.53002
G1 X35.680 Y143.238 E27.54400
G1 X35.224 Y142.714 E27.55787
G1 X34.790 Y142.168 E27.57181
G1 X34.382 Y141.607 E27.58568
G1 X33.997 Y141.025 E27.59962
G1 X33.639 Y140.430 E27.61349
G1 X33.306 Y139.817 E27.62741
G1 X32.999 Y139.189 E27.64138
G1 X32.720 Y138.547 E27.65536
G1 X32.472 Y137.900 E27.66921
G1 X32.251 Y137.241 E27.68309
G1 X32.059 Y136.572 E27.69700
G1 X31.896 Y135.894 E27.71093
G1 X31.762 Y135.210 E27.72485
G1 X31.659 Y134.522 E27.73875
G1 X31.586 Y133.827 E27.75272
G1 X31.543 Y133.131 E27.76664
G1 X31.531 Y47.467 E29.47801
G1 X31.549 Y46.739 E29.49258
G1 X31.597 Y46.043 E29.50651
G1 X31.676 Y45.351 E29.52041
G1 X31.785 Y44.663 E29.53434
G1 X31.924 Y43.980 E29.54826
G1 X32.092 Y43.303 E29.56219
G1 X32.290 Y42.636 E29.57609
G1 X32.721 Y41.450 E29.60130
G1 X33.000 Y40.809 E29.61528
G1 X33.306 Y40.183 E29.62918
G1 X33.703 Y39.459 E29.64569
G1 X34.067 Y38.865 E29.65962
G1 X34.752 Y37.885 E29.68350
G1 X35.225 Y37.285 E29.69875
G1 X35.683 Y36.759 E29.71268
G1 X36.162 Y36.255 E29.72659
G1 X36.649 Y36.656 F1800.000
G1 X37.093 Y36.229 E29.73891 F1800.000
G1 X37.594 Y35.786 E29.75228
G1 X38.116 Y35.364 E29.76566
G1 X38.654 Y34.967 E29.77904
G1 X39.209 Y34.593 E29.79240
G1 X39.778 Y34.244 E29.80575
G1 X40.366 Y33.919 E29.81917
G1 X40.964 Y33.621 E29.83251
G1 X41.575 Y33.350 E29.84586
G1 X42.200 Y33.104 E29.85927
G1 X42.832 Y32.886 E29.87264
G1 X43.473 Y32.697 E29.88599
G1 X44.122 Y32.536 E29.89935
G1 X44.781 Y32.402 E29.91277
G1 X45.440 Y32.298 E29.92610
G1 X46.104 Y32.223 E29.93947
G1 X46.775 Y32.176 E29.95289
G1 X47.472 Y32.159 E29.96682
G1 X60.527 Y32.159 E30.22764
G1 X60.831 Y31.972 E30.23477
G1 X60.918 Y31.797 E30.23868
G1 X65.117 Y30.402 E30.32707
G1 X65.528 Y30.608 E30.33625
G1 X65.671 Y30.642 E30.33918
G1 X67.075 Y30.642 E30.36724
