; generated by Slic3r 1.2.9 on 2020-12-03 at 21:34:36

; external perimeters extrusion width = 0.40mm
; perimeters extrusion width = 0.67mm
; infill extrusion width = 0.67mm
; solid infill extrusion width = 0.67mm
; top infill extrusion width = 0.67mm

M190 S60 ; set bed temperature
M104 S200 ; set temperature
G28 ; home all axes
G1 Z5 F5000 ; lift nozzle

M109 S200 ; wait for temperature to be reached
G21 ; set units to millimeters
G90 ; use absolute coordinates
M82 ; use absolute distances for extrusion
G92 E0
G1 Z0.200 F1800.000
G1 E-3.00000 F2400.00000
G92 E0
G1 X35.316 Y35.323 F1800.000
G1 E3.00000 F2400.00000
G1 X35.921 Y34.747 E3.01670 F1800.000
G1 X36.488 Y34.254 E3.03171
G1 X37.076 Y33.786 E3.04673
G1 X37.685 Y33.344 E3.06175
G1 X38.311 Y32.930 E3.07676
G1 X38.955 Y32.543 E3.09176
G1 X39.617 Y32.184 E3.10680
G1 X40.291 Y31.855 E3.12180
G1 X40.981 Y31.555 E3.13681
G1 X41.683 Y31.286 E3.15184
G1 X42.396 Y31.048 E3.16685
G1 X43.118 Y30.841 E3.18186
G1 X43.694 Y30.700 E3.19370
G1 X44.434 Y30.549 E3.20878
G1 X45.173 Y30.432 E3.22375
G1 X45.919 Y30.347 E3.23875
G1 X46.673 Y30.294 E3.25383
G1 X47.462 Y30.274 E3.26960
G1 X132.617 Y30.275 E4.97082
G1 X133.330 Y30.294 E4.98507 F1800.000
G1 X133.923 Y30.333 E4.99693
G1 X134.673 Y30.412 E5.01200
G1 X135.415 Y30.523 E5.02699
G1 X136.153 Y30.666 E5.04202
G1 X136.885 Y30.842 E5.05704
G1 X137.606 Y31.048 E5.07204
G1 X138.465 Y31.340 E5.09016
G1 X139.163 Y31.615 E5.10516
G1 X139.851 Y31.921 E5.12019
G1 X140.974 Y32.504 E5.14547
G1 X141.688 Y32.929 E5.16207
G1 X142.317 Y33.345 E5.17713
G1 X143.048 Y33.882 E5.19525
G1 X143.632 Y34.355 E5.21027
G1 X144.195 Y34.852 E5.22527
G1 X144.736 Y35.375 E5.24031
G1 X145.253 Y35.920 E5.25530
G1 X145.648 Y36.371 E5.26729
G1 X146.114 Y36.947 E5.28209
G1 X146.568 Y37.559 E5.29730
G1 X146.984 Y38.175 E5.31217
G1 X147.457 Y38.955 E5.33038
G1 X147.815 Y39.615 E5.34539
G1 X148.146 Y40.293 E5.36046
G1 X148.444 Y40.979 E5.37541
G1 X148.714 Y41.682 E5.39044
G1 X148.952 Y42.394 E5.40545
G1 X149.160 Y43.120 E5.42053
G1 X149.301 Y43.696 E5.43237
G1 X149.449 Y44.424 E5.44722
G1 X149.568 Y45.171 E5.46232
G1 X149.654 Y45.924 E5.47746
G1 X149.706 Y46.675 E5.49251
G1 X149.726 Y47.463 E5.50826
G1 X149.726 Y132.537 E7.20785
G1 X149.713 Y133.173 E7.22055
G1 X149.668 Y133.916 E7.23542
G1 X149.589 Y134.666 E7.25050
G1 X149.477 Y135.417 E7.26567
G1 X149.333 Y136.159 E7.28075
G1 X149.159 Y136.881 E7.29559
G1 X148.955 Y137.596 E7.31046
G1 X148.713 Y138.321 E7.32572
G1 X148.444 Y139.020 E7.34068
G1 X148.144 Y139.711 E7.35574
G1 X147.818 Y140.380 E7.37061
G1 X147.495 Y140.976 E7.38414
G1 X146.985 Y141.822 E7.40388
G1 X146.564 Y142.446 E7.41891
G1 X146.120 Y143.047 E7.43385
G1 X145.644 Y143.634 E7.44895
G1 X145.149 Y144.193 E7.46386
G1 X144.624 Y144.736 E7.47895
G1 X144.080 Y145.253 E7.49394
G1 X143.510 Y145.748 E7.50903
G1 X142.925 Y146.213 E7.52394
G1 X142.314 Y146.657 E7.53903
G1 X141.690 Y147.069 E7.55398
G1 X141.045 Y147.457 E7.56902
G1 X140.386 Y147.815 E7.58399
G1 X139.708 Y148.145 E7.59907
G1 X139.020 Y148.444 E7.61405
G1 X138.318 Y148.714 E7.62908
G1 X137.606 Y148.952 E7.64406
G1 X136.880 Y149.160 E7.65916
G1 X136.152 Y149.334 E7.67411
G1 X135.416 Y149.477 E7.68909
G1 X134.672 Y149.588 E7.70413
G1 X134.078 Y149.653 E7.71606
G1 X133.325 Y149.706 E7.73114
G1 X132.537 Y149.726 E7.74688
G1 X47.463 Y149.726 E9.44647
G1 X46.675 Y149.706 E9.46222
G1 X45.924 Y149.654 E9.47727
G1 X45.171 Y149.568 E9.49241
G1 X44.424 Y149.449 E9.50751
G1 X43.696 Y149.301 E9.52236
G1 X43.120 Y149.160 E9.53420
G1 X42.394 Y148.952 E9.54929
G1 X41.532 Y148.659 E9.56748
G1 X40.830 Y148.382 E9.58254
G1 X40.078 Y148.043 E9.59904
G1 X38.955 Y147.457 E9.62434
G1 X38.310 Y147.070 E9.63937
G1 X37.559 Y146.568 E9.65742
G1 X36.947 Y146.114 E9.67264
G1 X36.371 Y145.648 E9.68743
G1 X35.920 Y145.253 E9.69942
G1 X35.375 Y144.736 E9.71442
G1 X34.852 Y144.195 E9.72946
G1 X34.355 Y143.632 E9.74445
G1 X33.881 Y143.048 E9.75948
G1 X33.435 Y142.445 E9.77447
G1 X33.014 Y141.822 E9.78949
G1 X32.622 Y141.182 E9.80449
G1 X32.257 Y140.524 E9.81950
G1 X31.921 Y139.851 E9.83454
G1 X31.554 Y139.015 E9.85279
G1 X31.286 Y138.317 E9.86772
G1 X31.048 Y137.606 E9.88269
G1 X30.842 Y136.885 E9.89769
G1 X30.666 Y136.153 E9.91271
G1 X30.523 Y135.415 E9.92774
G1 X30.412 Y134.673 E9.94273
G1 X30.333 Y133.922 E9.95780
G1 X30.287 Y133.173 E9.97281
G1 X30.274 Y132.539 E9.98547
G1 X30.274 Y47.461 E11.68515
G1 X30.294 Y46.670 E11.70094
G1 X30.347 Y45.920 E11.71598
G1 X30.432 Y45.174 E11.73097
G1 X30.550 Y44.431 E11.74600
G1 X30.700 Y43.695 E11.76101
G1 X30.882 Y42.965 E11.77604
G1 X31.095 Y42.245 E11.79103
G1 X31.286 Y41.683 E11.80290
G1 X31.555 Y40.982 E11.81789
G1 X31.856 Y40.290 E11.83298
G1 X32.185 Y39.615 E11.84797
G1 X32.622 Y38.819 E11.86611
G1 X33.015 Y38.178 E11.88114
G1 X33.738 Y37.141 E11.90638
G1 X34.254 Y36.488 E11.92301
G1 X34.747 Y35.920 E11.93803
G1 X35.273 Y35.366 E11.95331
G1 X35.760 Y35.768 F1800.000
G1 X36.340 Y35.214 E11.96933 F1800.000
G1 X36.887 Y34.739 E11.98379
G1 X37.454 Y34.288 E11.99826
G1 X38.039 Y33.863 E12.01273
G1 X38.643 Y33.463 E12.02720
G1 X39.263 Y33.090 E12.04165
G1 X39.901 Y32.744 E12.05614
G1 X40.551 Y32.427 E12.07059
G1 X41.215 Y32.139 E12.08505
G1 X41.891 Y31.879 E12.09953
G1 X42.578 Y31.649 E12.11400
G1 X43.274 Y31.450 E12.12846
G1 X43.837 Y31.312 E12.14003
G1 X44.549 Y31.167 E12.15456
G1 X45.262 Y31.054 E12.16898
G1 X45.981 Y30.972 E12.18344
G1 X46.707 Y30.921 E12.19797
G1 X47.465 Y30.903 E12.21312
G1 X132.536 Y30.903 E13.91265
G1 X133.296 Y30.922 E13.92784 F1800.000
G1 X134.018 Y30.972 E13.94230
G1 X135.238 Y31.131 E13.96688
G1 X136.024 Y31.281 E13.98286
G1 X136.728 Y31.450 E13.99734
G1 X137.424 Y31.650 E14.01179
G1 X138.244 Y31.928 E14.02910
G1 X138.917 Y32.193 E14.04354
G1 X139.579 Y32.488 E14.05803
G1 X140.672 Y33.055 E14.08262
G1 X141.357 Y33.463 E14.09854
G1 X141.962 Y33.864 E14.11304
G1 X142.660 Y34.376 E14.13035
G1 X143.223 Y34.832 E14.14482
G1 X143.765 Y35.311 E14.15927
G1 X144.287 Y35.815 E14.17376
G1 X144.785 Y36.339 E14.18821
G1 X145.171 Y36.780 E14.19992
G1 X145.620 Y37.335 E14.21418
G1 X146.057 Y37.924 E14.22883
G1 X146.458 Y38.519 E14.24316
G1 X146.909 Y39.263 E14.26055
G1 X147.255 Y39.899 E14.27501
G1 X147.573 Y40.553 E14.28953
G1 X147.861 Y41.214 E14.30393
G1 X148.121 Y41.890 E14.31841
G1 X148.351 Y42.577 E14.33288
G1 X148.551 Y43.276 E14.34741
G1 X148.689 Y43.839 E14.35898
G1 X148.832 Y44.541 E14.37329
G1 X148.946 Y45.260 E14.38784
G1 X149.028 Y45.985 E14.40242
G1 X149.079 Y46.709 E14.41692
G1 X149.097 Y47.466 E14.43206
G1 X149.097 Y132.534 E16.13152
G1 X149.085 Y133.152 E16.14387
G1 X149.041 Y133.868 E16.15821
G1 X148.965 Y134.591 E16.17273
G1 X148.857 Y135.315 E16.18734
G1 X148.718 Y136.029 E16.20187
G1 X148.551 Y136.725 E16.21618
G1 X148.353 Y137.415 E16.23051
G1 X148.120 Y138.112 E16.24520
G1 X147.861 Y138.786 E16.25962
G1 X147.571 Y139.452 E16.27413
G1 X147.257 Y140.097 E16.28846
G1 X146.944 Y140.673 E16.30157
G1 X146.459 Y141.479 E16.32036
G1 X146.054 Y142.080 E16.33484
G1 X145.625 Y142.659 E16.34923
G1 X145.167 Y143.225 E16.36378
G1 X144.690 Y143.764 E16.37815
G1 X144.185 Y144.287 E16.39268
G1 X143.660 Y144.785 E16.40714
G1 X143.111 Y145.262 E16.42167
G1 X142.548 Y145.710 E16.43604
G1 X141.959 Y146.138 E16.45058
G1 X141.358 Y146.536 E16.46498
G1 X140.737 Y146.910 E16.47947
G1 X140.102 Y147.254 E16.49390
G1 X139.449 Y147.573 E16.50842
G1 X138.786 Y147.861 E16.52286
G1 X138.109 Y148.121 E16.53734
G1 X137.424 Y148.350 E16.55178
G1 X136.724 Y148.551 E16.56632
G1 X136.023 Y148.719 E16.58073
G1 X135.313 Y148.857 E16.59517
G1 X134.596 Y148.965 E16.60965
G1 X134.017 Y149.028 E16.62130
G1 X133.291 Y149.079 E16.63583
G1 X132.534 Y149.097 E16.65096
G1 X47.466 Y149.097 E18.35042
G1 X46.709 Y149.079 E18.36556
G1 X45.985 Y149.028 E18.38006
G1 X45.260 Y148.946 E18.39464
G1 X44.541 Y148.832 E18.40919
G1 X43.839 Y148.689 E18.42350
G1 X43.276 Y148.551 E18.43507
G1 X42.576 Y148.350 E18.44961
G1 X41.753 Y148.071 E18.46697
G1 X41.078 Y147.805 E18.48148
G1 X40.355 Y147.480 E18.49730
G1 X39.263 Y146.910 E18.52192
G1 X38.642 Y146.536 E18.53640
G1 X37.924 Y146.057 E18.55364
G1 X37.335 Y145.620 E18.56829
G1 X36.780 Y145.171 E18.58256
G1 X36.339 Y144.785 E18.59426
G1 X35.815 Y144.287 E18.60871
G1 X35.311 Y143.765 E18.62320
G1 X34.832 Y143.223 E18.63765
G1 X34.376 Y142.660 E18.65213
G1 X33.946 Y142.079 E18.66657
G1 X33.541 Y141.478 E18.68105
G1 X33.163 Y140.862 E18.69550
G1 X32.811 Y140.228 E18.70997
G1 X32.488 Y139.579 E18.72445
G1 X32.137 Y138.781 E18.74187
G1 X31.879 Y138.108 E18.75627
G1 X31.650 Y137.424 E18.77069
G1 X31.450 Y136.728 E18.78514
G1 X31.281 Y136.024 E18.79962
G1 X31.143 Y135.313 E18.81409
G1 X31.036 Y134.597 E18.82854
G1 X30.960 Y133.875 E18.84306
G1 X30.915 Y133.152 E18.85752
G1 X30.903 Y132.536 E18.86984
G1 X30.903 Y47.464 E20.56938
G1 X30.922 Y46.704 E20.58456
G1 X30.972 Y45.981 E20.59904
G1 X31.054 Y45.263 E20.61349
G1 X31.167 Y44.547 E20.62797
G1 X31.312 Y43.838 E20.64243
G1 X31.487 Y43.134 E20.65692
G1 X31.692 Y42.441 E20.67136
G1 X31.879 Y41.891 E20.68296
G1 X32.138 Y41.216 E20.69740
G1 X32.428 Y40.549 E20.71193
G1 X32.745 Y39.899 E20.72638
G1 X33.162 Y39.139 E20.74370
G1 X33.541 Y38.521 E20.75818
G1 X34.245 Y37.513 E20.78274
G1 X34.739 Y36.887 E20.79868
G1 X35.215 Y36.340 E20.81316
G1 X35.718 Y35.810 E20.82775
G1 X36.204 Y36.212 F1800.000
G1 X36.760 Y35.682 E20.84308 F1800.000
G1 X37.285 Y35.225 E20.85700
G1 X37.831 Y34.791 E20.87093
G1 X38.394 Y34.381 E20.88484
G1 X38.975 Y33.997 E20.89876
G1 X39.572 Y33.638 E20.91267
G1 X40.185 Y33.305 E20.92661
G1 X40.810 Y33.000 E20.94051
G1 X41.449 Y32.722 E20.95443
G1 X42.100 Y32.472 E20.96836
G1 X42.761 Y32.250 E20.98228
G1 X43.979 Y31.924 E21.00749
G1 X44.665 Y31.785 E21.02146
G1 X45.351 Y31.676 E21.03534
G1 X46.043 Y31.597 E21.04925
G1 X46.741 Y31.549 E21.06323
G1 X47.468 Y31.531 E21.07777
G1 X132.597 Y31.532 E22.77844
G1 X133.827 Y31.586 E22.80304 F1800.000
G1 X134.522 Y31.659 E22.81701
G1 X135.210 Y31.762 E22.83091
G1 X135.894 Y31.896 E22.84484
G1 X136.572 Y32.059 E22.85876
G1 X137.241 Y32.251 E22.87267
G1 X138.023 Y32.516 E22.88916
G1 X138.670 Y32.771 E22.90306
G1 X139.308 Y33.055 E22.91699
G1 X140.370 Y33.606 E22.94090
G1 X141.025 Y33.997 E22.95614
G1 X141.607 Y34.382 E22.97009
G1 X142.273 Y34.870 E22.98658
G1 X142.814 Y35.309 E23.00050
G1 X143.336 Y35.770 E23.01440
G1 X143.838 Y36.254 E23.02834
G1 X144.317 Y36.759 E23.04225
G1 X145.126 Y37.723 E23.06740
G1 X145.546 Y38.290 E23.08149
G1 X145.932 Y38.863 E23.09528
G1 X146.362 Y39.571 E23.11185
G1 X146.694 Y40.183 E23.12576
G1 X147.001 Y40.812 E23.13973
G1 X147.278 Y41.448 E23.15359
G1 X147.528 Y42.099 E23.16752
G1 X147.749 Y42.759 E23.18144
G1 X147.942 Y43.432 E23.19541
G1 X148.214 Y44.657 E23.22049
G1 X148.324 Y45.349 E23.23448
G1 X148.403 Y46.046 E23.24850
G1 X148.451 Y46.743 E23.26244
G1 X148.469 Y47.470 E23.27697
G1 X148.469 Y132.531 E24.97631
G1 X148.457 Y133.132 E24.98831
G1 X148.414 Y133.821 E25.00211
G1 X148.324 Y134.648 E25.01873
G1 X148.215 Y135.338 E25.03269
G1 X148.076 Y136.022 E25.04663
G1 X147.908 Y136.696 E25.06050
G1 X147.711 Y137.362 E25.07438
G1 X147.483 Y138.024 E25.08836
G1 X147.228 Y138.671 E25.10227
G1 X146.945 Y139.309 E25.11620
G1 X146.635 Y139.930 E25.13008
G1 X146.296 Y140.543 E25.14407
G1 X145.933 Y141.136 E25.15795
G1 X145.543 Y141.714 E25.17189
G1 X145.131 Y142.271 E25.18574
G1 X144.690 Y142.816 E25.19973
G1 X144.231 Y143.335 E25.21357
G1 X143.746 Y143.838 E25.22754
G1 X143.241 Y144.317 E25.24145
G1 X142.713 Y144.776 E25.25543
G1 X142.171 Y145.208 E25.26926
G1 X141.605 Y145.619 E25.28324
G1 X141.026 Y146.002 E25.29710
G1 X140.428 Y146.362 E25.31104
G1 X139.818 Y146.694 E25.32493
G1 X139.189 Y147.001 E25.33890
G1 X138.552 Y147.278 E25.35279
G1 X137.901 Y147.528 E25.36672
G1 X137.241 Y147.749 E25.38062
G1 X136.568 Y147.942 E25.39461
G1 X135.893 Y148.104 E25.40847
G1 X135.211 Y148.237 E25.42236
G1 X134.521 Y148.341 E25.43630
G1 X133.258 Y148.451 E25.46164
G1 X132.531 Y148.469 E25.47616
G1 X47.470 Y148.469 E27.17549
G1 X46.743 Y148.451 E27.19002
G1 X46.046 Y148.403 E27.20397
G1 X45.349 Y148.324 E27.21799
G1 X44.657 Y148.214 E27.23198
G1 X43.432 Y147.942 E27.25706
G1 X42.759 Y147.749 E27.27104
G1 X41.975 Y147.483 E27.28758
G1 X41.325 Y147.227 E27.30154
G1 X40.633 Y146.916 E27.31669
G1 X39.572 Y146.362 E27.34061
G1 X38.974 Y146.003 E27.35454
G1 X38.290 Y145.546 E27.37097
G1 X37.723 Y145.126 E27.38506
G1 X36.759 Y144.317 E27.41021
G1 X36.254 Y143.838 E27.42412
G1 X35.770 Y143.336 E27.43806
G1 X35.309 Y142.814 E27.45196
G1 X34.870 Y142.272 E27.46588
G1 X34.456 Y141.713 E27.47979
G1 X34.067 Y141.135 E27.49371
G1 X33.703 Y140.541 E27.50762
G1 X33.366 Y139.932 E27.52154
G1 X33.055 Y139.308 E27.53547
G1 X32.720 Y138.547 E27.55206
G1 X32.472 Y137.900 E27.56592
G1 X32.251 Y137.241 E27.57980
G1 X32.059 Y136.572 E27.59370
G1 X31.896 Y135.894 E27.60763
G1 X31.762 Y135.210 E27.62156
G1 X31.659 Y134.522 E27.63546
G1 X31.586 Y133.827 E27.64943
G1 X31.543 Y133.131 E27.66334
G1 X31.531 Y47.467 E29.37472
G1 X31.549 Y46.739 E29.38928
G1 X31.597 Y46.043 E29.40322
G1 X31.676 Y45.351 E29.41712
G1 X31.785 Y44.663 E29.43105
G1 X31.924 Y43.980 E29.44496
G1 X32.092 Y43.303 E29.45890
G1 X32.290 Y42.636 E29.47280
G1 X32.721 Y41.450 E29.49801
G1 X33.000 Y40.809 E29.51199
G1 X33.306 Y40.183 E29.52589
G1 X33.703 Y39.459 E29.54239
G1 X34.067 Y38.865 E29.55632
G1 X34.752 Y37.885 E29.58020
G1 X35.225 Y37.285 E29.59546
G1 X35.683 Y36.759 E29.60939
G1 X36.162 Y36.255 E29.62329
G1 X36.649 Y36.656 F1800.000
G1 X37.179 Y36.150 E29.63794 F1800.000
G1 X37.684 Y35.711 E29.65131
G1 X38.208 Y35.294 E29.66469
G1 X38.749 Y34.900 E29.67806
G1 X39.307 Y34.530 E29.69143
G1 X39.880 Y34.186 E29.70479
G1 X40.469 Y33.865 E29.71818
G1 X41.069 Y33.572 E29.73154
G1 X41.683 Y33.305 E29.74491
G1 X42.308 Y33.064 E29.75829
G1 X42.943 Y32.852 E29.77166
G1 X44.122 Y32.536 E29.79605
G1 X44.781 Y32.402 E29.80947
G1 X45.440 Y32.298 E29.82281
G1 X46.104 Y32.223 E29.83617
G1 X46.775 Y32.176 E29.84959
G1 X47.472 Y32.159 E29.86352
G1 X132.529 Y32.159 E31.56277
G1 X133.227 Y32.176 E31.57673 F1800.000
G1 X133.895 Y32.223 E31.59010
G1 X135.047 Y32.373 E31.61331
G1 X135.765 Y32.511 E31.62792
G1 X136.416 Y32.667 E31.64129
G1 X137.059 Y32.852 E31.65465
G1 X137.801 Y33.104 E31.67032
G1 X138.423 Y33.349 E31.68368
G1 X139.036 Y33.621 E31.69706
G1 X140.067 Y34.157 E31.72028
G1 X140.693 Y34.530 E31.73484
G1 X141.252 Y34.901 E31.74824
G1 X141.885 Y35.365 E31.76391
G1 X142.405 Y35.786 E31.77729
G1 X142.906 Y36.228 E31.79064
G1 X143.389 Y36.694 E31.80403
G1 X143.849 Y37.178 E31.81739
G1 X144.632 Y38.112 E31.84173
G1 X145.035 Y38.656 E31.85525
G1 X145.406 Y39.206 E31.86851
G1 X145.814 Y39.880 E31.88425
G1 X146.134 Y40.467 E31.89762
G1 X146.429 Y41.071 E31.91103
G1 X146.695 Y41.682 E31.92435
G1 X146.935 Y42.307 E31.93773
G1 X147.148 Y42.942 E31.95110
G1 X147.333 Y43.588 E31.96452
G1 X147.597 Y44.774 E31.98880
G1 X147.702 Y45.438 E32.00223
G1 X147.777 Y46.108 E32.01570
G1 X147.824 Y46.776 E32.02909
G1 X147.841 Y47.473 E32.04301
G1 X147.841 Y132.528 E33.74221
G1 X147.829 Y133.111 E33.75387
G1 X147.788 Y133.774 E33.76713
G1 X147.702 Y134.559 E33.78292
G1 X147.597 Y135.222 E33.79633
G1 X147.464 Y135.879 E33.80972
G1 X147.303 Y136.526 E33.82304
G1 X147.114 Y137.167 E33.83638
G1 X146.895 Y137.802 E33.84981
G1 X146.651 Y138.425 E33.86317
G1 X146.378 Y139.037 E33.87655
G1 X146.081 Y139.634 E33.88989
G1 X145.755 Y140.223 E33.90332
G1 X145.407 Y140.792 E33.91666
G1 X145.032 Y141.348 E33.93005
G1 X144.636 Y141.884 E33.94336
G1 X144.213 Y142.407 E33.95680
G1 X143.773 Y142.905 E33.97009
G1 X143.306 Y143.389 E33.98351
G1 X142.821 Y143.850 E33.99687
G1 X142.314 Y144.291 E34.01030
G1 X141.794 Y144.705 E34.02359
G1 X141.250 Y145.101 E34.03702
G1 X140.695 Y145.469 E34.05034
G1 X140.120 Y145.814 E34.06373
G1 X139.533 Y146.133 E34.07707
G1 X138.930 Y146.428 E34.09049
G1 X138.318 Y146.695 E34.10384
G1 X137.692 Y146.935 E34.11722
G1 X137.059 Y147.148 E34.13057
G1 X136.412 Y147.333 E34.14400
G1 X135.764 Y147.490 E34.15733
G1 X135.108 Y147.617 E34.17067
G1 X134.446 Y147.717 E34.18406
G1 X133.224 Y147.824 E34.20856
