; generated by Slic3r 1.2.9 on 2020-12-13 at 17:44:51

; external perimeters extrusion width = 0.30mm
; perimeters extrusion width = 0.40mm
; infill extrusion width = 0.40mm
; solid infill extrusion width = 0.40mm
; top infill extrusion width = 0.40mm

M190 S60 ; set bed temperature
M104 S200 ; set temperature
G28 ; home all axes
G1 Z5 F5000 ; lift nozzle

M109 S200 ; wait for temperature to be reached
G21 ; set units to millimeters
G90 ; use absolute coordinates
M82 ; use absolute distances for extrusion
G92 E0
M106 S89.25
G1 Z0.200 F1800.000
G1 E-2.00000 F2400.00000
G92 E0
G1 X44.688 Y44.688 F1800.000
G1 E2.00000 F2400.00000
G1 X45.390 Y44.022 E2.01085 F1800.000
G1 X46.330 Y43.233 E2.02461
G1 X46.962 Y42.760 E2.03347
G1 X47.784 Y42.205 E2.04459
G1 X58.157 Y35.639 E2.18225
G1 X60.490 Y34.632 E2.21075
G1 X62.500 Y34.379 E2.23346
G1 X67.500 Y34.379 E2.28953
G1 X70.010 Y34.777 E2.31803
G1 X73.242 Y36.758 E2.36054 F1800.000
G1 X163.242 Y126.758 E3.78781
G1 X164.736 Y128.814 E3.81630
G1 X165.621 Y132.500 E3.85882
G1 X165.621 Y137.500 E3.91489
G1 X165.223 Y140.010 E3.94338
G1 X164.361 Y141.843 E3.96610
G1 X157.795 Y152.216 E4.10376
G1 X157.240 Y153.037 E4.11488
G1 X156.767 Y153.671 E4.12374
G1 X156.266 Y154.282 E4.13261
G1 X155.739 Y154.871 E4.14148
G1 X155.187 Y155.437 E4.15034
G1 X154.610 Y155.978 E4.15920
G1 X154.011 Y156.494 E4.16807
G1 X153.389 Y156.982 E4.17693
G1 X152.747 Y157.444 E4.18580
G1 X152.216 Y157.795 E4.19294
G1 X141.843 Y164.361 E4.33061
G1 X139.510 Y165.368 E4.35910
G1 X137.500 Y165.621 E4.38182
G1 X132.500 Y165.621 E4.43789
G1 X129.990 Y165.223 E4.46638
G1 X126.758 Y163.242 E4.50889
G1 X36.758 Y73.242 E5.93617
G1 X35.264 Y71.186 E5.96466
G1 X34.379 Y67.500 E6.00717
G1 X34.379 Y62.500 E6.06324
G1 X34.777 Y59.990 E6.09173
G1 X35.639 Y58.157 E6.11445
G1 X42.205 Y47.784 E6.25212
G1 X42.760 Y46.962 E6.26323
G1 X43.233 Y46.330 E6.27210
G1 X44.022 Y45.390 E6.28586
G1 X44.656 Y44.720 E6.29620
G1 X44.906 Y44.970 F1800.000
G1 X45.623 Y44.288 E6.30730 F1800.000
G1 X46.210 Y43.782 E6.31599
G1 X47.171 Y43.045 E6.32957
G1 X47.973 Y42.503 E6.34042
G1 X58.346 Y35.937 E6.47808
G1 X60.631 Y34.961 E6.50594
G1 X62.500 Y34.733 E6.52706
G1 X67.500 Y34.733 E6.58313
G1 X69.953 Y35.130 E6.61099
G1 X72.992 Y37.008 E6.65106 F1800.000
G1 X162.992 Y127.008 E8.07833
G1 X164.446 Y129.023 E8.10619
G1 X165.267 Y132.500 E8.14625
G1 X165.267 Y137.500 E8.20232
G1 X164.870 Y139.953 E8.23018
G1 X164.063 Y141.654 E8.25130
G1 X157.497 Y152.027 E8.38897
G1 X156.955 Y152.828 E8.39981
G1 X156.491 Y153.449 E8.40850
G1 X156.000 Y154.049 E8.41719
G1 X155.483 Y154.627 E8.42589
G1 X154.942 Y155.182 E8.43458
G1 X154.377 Y155.712 E8.44327
G1 X153.790 Y156.218 E8.45196
G1 X153.180 Y156.697 E8.46066
G1 X152.551 Y157.150 E8.46935
G1 X152.027 Y157.497 E8.47639
G1 X141.654 Y164.063 E8.61406
G1 X139.369 Y165.039 E8.64192
G1 X137.500 Y165.267 E8.66304
G1 X132.500 Y165.267 E8.71911
G1 X130.047 Y164.870 E8.74697
G1 X127.008 Y162.992 E8.78703
G1 X37.008 Y72.992 E10.21430
G1 X35.554 Y70.977 E10.24217
G1 X34.733 Y67.500 E10.28223
G1 X34.733 Y62.500 E10.33830
G1 X35.130 Y60.047 E10.36616
G1 X35.937 Y58.346 E10.38728
G1 X42.503 Y47.973 E10.52494
G1 X43.045 Y47.171 E10.53579
G1 X43.509 Y46.551 E10.54448
G1 X44.288 Y45.623 E10.55806
G1 X44.874 Y45.002 E10.56764
G1 X45.124 Y45.252 F1800.000
G1 X45.856 Y44.553 E10.57899 F1800.000
G1 X46.432 Y44.058 E10.58751
G1 X47.380 Y43.330 E10.60091
G1 X48.162 Y42.802 E10.61149
G1 X58.535 Y36.236 E10.74915
G1 X60.770 Y35.291 E10.77637
G1 X62.500 Y35.086 E10.79590
G1 X67.500 Y35.086 E10.85197
G1 X69.894 Y35.484 E10.87919
G1 X72.742 Y37.258 E10.91681 F1800.000
G1 X162.742 Y127.258 E12.34408
G1 X164.154 Y129.232 E12.37130
G1 X164.914 Y132.500 E12.40893
G1 X164.914 Y137.500 E12.46500
G1 X164.516 Y139.894 E12.49221
G1 X163.764 Y141.465 E12.51174
G1 X157.098 Y151.992 E12.65146
G1 X156.670 Y152.619 E12.65998
G1 X156.215 Y153.228 E12.66850
G1 X155.734 Y153.816 E12.67702
G1 X155.228 Y154.383 E12.68554
G1 X154.698 Y154.926 E12.69406
G1 X154.144 Y155.447 E12.70258
G1 X153.568 Y155.942 E12.71110
G1 X152.971 Y156.412 E12.71962
G1 X152.355 Y156.856 E12.72814
G1 X151.838 Y157.198 E12.73508
G1 X141.465 Y163.764 E12.87275
G1 X139.230 Y164.709 E12.89997
G1 X137.500 Y164.914 E12.91950
G1 X132.500 Y164.914 E12.97556
G1 X130.106 Y164.516 E13.00278
G1 X127.258 Y162.742 E13.04041
G1 X37.258 Y72.742 E14.46768
G1 X35.846 Y70.768 E14.49490
G1 X35.086 Y67.500 E14.53252
G1 X35.086 Y62.500 E14.58859
G1 X35.484 Y60.106 E14.61581
G1 X36.236 Y58.535 E14.63534
G1 X42.802 Y48.162 E14.77300
G1 X43.330 Y47.380 E14.78358
G1 X43.785 Y46.772 E14.79210
G1 X44.553 Y45.856 E14.80551
G1 X45.092 Y45.283 E14.81432
G1 X45.342 Y45.533 F1800.000
G1 X46.089 Y44.819 E14.82591 F1800.000
G1 X46.653 Y44.333 E14.83426
G1 X47.589 Y43.615 E14.84749
G1 X48.351 Y43.101 E14.85780
G1 X58.724 Y36.534 E14.99546
G1 X60.909 Y35.621 E15.02202
G1 X62.500 Y35.440 E15.03998
G1 X67.500 Y35.440 E15.09605
G1 X69.835 Y35.837 E15.12260
G1 X72.492 Y37.508 E15.15780 F1800.000
G1 X162.492 Y127.508 E16.58508
G1 X163.862 Y129.439 E16.61163
G1 X164.560 Y132.500 E16.64684
G1 X164.560 Y137.500 E16.70290
G1 X164.163 Y139.835 E16.72946
G1 X163.466 Y141.276 E16.74742
G1 X156.804 Y151.796 E16.88704
G1 X156.385 Y152.410 E16.89539
G1 X155.940 Y153.007 E16.90373
G1 X155.469 Y153.583 E16.91208
G1 X154.973 Y154.138 E16.92043
G1 X154.453 Y154.671 E16.92877
G1 X153.911 Y155.181 E16.93712
G1 X153.347 Y155.667 E16.94546
G1 X152.762 Y156.127 E16.95381
G1 X152.158 Y156.562 E16.96216
G1 X151.649 Y156.899 E16.96901
G1 X141.276 Y163.466 E17.10667
G1 X139.091 Y164.379 E17.13323
G1 X137.500 Y164.560 E17.15119
G1 X132.500 Y164.560 E17.20725
G1 X130.165 Y164.163 E17.23381
G1 X127.508 Y162.492 E17.26901
G1 X37.508 Y72.492 E18.69629
G1 X36.138 Y70.561 E18.72284
G1 X35.440 Y67.500 E18.75804
G1 X35.440 Y62.500 E18.81411
G1 X35.837 Y60.165 E18.84067
G1 X36.534 Y58.724 E18.85863
G1 X43.101 Y48.351 E18.99629
G1 X43.615 Y47.589 E19.00660
G1 X44.060 Y46.993 E19.01494
G1 X44.531 Y46.417 E19.02329
G1 X45.311 Y45.565 E19.03623
G1 X45.566 Y45.810 F1800.000
G1 X46.106 Y45.282 E19.04470 F1800.000
G1 X46.874 Y44.609 E19.05615
G1 X47.798 Y43.900 E19.06922
G1 X48.540 Y43.399 E19.07925
G1 X58.913 Y36.833 E19.21691
G1 X61.046 Y35.953 E19.24279
G1 X62.500 Y35.793 E19.25919
G1 X67.500 Y35.793 E19.31526
G1 X69.773 Y36.190 E19.34114
G1 X72.242 Y37.758 E19.37394 F1800.000
G1 X162.242 Y127.758 E20.80121
G1 X163.569 Y129.646 E20.82709
G1 X164.207 Y132.500 E20.85988
G1 X164.207 Y137.500 E20.91595
G1 X163.810 Y139.773 E20.94183
G1 X163.167 Y141.087 E20.95823
G1 X156.268 Y151.962 E21.10265
G1 X155.842 Y152.553 E21.11082
G1 X155.391 Y153.126 E21.11899
G1 X154.915 Y153.678 E21.12717
G1 X154.431 Y154.193 E21.13510
G1 X153.678 Y154.915 E21.14679
G1 X153.126 Y155.391 E21.15497
G1 X152.553 Y155.842 E21.16314
G1 X151.962 Y156.268 E21.17131
G1 X151.460 Y156.601 E21.17806
G1 X141.087 Y163.167 E21.31573
G1 X138.954 Y164.047 E21.34161
G1 X137.500 Y164.207 E21.35801
G1 X132.500 Y164.207 E21.41408
G1 X130.227 Y163.810 E21.43996
G1 X127.758 Y162.242 E21.47275
G1 X37.758 Y72.242 E22.90003
G1 X36.431 Y70.354 E22.92590
G1 X35.793 Y67.500 E22.95870
G1 X35.793 Y62.500 E23.01477
G1 X36.190 Y60.227 E23.04065
G1 X36.833 Y58.913 E23.05705
G1 X43.399 Y48.540 E23.19471
G1 X43.900 Y47.798 E23.20475
G1 X44.336 Y47.214 E23.21292
G1 X44.797 Y46.650 E23.22109
G1 X45.535 Y45.842 E23.23336
G1 X45.790 Y46.087 F1800.000
G1 X46.351 Y45.538 E23.24216 F1800.000
G1 X47.095 Y44.885 E23.25326
G1 X48.007 Y44.185 E23.26616
G1 X48.729 Y43.698 E23.27592
G1 X59.102 Y37.132 E23.41358
G1 X61.182 Y36.285 E23.43876
G1 X62.500 Y36.147 E23.45363
G1 X67.500 Y36.147 E23.50970
G1 X69.710 Y36.543 E23.53488
G1 X71.993 Y38.007 E23.56528 F1800.000
G1 X161.993 Y128.007 E24.99256
G1 X163.275 Y129.851 E25.01774
G1 X163.853 Y132.500 E25.04814
G1 X163.853 Y137.500 E25.10421
G1 X163.457 Y139.710 E25.12939
G1 X162.868 Y140.898 E25.14426
G1 X155.974 Y151.766 E25.28858
G1 X155.557 Y152.344 E25.29657
G1 X155.115 Y152.905 E25.30458
G1 X154.649 Y153.445 E25.31258
G1 X154.175 Y153.949 E25.32034
G1 X153.445 Y154.650 E25.33169
G1 X152.905 Y155.115 E25.33969
G1 X152.344 Y155.557 E25.34769
G1 X151.271 Y156.302 E25.36234
G1 X140.898 Y162.868 E25.50000
G1 X138.818 Y163.715 E25.52518
G1 X137.500 Y163.853 E25.54005
G1 X132.500 Y163.853 E25.59612
G1 X130.290 Y163.457 E25.62130
G1 X128.007 Y161.993 E25.65170
G1 X38.007 Y71.993 E27.07898
G1 X36.725 Y70.149 E27.10416
G1 X36.147 Y67.500 E27.13456
G1 X36.147 Y62.500 E27.19063
G1 X36.543 Y60.290 E27.21581
G1 X37.132 Y59.102 E27.23068
G1 X43.698 Y48.729 E27.36834
G1 X44.185 Y48.007 E27.37811
G1 X44.612 Y47.436 E27.38611
G1 X45.063 Y46.883 E27.39411
G1 X45.759 Y46.119 E27.40570
G1 E25.40570 F2400.00000
G92 E0
G1 X128.149 Y128.149 F1800.000
G1 E2.00000 F2400.00000
G1 X128.909 Y127.453 E2.01155 F1800.000
G1 X129.719 Y126.832 E2.02301
G1 X130.162 Y126.536 E2.02898
G1 X131.047 Y126.025 E2.04044
G1 X131.981 Y125.589 E2.05199
G1 X132.949 Y125.237 E2.06354
G1 X133.944 Y124.970 E2.07509
G1 X134.950 Y124.793 E2.08655
G1 X135.479 Y124.735 E2.09252
G1 X136.483 Y124.691 E2.10379 F1800.000
G1 X137.529 Y124.735 E2.11552
G1 X138.542 Y124.869 E2.12698
G1 X139.064 Y124.973 E2.13296
G1 X140.035 Y125.232 E2.14423
G1 X141.019 Y125.589 E2.15596
G1 X141.953 Y126.025 E2.16752
G1 X142.838 Y126.536 E2.17897
G1 X143.281 Y126.832 E2.18495
G1 X144.091 Y127.453 E2.19640
G1 X144.851 Y128.149 E2.20795
G1 X145.547 Y128.909 E2.21951
G1 X146.168 Y129.719 E2.23096
G1 X146.464 Y130.162 E2.23694
G1 X146.975 Y131.047 E2.24839
G1 X147.410 Y131.981 E2.25994
G1 X147.763 Y132.949 E2.27149
G1 X148.023 Y133.919 E2.28276
G1 X148.131 Y134.458 E2.28892
G1 X148.265 Y135.471 E2.30038
G1 X148.309 Y136.500 E2.31193
G1 X148.265 Y137.529 E2.32348
G1 X148.131 Y138.542 E2.33494
G1 X148.027 Y139.064 E2.34091
G1 X147.768 Y140.035 E2.35218
G1 X147.411 Y141.019 E2.36391
G1 X146.975 Y141.953 E2.37547
G1 X146.464 Y142.838 E2.38693
G1 X146.168 Y143.281 E2.39290
G1 X145.547 Y144.091 E2.40436
G1 X144.851 Y144.851 E2.41591
G1 X144.091 Y145.547 E2.42746
G1 X143.281 Y146.168 E2.43891
G1 X142.838 Y146.464 E2.44489
G1 X141.953 Y146.975 E2.45634
G1 X141.019 Y147.410 E2.46790
G1 X140.051 Y147.763 E2.47945
G1 X139.081 Y148.023 E2.49072
G1 X138.542 Y148.131 E2.49687
G1 X137.529 Y148.265 E2.50833
G1 X136.500 Y148.309 E2.51989
G1 X135.471 Y148.265 E2.53144
G1 X134.458 Y148.131 E2.54289
G1 X133.936 Y148.027 E2.54887
G1 X132.965 Y147.768 E2.56014
G1 X131.981 Y147.411 E2.57187
G1 X131.047 Y146.975 E2.58343
G1 X130.162 Y146.464 E2.59488
G1 X129.719 Y146.168 E2.60086
G1 X128.909 Y145.547 E2.61231
G1 X128.149 Y144.851 E2.62386
G1 X127.453 Y144.091 E2.63542
G1 X126.832 Y143.281 E2.64687
G1 X126.536 Y142.838 E2.65284
G1 X126.025 Y141.953 E2.66430
G1 X125.589 Y141.019 E2.67585
G1 X125.237 Y140.051 E2.68740
G1 X124.977 Y139.081 E2.69867
G1 X124.869 Y138.542 E2.70483
G1 X124.735 Y137.529 E2.71629
G1 X124.691 Y136.500 E2.72784
G1 X124.735 Y135.471 E2.73939
G1 X124.869 Y134.458 E2.75085
G1 X124.973 Y133.936 E2.75682
G1 X125.232 Y132.965 E2.76809
G1 X125.589 Y131.981 E2.77982
G1 X126.025 Y131.047 E2.79138
G1 X126.536 Y130.162 E2.80283
G1 X126.832 Y129.719 E2.80881
G1 X127.453 Y128.909 E2.82026
G1 X128.119 Y128.183 E2.83131
G1 X128.380 Y128.421 F1800.000
G1 X129.136 Y127.724 E2.84285 F1800.000
G1 X129.925 Y127.119 E2.85400
G1 X130.349 Y126.836 E2.85972
G1 X131.210 Y126.339 E2.87087
G1 X132.116 Y125.916 E2.88207
G1 X133.055 Y125.575 E2.89328
G1 X134.021 Y125.316 E2.90449
G1 X135.000 Y125.143 E2.91564
G1 X135.506 Y125.088 E2.92135
G1 X136.484 Y125.045 E2.93232 F1800.000
G1 X137.498 Y125.088 E2.94371
G1 X138.484 Y125.218 E2.95486
G1 X138.984 Y125.317 E2.96058
G1 X139.929 Y125.570 E2.97155
G1 X140.884 Y125.916 E2.98293
G1 X141.790 Y126.339 E2.99414
G1 X142.651 Y126.836 E3.00529
G1 X143.075 Y127.119 E3.01101
G1 X143.864 Y127.724 E3.02216
G1 X144.600 Y128.400 E3.03337
G1 X145.276 Y129.136 E3.04457
G1 X145.881 Y129.925 E3.05573
G1 X146.164 Y130.349 E3.06144
G1 X146.661 Y131.210 E3.07259
G1 X147.084 Y132.116 E3.08380
G1 X147.425 Y133.055 E3.09501
G1 X147.679 Y134.000 E3.10597
G1 X147.782 Y134.515 E3.11187
G1 X147.912 Y135.502 E3.12302
G1 X147.956 Y136.500 E3.13423
G1 X147.912 Y137.498 E3.14544
G1 X147.782 Y138.484 E3.15659
G1 X147.683 Y138.984 E3.16230
G1 X147.430 Y139.929 E3.17327
G1 X147.084 Y140.884 E3.18466
G1 X146.661 Y141.790 E3.19587
G1 X146.164 Y142.651 E3.20702
G1 X145.881 Y143.075 E3.21274
G1 X145.276 Y143.864 E3.22389
G1 X144.600 Y144.600 E3.23509
G1 X143.864 Y145.276 E3.24630
G1 X143.075 Y145.881 E3.25745
G1 X142.651 Y146.164 E3.26317
G1 X141.790 Y146.661 E3.27432
G1 X140.884 Y147.084 E3.28552
G1 X139.945 Y147.425 E3.29673
G1 X139.000 Y147.679 E3.30770
G1 X138.485 Y147.782 E3.31359
G1 X137.498 Y147.912 E3.32475
G1 X136.500 Y147.956 E3.33596
G1 X135.502 Y147.912 E3.34716
G1 X134.516 Y147.782 E3.35831
G1 X134.016 Y147.683 E3.36403
G1 X133.071 Y147.430 E3.37500
G1 X132.116 Y147.084 E3.38638
G1 X131.210 Y146.661 E3.39759
G1 X130.349 Y146.164 E3.40875
G1 X129.925 Y145.881 E3.41446
G1 X129.136 Y145.276 E3.42561
G1 X128.400 Y144.600 E3.43682
G1 X127.724 Y143.864 E3.44803
G1 X127.119 Y143.075 E3.45918
G1 X126.836 Y142.651 E3.46489
G1 X126.339 Y141.790 E3.47604
G1 X125.916 Y140.884 E3.48725
G1 X125.575 Y139.945 E3.49846
G1 X125.321 Y139.000 E3.50942
G1 X125.218 Y138.485 E3.51532
G1 X125.088 Y137.498 E3.52647
G1 X125.044 Y136.500 E3.53768
G1 X125.088 Y135.502 E3.54889
G1 X125.218 Y134.516 E3.56004
G1 X125.317 Y134.016 E3.56575
G1 X125.570 Y133.071 E3.57672
G1 X125.916 Y132.116 E3.58811
G1 X126.339 Y131.210 E3.59932
G1 X126.836 Y130.349 E3.61047
G1 X127.119 Y129.925 E3.61619
G1 X127.724 Y129.136 E3.62734
G1 X128.349 Y128.455 E3.63771
G1 X128.574 Y128.661 F1800.000
G1 X129.333 Y127.959 E3.64614 F1800.000
G1 X130.103 Y127.367 E3.65406
G1 X130.510 Y127.095 E3.65806
G1 X131.351 Y126.610 E3.66598
G1 X132.233 Y126.199 E3.67391
G1 X133.147 Y125.866 E3.68184
G1 X134.087 Y125.614 E3.68978
G1 X135.043 Y125.446 E3.69770
G1 X135.530 Y125.392 E3.70169
G1 X136.484 Y125.350 E3.70948 F1800.000
G1 X137.472 Y125.392 E3.71755
G1 X138.435 Y125.519 E3.72547
G1 X138.915 Y125.615 E3.72946
G1 X139.837 Y125.861 E3.73725
G1 X140.767 Y126.199 E3.74532
G1 X141.649 Y126.610 E3.75325
G1 X142.490 Y127.095 E3.76118
G1 X142.897 Y127.367 E3.76517
G1 X143.667 Y127.959 E3.77309
G1 X144.384 Y128.616 E3.78102
G1 X145.041 Y129.333 E3.78896
G1 X145.633 Y130.103 E3.79688
G1 X145.905 Y130.510 E3.80087
G1 X146.390 Y131.351 E3.80880
G1 X146.801 Y132.233 E3.81673
G1 X147.134 Y133.147 E3.82466
G1 X147.382 Y134.069 E3.83245
G1 X147.481 Y134.565 E3.83658
G1 X147.608 Y135.528 E3.84450
G1 X147.650 Y136.500 E3.85243
G1 X147.608 Y137.472 E3.86037
G1 X147.481 Y138.435 E3.86829
G1 X147.385 Y138.915 E3.87228
G1 X147.139 Y139.837 E3.88007
G1 X146.801 Y140.767 E3.88814
G1 X146.390 Y141.649 E3.89607
G1 X145.905 Y142.490 E3.90399
G1 X145.633 Y142.897 E3.90799
G1 X145.041 Y143.667 E3.91591
G1 X144.384 Y144.384 E3.92384
G1 X143.667 Y145.041 E3.93178
G1 X142.897 Y145.633 E3.93970
G1 X142.490 Y145.905 E3.94369
G1 X141.649 Y146.390 E3.95161
G1 X140.767 Y146.801 E3.95955
G1 X139.853 Y147.134 E3.96748
G1 X138.931 Y147.382 E3.97527
G1 X138.435 Y147.481 E3.97940
G1 X137.472 Y147.608 E3.98732
G1 X136.500 Y147.650 E3.99525
G1 X135.528 Y147.608 E4.00319
G1 X134.565 Y147.481 E4.01111
G1 X134.085 Y147.385 E4.01510
G1 X133.163 Y147.139 E4.02289
G1 X132.233 Y146.801 E4.03096
G1 X131.351 Y146.390 E4.03889
G1 X130.510 Y145.905 E4.04681
G1 X130.103 Y145.633 E4.05081
G1 X129.333 Y145.041 E4.05873
G1 X128.616 Y144.384 E4.06666
G1 X127.959 Y143.667 E4.07460
G1 X127.367 Y142.897 E4.08252
G1 X127.095 Y142.490 E4.08651
G1 X126.610 Y141.649 E4.09443
G1 X126.199 Y140.767 E4.10237
G1 X125.866 Y139.853 E4.11030
G1 X125.618 Y138.931 E4.11809
G1 X125.519 Y138.435 E4.12222
G1 X125.392 Y137.472 E4.13014
G1 X125.350 Y136.500 E4.13807
G1 X125.392 Y135.528 E4.14601
G1 X125.519 Y134.565 E4.15393
G1 X125.615 Y134.085 E4.15792
G1 X125.861 Y133.163 E4.16571
G1 X126.199 Y132.233 E4.17378
G1 X126.610 Y131.351 E4.18171
G1 X127.095 Y130.510 E4.18963
