; generated by Slic3r 1.2.9 on 2020-03-14 at 21:26:55

; external perimeters extrusion width = 0.40mm
; perimeters extrusion width = 0.67mm
; infill extrusion width = 0.67mm
; solid infill extrusion width = 0.67mm
; top infill extrusion width = 0.67mm

M190 S60 ; set bed temperature
M104 S200 ; set temperature
G28 ; home all axes
G1 Z5 F5000 ; lift nozzle

M109 S200 ; wait for temperature to be reached
G21 ; set units to millimeters
G90 ; use absolute coordinates
M82 ; use absolute distances for extrusion
G92 E0
G1 Z0.300 F1800.000
G1 E-2.00000 F2400.00000
G92 E0
G1 X64.700 Y63.127 F1800.000
G1 E2.00000 F2400.00000
G1 X69.250 Y60.706 E2.10369 F1800.000
G1 X69.881 Y60.401 E2.11779
G1 X70.426 Y60.195 E2.12952
G1 X72.960 Y59.475 E2.18251
G1 X73.806 Y59.305 E2.19988
G1 X74.234 Y59.254 E2.20856
G1 X76.810 Y59.110 E2.26047
G1 X77.708 Y59.137 E2.27853
G1 X78.084 Y59.178 E2.28615
G1 X80.554 Y59.583 E2.33651
G1 X81.396 Y59.796 E2.35397
G1 X81.733 Y59.908 E2.36112
G1 X83.955 Y60.779 E2.40913
G1 X84.734 Y61.161 E2.42660
G1 X85.077 Y61.365 E2.43463
G1 X87.286 Y62.853 E2.48822
G1 X87.957 Y63.387 E2.50547
G1 X88.252 Y63.662 E2.51359
G1 X89.872 Y65.361 E2.56081
G1 X90.463 Y66.094 E2.57976
G1 X90.976 Y65.987 E2.59031
G1 X91.692 Y63.127 E2.64962
G1 X96.377 Y60.638 E2.75636
G1 X96.873 Y60.401 E2.76742
G1 X97.418 Y60.195 E2.77914
G1 X99.952 Y59.475 E2.83213
G1 X100.798 Y59.305 E2.84950
G1 X101.227 Y59.254 E2.85818
G1 X103.803 Y59.110 E2.91009
G1 X104.700 Y59.137 E2.92815
G1 X105.076 Y59.178 E2.93577 F1800.000
G1 X107.547 Y59.583 E2.98614
G1 X107.912 Y59.663 E2.99366
G1 X108.725 Y59.908 E3.01074
G1 X110.947 Y60.779 E3.05876
G1 X111.726 Y61.161 E3.07622
G1 X112.069 Y61.365 E3.08426
G1 X114.278 Y62.853 E3.13784
G1 X114.949 Y63.387 E3.15510
G1 X115.244 Y63.662 E3.16321
G1 X116.864 Y65.361 E3.21043
G1 X117.401 Y66.025 E3.22762
G1 X117.613 Y66.330 E3.23510
G1 X118.949 Y68.503 E3.28641
G1 X119.342 Y69.285 E3.30404
G1 X119.477 Y69.611 E3.31113
G1 X120.257 Y71.812 E3.35811
G1 X120.470 Y72.619 E3.37491
G1 X120.532 Y72.945 E3.38158
G1 X120.856 Y75.253 E3.42847
G1 X120.905 Y76.102 E3.44557
G1 X120.898 Y76.473 E3.45305
G1 X120.716 Y79.010 E3.50421
G1 X120.583 Y79.865 E3.52162
G1 X120.500 Y80.222 E3.52901
G1 X119.847 Y82.472 E3.57614
G1 X119.541 Y83.270 E3.59334
G1 X119.386 Y83.600 E3.60067
G1 X118.181 Y85.840 E3.65184
G1 X117.699 Y86.579 E3.66960
G1 X117.473 Y86.874 E3.67706
G1 X115.900 Y88.712 E3.72576
G1 X115.286 Y89.319 E3.74311
G1 X114.726 Y89.769 E3.75758
G1 X114.717 Y90.174 E3.76573
G1 X115.244 Y90.642 E3.77991
G1 X116.864 Y92.340 E3.82713
G1 X117.095 Y92.610 E3.83427
G1 X117.613 Y93.310 E3.85180
G1 X118.949 Y95.482 E3.90310
G1 X119.128 Y95.813 E3.91067
G1 X119.477 Y96.591 E3.92783
G1 X120.257 Y98.792 E3.97481
G1 X120.360 Y99.140 E3.98212
G1 X120.532 Y99.925 E3.99828
G1 X120.856 Y102.233 E4.04517
G1 X120.905 Y103.081 E4.06227
G1 X120.898 Y103.453 E4.06975
G1 X120.716 Y105.989 E4.12091
G1 X120.671 Y106.348 E4.12818
G1 X120.500 Y107.202 E4.14571
G1 X119.847 Y109.452 E4.19284
G1 X119.727 Y109.796 E4.20018
G1 X119.386 Y110.579 E4.21737
G1 X118.181 Y112.820 E4.26854
G1 X117.988 Y113.137 E4.27601
G1 X117.473 Y113.853 E4.29376
G1 X115.900 Y115.692 E4.34246
G1 X115.286 Y116.299 E4.35981
G1 X115.001 Y116.540 E4.36733
G1 X112.984 Y118.070 E4.41826
G1 X112.686 Y118.272 E4.42551
G1 X111.929 Y118.708 E4.44309
G1 X109.791 Y119.709 E4.49057
G1 X109.458 Y119.844 E4.49782
G1 X108.685 Y120.095 E4.51417
G1 X106.416 Y120.640 E4.56112
G1 X105.577 Y120.770 E4.57820
G1 X105.205 Y120.799 E4.58571
G1 X102.661 Y120.862 E4.63690
G1 X101.791 Y120.811 E4.65444
G1 X101.422 Y120.761 E4.66192
G1 X99.081 Y120.315 E4.70987
G1 X98.731 Y120.229 E4.71713
G1 X97.927 Y119.967 E4.73415
G1 X95.659 Y119.018 E4.78361
G1 X95.322 Y118.854 E4.79114
G1 X94.565 Y118.413 E4.80878
G1 X92.518 Y116.981 E4.85903
G1 X92.224 Y116.750 E4.86657
G1 X91.606 Y116.186 E4.88340
G1 X90.170 Y114.647 E4.92575
G1 X89.795 Y114.655 E4.93329
G1 X88.908 Y115.692 E4.96075
G1 X88.294 Y116.299 E4.97811
G1 X88.009 Y116.540 E4.98562
G1 X85.992 Y118.070 E5.03656
G1 X85.694 Y118.272 E5.04380
G1 X84.937 Y118.708 E5.06139
G1 X82.799 Y119.709 E5.10887
G1 X82.466 Y119.844 E5.11611
G1 X81.693 Y120.095 E5.13246
G1 X79.424 Y120.640 E5.17941
G1 X78.585 Y120.770 E5.19649
G1 X78.213 Y120.799 E5.20400
G1 X75.669 Y120.862 E5.25519
G1 X74.799 Y120.811 E5.27273
G1 X74.430 Y120.761 E5.28022
G1 X72.089 Y120.315 E5.32816
G1 X71.273 Y120.089 E5.34520
G1 X70.935 Y119.967 E5.35244
G1 X68.667 Y119.018 E5.40190
G1 X67.883 Y118.607 E5.41971
G1 X67.573 Y118.413 E5.42707
G1 X65.526 Y116.981 E5.47733
G1 X64.864 Y116.427 E5.49470
G1 X64.614 Y116.186 E5.50169
G1 X63.015 Y114.473 E5.54883
G1 X62.491 Y113.811 E5.56582
G1 X62.294 Y113.520 E5.57290
G1 X61.022 Y111.423 E5.62223
G1 X60.828 Y111.054 E5.63063
G1 X60.492 Y110.273 E5.64773
G1 X59.635 Y107.768 E5.70100
G1 X59.488 Y107.171 E5.71336
G1 X59.382 Y106.460 E5.72784
G1 X58.800 Y101.172 E5.83486
G1 X62.921 Y96.573 E5.95910
G1 X63.015 Y96.573 E5.96099
G1 X63.251 Y96.130 E5.97111
G1 X63.208 Y96.065 E5.97268
G1 X64.700 Y90.107 E6.09626
G1 X64.925 Y89.987 E6.10138
G1 X64.984 Y89.565 E6.10996
G1 X64.614 Y89.206 E6.12034
G1 X63.015 Y87.494 E6.16747
G1 X62.491 Y86.831 E6.18446
G1 X62.294 Y86.540 E6.19154
G1 X61.022 Y84.443 E6.24088
G1 X60.828 Y84.074 E6.24928
G1 X60.612 Y83.597 E6.25980
G1 X60.492 Y83.293 E6.26638
G1 X59.635 Y80.788 E6.31965
G1 X59.488 Y80.192 E6.33201
G1 X59.382 Y79.480 E6.34649
G1 X58.800 Y74.192 E6.45351
G1 X62.921 Y69.594 E6.57775
G1 X63.015 Y69.594 E6.57964
G1 X63.251 Y69.150 E6.58975
G1 X63.208 Y69.085 E6.59133
G1 X64.686 Y63.185 E6.71370
G1 X65.061 Y63.409 F1800.000
G1 X69.443 Y61.078 E6.81356 F1800.000
G1 X70.046 Y60.786 E6.82703
G1 X70.558 Y60.593 E6.83804
G1 X73.064 Y59.881 E6.89047
G1 X73.868 Y59.719 E6.90697
G1 X74.271 Y59.671 E6.91513
G1 X76.822 Y59.529 E6.96655
G1 X77.674 Y59.555 E6.98369
G1 X78.028 Y59.593 E6.99084
G1 X80.475 Y59.994 E7.04075
G1 X81.273 Y60.196 E7.05731
G1 X81.590 Y60.302 E7.06402
G1 X83.792 Y61.165 E7.11160
G1 X84.531 Y61.528 E7.12817
G1 X84.853 Y61.719 E7.13571
G1 X87.043 Y63.194 E7.18885
G1 X87.680 Y63.702 E7.20523
G1 X87.957 Y63.960 E7.21285
G1 X89.561 Y65.642 E7.25961
G1 X89.779 Y65.895 E7.26632
G1 X90.270 Y66.559 E7.28294
G1 X90.601 Y67.098 E7.29567
G1 X91.151 Y67.013 E7.30686
G1 X92.053 Y63.409 E7.38161
G1 X96.435 Y61.078 E7.48147
G1 X97.038 Y60.786 E7.49494
G1 X97.550 Y60.593 E7.50595
G1 X100.056 Y59.881 E7.55838
G1 X100.860 Y59.719 E7.57488
G1 X101.263 Y59.671 E7.58304
G1 X103.815 Y59.529 E7.63445
G1 X104.168 Y59.528 E7.64157
G1 X105.020 Y59.593 E7.65875 F1800.000
G1 X107.468 Y59.994 E7.70866
G1 X107.811 Y60.070 E7.71573
G1 X108.582 Y60.302 E7.73193
G1 X110.784 Y61.165 E7.77951
G1 X111.523 Y61.528 E7.79608
G1 X111.845 Y61.719 E7.80362
G1 X114.036 Y63.194 E7.85676
G1 X114.672 Y63.702 E7.87314
G1 X114.949 Y63.960 E7.88076
G1 X116.553 Y65.642 E7.92752
G1 X117.063 Y66.272 E7.94382
G1 X117.262 Y66.559 E7.95085
G1 X118.586 Y68.712 E8.00170
G1 X118.959 Y69.455 E8.01843
G1 X119.086 Y69.761 E8.02510
G1 X119.858 Y71.942 E8.07164
G1 X120.060 Y72.707 E8.08757
G1 X120.118 Y73.013 E8.09384
G1 X120.440 Y75.301 E8.14031
G1 X120.486 Y76.105 E8.15653
G1 X120.480 Y76.455 E8.16355
G1 X120.299 Y78.969 E8.21427
G1 X120.173 Y79.780 E8.23079
G1 X120.094 Y80.116 E8.23773
G1 X119.447 Y82.345 E8.28442
G1 X119.335 Y82.668 E8.29131
G1 X119.012 Y83.411 E8.30761
G1 X117.818 Y85.632 E8.35834
G1 X117.636 Y85.930 E8.36535
G1 X117.148 Y86.610 E8.38220
G1 X115.589 Y88.432 E8.43045
G1 X115.352 Y88.681 E8.43737
G1 X114.739 Y89.233 E8.45397
G1 X114.042 Y89.762 E8.47157
G1 X114.043 Y90.180 E8.47997
G1 X114.672 Y90.681 E8.49616
G1 X114.949 Y90.940 E8.50379
G1 X116.553 Y92.622 E8.55054
G1 X117.063 Y93.252 E8.56685
G1 X117.262 Y93.539 E8.57388
G1 X118.586 Y95.692 E8.62473
G1 X118.959 Y96.435 E8.64146
G1 X119.086 Y96.741 E8.64812
G1 X119.858 Y98.921 E8.69466
G1 X119.955 Y99.249 E8.70153
G1 X120.118 Y99.993 E8.71686
G1 X120.440 Y102.280 E8.76334
G1 X120.486 Y103.085 E8.77955
G1 X120.480 Y103.434 E8.78658
G1 X120.299 Y105.948 E8.83729
G1 X120.257 Y106.285 E8.84412
G1 X120.094 Y107.096 E8.86076
G1 X119.447 Y109.324 E8.90745
G1 X119.335 Y109.648 E8.91434
G1 X119.012 Y110.391 E8.93064
G1 X117.818 Y112.612 E8.98137
G1 X117.636 Y112.909 E8.98838
G1 X117.148 Y113.589 E9.00523
G1 X115.589 Y115.411 E9.05348
G1 X115.007 Y115.986 E9.06994
G1 X114.739 Y116.213 E9.07700
G1 X112.740 Y117.730 E9.12748
G1 X112.460 Y117.920 E9.13429
G1 X111.741 Y118.334 E9.15098
G1 X109.624 Y119.325 E9.19801
G1 X109.310 Y119.452 E9.20482
G1 X108.577 Y119.690 E9.22033
G1 X106.329 Y120.230 E9.26686
G1 X105.533 Y120.353 E9.28306
G1 X105.183 Y120.381 E9.29011
G1 X102.662 Y120.443 E9.34086
G1 X101.836 Y120.394 E9.35750
G1 X101.490 Y120.347 E9.36453
G1 X99.170 Y119.906 E9.41204
G1 X98.841 Y119.825 E9.41885
G1 X98.078 Y119.577 E9.43499
G1 X95.832 Y118.636 E9.48400
G1 X95.515 Y118.482 E9.49108
G1 X94.796 Y118.064 E9.50782
G1 X92.768 Y116.644 E9.55763
G1 X92.491 Y116.427 E9.56471
G1 X91.905 Y115.892 E9.58067
G1 X90.175 Y114.022 E9.63193
G1 X89.787 Y114.020 E9.63974
G1 X88.597 Y115.411 E9.67658
G1 X88.015 Y115.986 E9.69304
G1 X87.747 Y116.213 E9.70010
G1 X85.748 Y117.730 E9.75059
G1 X85.055 Y118.170 E9.76710
G1 X84.749 Y118.334 E9.77408
G1 X82.632 Y119.325 E9.82112
G1 X82.318 Y119.452 E9.82792
G1 X81.585 Y119.690 E9.84344
G1 X79.336 Y120.230 E9.88996
G1 X78.541 Y120.353 E9.90616
G1 X78.191 Y120.381 E9.91322
G1 X75.670 Y120.443 E9.96396
G1 X74.844 Y120.394 E9.98060
G1 X74.498 Y120.347 E9.98764
G1 X72.178 Y119.906 E10.03514
G1 X71.405 Y119.691 E10.05129
G1 X71.086 Y119.577 E10.05810
G1 X68.840 Y118.636 E10.10711
G1 X68.095 Y118.246 E10.12402
G1 X67.804 Y118.064 E10.13093
G1 X65.776 Y116.644 E10.18073
G1 X65.147 Y116.119 E10.19721
G1 X64.913 Y115.892 E10.20378
G1 X63.329 Y114.195 E10.25048
G1 X62.832 Y113.567 E10.26660
G1 X62.647 Y113.293 E10.27325
G1 X61.387 Y111.217 E10.32211
G1 X61.204 Y110.870 E10.33001
G1 X60.885 Y110.128 E10.34625
G1 X60.037 Y107.650 E10.39895
G1 X59.899 Y107.090 E10.41056
G1 X59.798 Y106.409 E10.42439
G1 X59.237 Y101.312 E10.52756
G1 X63.108 Y96.992 E10.64427
G1 X63.800 Y96.992 E10.65820
G1 X64.037 Y96.549 E10.66831
G1 X63.659 Y95.986 E10.68194
G1 X65.061 Y90.389 E10.79804
G1 X65.670 Y90.065 E10.81190
G1 X65.710 Y89.613 E10.82104
G1 X65.147 Y89.140 E10.83583
G1 X64.913 Y88.912 E10.84239
G1 X63.329 Y87.216 E10.88910
G1 X63.111 Y86.957 E10.89590
G1 X62.647 Y86.314 E10.91187
G1 X61.387 Y84.237 E10.96073
G1 X61.204 Y83.890 E10.96862
G1 X60.998 Y83.434 E10.97869
G1 X60.885 Y83.148 E10.98488
G1 X60.037 Y80.670 E11.03757
G1 X59.899 Y80.110 E11.04918
G1 X59.798 Y79.430 E11.06301
G1 X59.237 Y74.333 E11.16619
G1 X63.108 Y70.013 E11.28289
G1 X63.800 Y70.013 E11.29682
G1 X64.037 Y69.569 E11.30694
G1 X63.659 Y69.006 E11.32057
G1 X65.047 Y63.467 E11.43545
G1 X65.422 Y63.692 F1800.000
G1 X69.635 Y61.450 E11.53147 F1800.000
G1 X70.210 Y61.172 E11.54431
G1 X70.689 Y60.991 E11.55461
G1 X73.169 Y60.287 E11.60648
G1 X73.453 Y60.221 E11.61235
G1 X73.931 Y60.134 E11.62212
G1 X74.307 Y60.089 E11.62975
G1 X76.834 Y59.948 E11.68067
G1 X77.165 Y59.947 E11.68733
G1 X77.971 Y60.008 E11.70359
G1 X80.396 Y60.406 E11.75304
G1 X80.717 Y60.477 E11.75965
G1 X81.447 Y60.696 E11.77498
G1 X83.629 Y61.551 E11.82212
G1 X83.916 Y61.681 E11.82847
G1 X84.629 Y62.073 E11.84484
G1 X86.801 Y63.536 E11.89752
G1 X87.403 Y64.016 E11.91303
G1 X87.663 Y64.258 E11.92016
G1 X89.251 Y65.923 E11.96646
G1 X89.454 Y66.160 E11.97273
G1 X89.919 Y66.788 E11.98846
G1 X90.765 Y68.165 E12.02098
G1 X91.315 Y68.080 E12.03217
G1 X92.415 Y63.692 E12.12320
G1 X96.627 Y61.450 E12.21922
G1 X97.202 Y61.172 E12.23206
G1 X97.681 Y60.991 E12.24236
G1 X100.161 Y60.287 E12.29423
G1 X100.923 Y60.134 E12.30986
G1 X101.299 Y60.089 E12.31749
G1 X103.827 Y59.948 E12.36842
G1 X104.632 Y59.972 E12.38464
G1 X104.963 Y60.008 E12.39134 F1800.000
G1 X107.389 Y60.406 E12.44079
G1 X107.709 Y60.477 E12.44740
G1 X108.439 Y60.696 E12.46273
G1 X110.621 Y61.551 E12.50987
G1 X111.320 Y61.894 E12.52553
G1 X111.621 Y62.073 E12.53259
G1 X113.793 Y63.536 E12.58527
G1 X114.396 Y64.016 E12.60078
G1 X114.655 Y64.258 E12.60791
G1 X116.243 Y65.923 E12.65421
G1 X116.725 Y66.520 E12.66964
G1 X116.911 Y66.788 E12.67621
G1 X118.223 Y68.922 E12.72661
G1 X118.576 Y69.625 E12.74243
G1 X118.694 Y69.911 E12.74867
G1 X119.460 Y72.071 E12.79477
G1 X119.651 Y72.795 E12.80984
G1 X120.023 Y75.348 E12.86175
G1 X120.067 Y76.109 E12.87708
G1 X120.061 Y76.436 E12.88366
G1 X119.882 Y78.928 E12.93392
G1 X119.762 Y79.696 E12.94956
G1 X119.689 Y80.010 E12.95605
G1 X119.048 Y82.217 E13.00230
G1 X118.943 Y82.520 E13.00874
G1 X118.637 Y83.222 E13.02416
G1 X117.454 Y85.424 E13.07444
G1 X117.285 Y85.702 E13.08100
G1 X116.822 Y86.346 E13.09694
G1 X115.278 Y88.151 E13.14474
G1 X115.056 Y88.384 E13.15121
G1 X114.477 Y88.907 E13.16691
G1 X113.327 Y89.779 E13.19595
G1 X113.339 Y90.210 E13.20462
G1 X114.035 Y90.697 E13.22172
G1 X114.655 Y91.238 E13.23827
G1 X116.243 Y92.903 E13.28457
G1 X116.725 Y93.499 E13.30000
G1 X116.911 Y93.768 E13.30657
G1 X118.223 Y95.902 E13.35697
G1 X118.576 Y96.605 E13.37279
G1 X118.694 Y96.891 E13.37903
G1 X119.460 Y99.051 E13.42513
G1 X119.551 Y99.357 E13.43156
G1 X119.705 Y100.061 E13.44606
G1 X120.023 Y102.328 E13.49211
G1 X120.067 Y103.089 E13.50745
G1 X120.061 Y103.416 E13.51402
G1 X119.882 Y105.907 E13.56429
G1 X119.843 Y106.222 E13.57067
G1 X119.689 Y106.990 E13.58642
G1 X119.048 Y109.197 E13.63266
G1 X118.943 Y109.500 E13.63911
G1 X118.637 Y110.202 E13.65452
G1 X117.454 Y112.403 E13.70480
G1 X117.285 Y112.682 E13.71136
G1 X116.822 Y113.326 E13.72731
G1 X115.278 Y115.131 E13.77511
G1 X114.727 Y115.674 E13.79067
G1 X114.477 Y115.886 E13.79727
G1 X112.495 Y117.389 E13.84731
G1 X112.234 Y117.567 E13.85368
G1 X111.553 Y117.959 E13.86947
G1 X109.456 Y118.941 E13.91606
G1 X109.163 Y119.060 E13.92243
G1 X108.469 Y119.285 E13.93710
G1 X106.241 Y119.820 E13.98320
G1 X105.489 Y119.937 E13.99853
G1 X105.162 Y119.963 E14.00513
G1 X102.663 Y120.024 E14.05542
G1 X101.881 Y119.978 E14.07117
G1 X101.557 Y119.934 E14.07775
G1 X99.260 Y119.496 E14.12481
G1 X98.528 Y119.293 E14.14009
G1 X98.230 Y119.186 E14.14645
G1 X96.004 Y118.254 E14.19501
G1 X95.708 Y118.110 E14.20163
G1 X95.027 Y117.714 E14.21748
G1 X93.018 Y116.308 E14.26683
G1 X92.758 Y116.104 E14.27346
G1 X92.204 Y115.599 E14.28856
G1 X90.635 Y113.917 E14.33483
G1 X90.202 Y113.372 E14.34883
G1 X89.801 Y113.360 E14.35691
G1 X88.286 Y115.131 E14.40380
G1 X87.735 Y115.674 E14.41936
G1 X87.485 Y115.886 E14.42597
G1 X85.503 Y117.389 E14.47600
G1 X85.241 Y117.567 E14.48237
G1 X84.561 Y117.959 E14.49817
G1 X82.464 Y118.941 E14.54476
G1 X82.171 Y119.060 E14.55113
G1 X81.477 Y119.285 E14.56580
G1 X79.249 Y119.820 E14.61190
G1 X78.497 Y119.937 E14.62722
G1 X78.170 Y119.963 E14.63382
G1 X75.671 Y120.024 E14.68411
G1 X74.889 Y119.978 E14.69987
G1 X74.565 Y119.934 E14.70645
G1 X72.267 Y119.496 E14.75350
G1 X71.536 Y119.293 E14.76878
G1 X71.238 Y119.186 E14.77514
G1 X69.012 Y118.254 E14.82371
G1 X68.307 Y117.885 E14.83971
G1 X68.035 Y117.714 E14.84617
G1 X66.025 Y116.308 E14.89552
G1 X65.431 Y115.811 E14.91110
G1 X65.212 Y115.599 E14.91725
G1 X63.643 Y113.917 E14.96352
G1 X63.173 Y113.323 E14.97877
G1 X62.999 Y113.067 E14.98499
G1 X61.752 Y111.010 E15.03338
G1 X61.581 Y110.686 E15.04077
G1 X61.278 Y109.983 E15.05616
G1 X60.439 Y107.532 E15.10828
G1 X60.310 Y107.008 E15.11914
G1 X60.214 Y106.359 E15.13233
G1 X59.674 Y101.452 E15.23165
G1 X63.295 Y97.411 E15.34083
G1 X64.586 Y97.411 E15.36680
G1 X64.822 Y96.968 E15.37691
G1 X64.111 Y95.907 E15.40260
G1 X65.422 Y90.671 E15.51120
G1 X66.459 Y90.120 E15.53482
G1 X66.488 Y89.651 E15.54426
G1 X65.766 Y89.125 E15.56223
G1 X65.212 Y88.619 E15.57733
G1 X63.643 Y86.938 E15.62360
G1 X63.439 Y86.696 E15.62996
G1 X62.999 Y86.087 E15.64507
G1 X61.752 Y84.031 E15.69347
G1 X61.581 Y83.706 E15.70085
G1 X61.384 Y83.270 E15.71046
G1 X60.439 Y80.552 E15.76836
G1 X60.310 Y80.028 E15.77922
G1 X60.214 Y79.380 E15.79241
G1 X59.674 Y74.473 E15.89173
G1 X63.295 Y70.431 E16.00091
G1 X64.586 Y70.431 E16.02688
G1 X64.822 Y69.988 E16.03699
