; generated by Slic3r 1.2.9 on 2020-05-08 at 22:13:08

; external perimeters extrusion width = 0.40mm
; perimeters extrusion width = 0.67mm
; infill extrusion width = 0.67mm
; solid infill extrusion width = 0.67mm
; top infill extrusion width = 0.67mm

M190 S60 ; set bed temperature
M104 S200 ; set temperature
G28 ; home all axes
G1 Z5 F5000 ; lift nozzle

M109 S200 ; wait for temperature to be reached
G21 ; set units to millimeters
G90 ; use absolute coordinates
M82 ; use absolute distances for extrusion
G92 E0
G1 Z0.200 F1800.000
G1 E-3.00000 F2400.00000
G92 E0
G1 X38.918 Y38.918 F1800.000
G1 E3.00000 F2400.00000
G1 X39.670 Y38.205 E3.01998 F1800.000
G1 X40.294 Y37.670 E3.03585
G1 X40.942 Y37.162 E3.05172
G1 X41.610 Y36.684 E3.06759
G1 X42.300 Y36.234 E3.08346
G1 X43.008 Y35.815 E3.09933
G1 X43.733 Y35.428 E3.11519
G1 X44.475 Y35.072 E3.13106
G1 X45.232 Y34.750 E3.14693
G1 X46.002 Y34.460 E3.16280
G1 X46.784 Y34.205 E3.17867
G1 X47.893 Y33.906 E3.20083
G1 X48.766 Y33.719 E3.21805
G1 X49.578 Y33.585 E3.23392
G1 X50.395 Y33.486 E3.24979
G1 X51.215 Y33.423 E3.26566
G1 X52.250 Y33.394 E3.28564
G1 X127.963 Y33.396 E4.74615
G1 X128.785 Y33.423 E4.76202 F1800.000
G1 X129.930 Y33.522 E4.78418
G1 X130.814 Y33.645 E4.80141
G1 X131.623 Y33.797 E4.81728
G1 X132.836 Y34.094 E4.84136
G1 X133.623 Y34.333 E4.85723
G1 X134.399 Y34.606 E4.87310
G1 X135.162 Y34.913 E4.88897
G1 X135.911 Y35.253 E4.90484
G1 X136.992 Y35.815 E4.92835
G1 X137.701 Y36.234 E4.94422
G1 X138.390 Y36.684 E4.96009
G1 X139.059 Y37.162 E4.97596
G1 X140.032 Y37.944 E5.00005
G1 X140.645 Y38.493 E5.01592
G1 X141.232 Y39.069 E5.03178
G1 X141.795 Y39.670 E5.04766
G1 X142.534 Y40.548 E5.06981
G1 X143.072 Y41.261 E5.08704
G1 X143.537 Y41.940 E5.10290
G1 X143.971 Y42.639 E5.11878
G1 X144.375 Y43.355 E5.13465
G1 X144.748 Y44.089 E5.15052
G1 X145.250 Y45.232 E5.17460
G1 X145.540 Y46.002 E5.19047
G1 X145.795 Y46.784 E5.20634
G1 X146.094 Y47.893 E5.22849
G1 X146.280 Y48.766 E5.24572
G1 X146.415 Y49.578 E5.26159
G1 X146.514 Y50.395 E5.27747
G1 X146.577 Y51.215 E5.29334
G1 X146.606 Y52.250 E5.31331
G1 X146.606 Y127.750 E6.76971
G1 X146.577 Y128.785 E6.78969
G1 X146.514 Y129.605 E6.80556
G1 X146.415 Y130.422 E6.82143
G1 X146.280 Y131.234 E6.83730
G1 X146.111 Y132.039 E6.85317
G1 X145.906 Y132.835 E6.86903
G1 X145.540 Y133.999 E6.89256
G1 X145.250 Y134.768 E6.90842
G1 X144.928 Y135.525 E6.92429
G1 X144.572 Y136.267 E6.94016
G1 X144.185 Y136.992 E6.95602
G1 X143.537 Y138.060 E6.98012
G1 X143.072 Y138.739 E6.99598
G1 X142.578 Y139.397 E7.01185
G1 X142.056 Y140.032 E7.02771
G1 X141.507 Y140.645 E7.04359
G1 X140.931 Y141.232 E7.05946
G1 X140.330 Y141.795 E7.07533
G1 X139.706 Y142.330 E7.09119
G1 X139.059 Y142.837 E7.10706
G1 X138.390 Y143.316 E7.12293
G1 X137.700 Y143.766 E7.13880
G1 X136.992 Y144.185 E7.15468
G1 X136.267 Y144.572 E7.17054
G1 X135.525 Y144.928 E7.18641
G1 X134.768 Y145.250 E7.20228
G1 X133.998 Y145.540 E7.21815
G1 X133.216 Y145.795 E7.23402
G1 X132.424 Y146.017 E7.24988
G1 X131.623 Y146.203 E7.26575
G1 X130.814 Y146.355 E7.28163
G1 X129.999 Y146.470 E7.29750
G1 X128.785 Y146.577 E7.32102
G1 X127.750 Y146.606 E7.34099
G1 X52.250 Y146.606 E8.79739
G1 X51.640 Y146.595 E8.80916
G1 X50.819 Y146.551 E8.82503
G1 X49.578 Y146.415 E8.84911
G1 X48.766 Y146.280 E8.86498
G1 X47.961 Y146.111 E8.88085
G1 X47.164 Y145.906 E8.89671
G1 X46.377 Y145.667 E8.91258
G1 X45.297 Y145.276 E8.93474
G1 X44.475 Y144.928 E8.95197
G1 X43.733 Y144.572 E8.96785
G1 X42.639 Y143.971 E8.99192
G1 X41.940 Y143.537 E9.00779
G1 X40.998 Y142.879 E9.02996
G1 X40.294 Y142.330 E9.04718
G1 X39.670 Y141.795 E9.06304
G1 X39.069 Y141.232 E9.07891
G1 X38.493 Y140.645 E9.09478
G1 X37.670 Y139.706 E9.11887
G1 X36.928 Y138.739 E9.14238
G1 X36.463 Y138.060 E9.15825
G1 X36.029 Y137.362 E9.17412
G1 X35.625 Y136.645 E9.18999
G1 X35.253 Y135.911 E9.20586
G1 X34.913 Y135.162 E9.22173
G1 X34.631 Y134.464 E9.23624
G1 X34.205 Y133.216 E9.26168
G1 X33.983 Y132.424 E9.27755
G1 X33.797 Y131.623 E9.29342
G1 X33.585 Y130.422 E9.31694
G1 X33.486 Y129.605 E9.33281
G1 X33.423 Y128.785 E9.34867
G1 X33.394 Y127.750 E9.36865
G1 X33.396 Y52.037 E10.82917
G1 X33.423 Y51.215 E10.84504
G1 X33.530 Y50.000 E10.86855
G1 X33.645 Y49.186 E10.88442
G1 X33.797 Y48.377 E10.90029
G1 X33.983 Y47.576 E10.91616
G1 X34.333 Y46.377 E10.94025
G1 X34.606 Y45.601 E10.95612
G1 X34.913 Y44.838 E10.97198
G1 X35.253 Y44.089 E10.98785
G1 X35.782 Y43.069 E11.01001
G1 X36.234 Y42.300 E11.02724
G1 X36.684 Y41.610 E11.04311
G1 X37.162 Y40.942 E11.05897
G1 X37.670 Y40.294 E11.07484
G1 X38.205 Y39.670 E11.09071
G1 X38.876 Y38.961 E11.10953
G1 X39.320 Y39.405 F1800.000
G1 X40.084 Y38.678 E11.12988 F1800.000
G1 X40.687 Y38.160 E11.14522
G1 X41.313 Y37.669 E11.16056
G1 X41.959 Y37.206 E11.17590
G1 X42.625 Y36.771 E11.19124
G1 X43.310 Y36.366 E11.20658
G1 X44.011 Y35.991 E11.22192
G1 X44.728 Y35.648 E11.23726
G1 X45.459 Y35.335 E11.25260
G1 X46.204 Y35.055 E11.26794
G1 X46.960 Y34.808 E11.28328
G1 X48.042 Y34.516 E11.30491
G1 X48.889 Y34.336 E11.32160
G1 X49.674 Y34.206 E11.33695
G1 X50.463 Y34.111 E11.35228
G1 X51.256 Y34.050 E11.36763
G1 X52.250 Y34.022 E11.38681
G1 X127.949 Y34.024 E12.84706
G1 X128.744 Y34.050 E12.86240 F1800.000
G1 X129.861 Y34.146 E12.88403
G1 X130.718 Y34.266 E12.90072
G1 X131.500 Y34.413 E12.91607
G1 X132.660 Y34.697 E12.93910
G1 X133.421 Y34.928 E12.95444
G1 X134.171 Y35.192 E12.96978
G1 X134.909 Y35.488 E12.98511
G1 X135.633 Y35.816 E13.00046
G1 X136.690 Y36.366 E13.02344
G1 X137.375 Y36.771 E13.03878
G1 X138.041 Y37.206 E13.05412
G1 X138.687 Y37.669 E13.06946
G1 X139.618 Y38.416 E13.09249
G1 X140.210 Y38.947 E13.10783
G1 X140.779 Y39.503 E13.12317
G1 X141.322 Y40.084 E13.13852
G1 X142.044 Y40.942 E13.16015
G1 X142.565 Y41.633 E13.17684
G1 X143.014 Y42.289 E13.19218
G1 X143.434 Y42.964 E13.20752
G1 X143.824 Y43.658 E13.22286
G1 X144.184 Y44.367 E13.23820
G1 X144.665 Y45.459 E13.26123
G1 X144.945 Y46.204 E13.27657
G1 X145.192 Y46.960 E13.29191
G1 X145.484 Y48.042 E13.31354
G1 X145.664 Y48.889 E13.33023
G1 X145.794 Y49.673 E13.34558
G1 X145.889 Y50.463 E13.36092
G1 X145.950 Y51.256 E13.37627
G1 X145.978 Y52.250 E13.39544
G1 X145.978 Y127.750 E14.85185
G1 X145.950 Y128.744 E14.87103
G1 X145.889 Y129.537 E14.88637
G1 X145.794 Y130.327 E14.90171
G1 X145.664 Y131.111 E14.91706
G1 X145.501 Y131.890 E14.93240
G1 X145.303 Y132.660 E14.94773
G1 X144.945 Y133.797 E14.97073
G1 X144.665 Y134.541 E14.98606
G1 X144.352 Y135.272 E15.00140
G1 X144.008 Y135.989 E15.01674
G1 X143.634 Y136.690 E15.03208
G1 X143.014 Y137.711 E15.05511
G1 X142.565 Y138.367 E15.07045
G1 X142.088 Y139.003 E15.08579
G1 X141.584 Y139.618 E15.10113
G1 X141.053 Y140.210 E15.11647
G1 X140.497 Y140.779 E15.13181
G1 X139.916 Y141.322 E15.14716
G1 X139.313 Y141.840 E15.16249
G1 X138.687 Y142.331 E15.17783
G1 X138.041 Y142.794 E15.19317
G1 X137.374 Y143.229 E15.20851
G1 X136.690 Y143.634 E15.22386
G1 X135.989 Y144.008 E15.23919
G1 X135.272 Y144.352 E15.25453
G1 X134.541 Y144.665 E15.26987
G1 X133.796 Y144.945 E15.28521
G1 X133.040 Y145.192 E15.30055
G1 X132.275 Y145.406 E15.31589
G1 X131.500 Y145.587 E15.33123
G1 X130.718 Y145.734 E15.34658
G1 X129.931 Y145.846 E15.36192
G1 X128.744 Y145.950 E15.38491
G1 X127.750 Y145.978 E15.40409
G1 X52.250 Y145.978 E16.86049
G1 X50.860 Y145.924 E16.88733
G1 X49.673 Y145.794 E16.91035
G1 X48.889 Y145.664 E16.92569
G1 X48.110 Y145.501 E16.94103
G1 X47.340 Y145.303 E16.95637
G1 X46.579 Y145.072 E16.97171
G1 X45.525 Y144.690 E16.99334
G1 X44.728 Y144.352 E17.01004
G1 X44.011 Y144.008 E17.02539
G1 X42.965 Y143.434 E17.04841
G1 X42.289 Y143.014 E17.06375
G1 X41.633 Y142.565 E17.07909
G1 X40.997 Y142.088 E17.09443
G1 X40.382 Y141.584 E17.10976
G1 X39.790 Y141.053 E17.12511
G1 X38.947 Y140.210 E17.14809
G1 X38.416 Y139.618 E17.16344
G1 X37.912 Y139.003 E17.17877
G1 X37.435 Y138.367 E17.19411
G1 X36.986 Y137.711 E17.20946
G1 X36.602 Y137.096 E17.22344
G1 X35.991 Y135.989 E17.24782
G1 X35.648 Y135.272 E17.26316
G1 X35.335 Y134.540 E17.27850
G1 X35.055 Y133.796 E17.29384
G1 X34.808 Y133.040 E17.30918
G1 X34.499 Y131.889 E17.33217
G1 X34.336 Y131.111 E17.34751
G1 X34.206 Y130.326 E17.36285
G1 X34.111 Y129.537 E17.37819
G1 X34.050 Y128.744 E17.39353
G1 X34.022 Y127.750 E17.41272
G1 X34.022 Y52.250 E18.86912
G1 X34.050 Y51.256 E18.88831
G1 X34.111 Y50.463 E18.90365
G1 X34.206 Y49.673 E18.91899
G1 X34.336 Y48.889 E18.93433
G1 X34.499 Y48.111 E18.94967
G1 X34.697 Y47.340 E18.96501
G1 X35.055 Y46.204 E18.98799
G1 X35.335 Y45.459 E19.00334
G1 X35.648 Y44.728 E19.01867
G1 X35.992 Y44.011 E19.03402
G1 X36.366 Y43.310 E19.04935
G1 X36.986 Y42.289 E19.07239
G1 X37.435 Y41.633 E19.08773
G1 X38.160 Y40.687 E19.11071
G1 X38.678 Y40.084 E19.12605
G1 X39.278 Y39.447 E19.14292
G1 X39.722 Y39.892 F1800.000
G1 X40.498 Y39.150 E19.16363 F1800.000
G1 X41.081 Y38.650 E19.17844
G1 X41.685 Y38.176 E19.19325
G1 X42.309 Y37.728 E19.20806
G1 X42.951 Y37.309 E19.22287
G1 X43.612 Y36.917 E19.23769
G1 X44.289 Y36.555 E19.25250
G1 X44.981 Y36.223 E19.26731
G1 X45.687 Y35.921 E19.28212
G1 X46.406 Y35.650 E19.29693
G1 X47.135 Y35.411 E19.31174
G1 X48.192 Y35.126 E19.33284
G1 X49.011 Y34.952 E19.34901
G1 X49.769 Y34.827 E19.36382
G1 X50.531 Y34.736 E19.37863
G1 X51.297 Y34.677 E19.39345
G1 X52.250 Y34.650 E19.41184
G1 X127.936 Y34.652 E20.87182
G1 X128.703 Y34.677 E20.88664 F1800.000
G1 X129.793 Y34.771 E20.90774
G1 X130.623 Y34.887 E20.92390
G1 X131.378 Y35.029 E20.93872
G1 X132.125 Y35.204 E20.95353
G1 X132.865 Y35.411 E20.96834
G1 X133.594 Y35.650 E20.98315
G1 X134.656 Y36.063 E21.00512
G1 X135.648 Y36.524 E21.02623
G1 X136.388 Y36.917 E21.04239
G1 X137.049 Y37.309 E21.05720
G1 X137.692 Y37.728 E21.07201
G1 X138.315 Y38.176 E21.08682
G1 X139.204 Y38.889 E21.10880
G1 X139.776 Y39.401 E21.12361
G1 X140.325 Y39.938 E21.13842
G1 X140.850 Y40.498 E21.15323
G1 X141.554 Y41.335 E21.17433
G1 X142.059 Y42.004 E21.19050
G1 X142.492 Y42.638 E21.20531
G1 X142.897 Y43.290 E21.22012
G1 X143.274 Y43.960 E21.23494
G1 X143.620 Y44.645 E21.24975
G1 X144.079 Y45.687 E21.27172
G1 X144.350 Y46.406 E21.28653
G1 X144.589 Y47.135 E21.30134
G1 X144.874 Y48.191 E21.32244
G1 X145.048 Y49.011 E21.33861
G1 X145.173 Y49.769 E21.35342
G1 X145.265 Y50.532 E21.36824
G1 X145.323 Y51.297 E21.38305
G1 X145.350 Y52.250 E21.40143
G1 X145.350 Y127.750 E22.85784
G1 X145.323 Y128.703 E22.87623
G1 X145.264 Y129.469 E22.89104
G1 X145.173 Y130.231 E22.90585
G1 X145.048 Y130.989 E22.92067
G1 X144.890 Y131.740 E22.93548
G1 X144.700 Y132.484 E22.95029
G1 X144.350 Y133.595 E22.97275
G1 X144.079 Y134.313 E22.98756
G1 X143.777 Y135.019 E23.00237
G1 X143.445 Y135.711 E23.01718
G1 X143.083 Y136.388 E23.03199
G1 X142.492 Y137.362 E23.05397
G1 X142.059 Y137.996 E23.06878
G1 X141.598 Y138.610 E23.08359
G1 X141.111 Y139.204 E23.09839
G1 X140.599 Y139.776 E23.11321
G1 X140.062 Y140.325 E23.12802
G1 X139.502 Y140.850 E23.14284
G1 X138.919 Y141.350 E23.15764
G1 X138.316 Y141.824 E23.17245
G1 X137.691 Y142.272 E23.18727
G1 X137.049 Y142.691 E23.20208
G1 X136.388 Y143.083 E23.21689
G1 X135.711 Y143.445 E23.23170
G1 X135.019 Y143.777 E23.24651
G1 X134.313 Y144.079 E23.26132
G1 X133.594 Y144.350 E23.27614
G1 X132.865 Y144.589 E23.29095
G1 X132.125 Y144.796 E23.30576
G1 X131.378 Y144.971 E23.32057
G1 X130.231 Y145.173 E23.34303
G1 X129.468 Y145.264 E23.35784
G1 X128.703 Y145.323 E23.37266
G1 X127.750 Y145.350 E23.39104
G1 X52.250 Y145.350 E24.84745
G1 X50.901 Y145.297 E24.87349
G1 X49.769 Y145.173 E24.89546
G1 X49.011 Y145.048 E24.91027
G1 X48.260 Y144.890 E24.92508
G1 X47.516 Y144.700 E24.93989
G1 X46.781 Y144.477 E24.95470
G1 X45.753 Y144.105 E24.97580
G1 X44.981 Y143.777 E24.99197
G1 X44.289 Y143.445 E25.00679
G1 X43.290 Y142.897 E25.02875
G1 X42.638 Y142.492 E25.04357
G1 X42.004 Y142.059 E25.05838
G1 X41.390 Y141.598 E25.07319
G1 X40.796 Y141.111 E25.08800
G1 X40.224 Y140.599 E25.10281
G1 X39.401 Y139.776 E25.12527
G1 X38.889 Y139.204 E25.14008
G1 X38.402 Y138.610 E25.15489
G1 X37.941 Y137.996 E25.16970
G1 X37.508 Y137.362 E25.18452
G1 X37.139 Y136.770 E25.19797
G1 X36.555 Y135.711 E25.22130
G1 X36.223 Y135.019 E25.23611
G1 X35.921 Y134.313 E25.25092
G1 X35.650 Y133.594 E25.26573
G1 X35.411 Y132.865 E25.28054
G1 X35.110 Y131.740 E25.30300
G1 X34.952 Y130.989 E25.31781
G1 X34.827 Y130.231 E25.33263
G1 X34.736 Y129.469 E25.34744
G1 X34.677 Y128.703 E25.36224
G1 X34.650 Y127.750 E25.38064
G1 X34.650 Y52.250 E26.83704
G1 X34.677 Y51.297 E26.85544
G1 X34.736 Y50.531 E26.87025
G1 X34.827 Y49.769 E26.88506
G1 X34.952 Y49.011 E26.89987
G1 X35.110 Y48.260 E26.91468
G1 X35.300 Y47.516 E26.92949
G1 X35.650 Y46.406 E26.95195
G1 X35.921 Y45.687 E26.96676
G1 X36.223 Y44.981 E26.98157
G1 X36.555 Y44.289 E26.99639
G1 X37.103 Y43.290 E27.01836
G1 X37.508 Y42.638 E27.03317
G1 X38.119 Y41.762 E27.05378
G1 X38.650 Y41.081 E27.07044
G1 X39.150 Y40.498 E27.08525
G1 X39.679 Y39.934 E27.10017
G1 X40.129 Y40.372 F1800.000
G1 X40.659 Y39.855 E27.11445 F1800.000
G1 X41.210 Y39.361 E27.12873
G1 X41.783 Y38.892 E27.14301
G1 X42.376 Y38.448 E27.15730
G1 X42.987 Y38.031 E27.17158
G1 X43.616 Y37.640 E27.18586
G1 X44.262 Y37.277 E27.20015
G1 X45.234 Y36.798 E27.22106
G1 X45.915 Y36.506 E27.23534
G1 X46.608 Y36.245 E27.24963
G1 X47.311 Y36.014 E27.26391
G1 X48.341 Y35.737 E27.28448
G1 X49.134 Y35.568 E27.30012
G1 X49.865 Y35.448 E27.31440
G1 X50.600 Y35.360 E27.32869
G1 X51.338 Y35.304 E27.34297
G1 X52.250 Y35.279 E27.36057
G1 X127.922 Y35.281 E28.82029
G1 X128.662 Y35.304 E28.83457 F1800.000
G1 X129.725 Y35.396 E28.85514
G1 X130.527 Y35.508 E28.87078
G1 X131.255 Y35.646 E28.88507
G1 X131.976 Y35.814 E28.89935
G1 X132.689 Y36.014 E28.91363
G1 X133.392 Y36.245 E28.92791
G1 X134.403 Y36.638 E28.94883
G1 X135.077 Y36.943 E28.96311
G1 X136.086 Y37.468 E28.98504
G1 X136.723 Y37.846 E28.99932
G1 X137.342 Y38.251 E29.01361
G1 X137.944 Y38.683 E29.02789
G1 X138.789 Y39.361 E29.04880
G1 X139.341 Y39.855 E29.06309
G1 X139.871 Y40.372 E29.07737
G1 X140.378 Y40.913 E29.09165
G1 X141.064 Y41.728 E29.11222
G1 X141.552 Y42.376 E29.12786
G1 X141.969 Y42.987 E29.14214
G1 X142.360 Y43.616 E29.15643
G1 X142.723 Y44.262 E29.17071
G1 X143.057 Y44.923 E29.18500
G1 X143.494 Y45.915 E29.20591
G1 X143.755 Y46.608 E29.22019
G1 X143.986 Y47.311 E29.23447
G1 X144.263 Y48.341 E29.25504
G1 X144.432 Y49.134 E29.27068
G1 X144.552 Y49.865 E29.28497
G1 X144.640 Y50.600 E29.29925
G1 X144.696 Y51.338 E29.31354
G1 X144.721 Y52.250 E29.33113
G1 X144.721 Y127.750 E30.78753
G1 X144.670 Y129.058 E30.81279
G1 X144.597 Y129.794 E30.82706
G1 X144.492 Y130.527 E30.84134
G1 X144.354 Y131.255 E30.85563
G1 X144.186 Y131.976 E30.86991
G1 X143.986 Y132.689 E30.88419
G1 X143.755 Y133.393 E30.89848
G1 X143.494 Y134.085 E30.91276
G1 X143.202 Y134.766 E30.92704
G1 X142.881 Y135.433 E30.94132
G1 X142.532 Y136.086 E30.95560
G1 X141.969 Y137.013 E30.97652
G1 X141.552 Y137.624 E30.99080
G1 X141.108 Y138.217 E31.00509
G1 X140.639 Y138.789 E31.01936
G1 X140.145 Y139.341 E31.03365
G1 X139.628 Y139.871 E31.04793
G1 X139.087 Y140.378 E31.06222
G1 X138.526 Y140.860 E31.07650
G1 X137.944 Y141.317 E31.09078
G1 X137.342 Y141.749 E31.10506
G1 X136.723 Y142.154 E31.11935
G1 X136.086 Y142.532 E31.13363
G1 X135.433 Y142.881 E31.14791
G1 X134.766 Y143.202 E31.16219
G1 X134.085 Y143.494 E31.17648
G1 X133.392 Y143.755 E31.19076
G1 X132.689 Y143.986 E31.20504
G1 X131.976 Y144.186 E31.21932
G1 X131.255 Y144.354 E31.23361
G1 X130.527 Y144.492 E31.24789
G1 X129.794 Y144.597 E31.26218
G1 X128.662 Y144.696 E31.28411
G1 X127.750 Y144.721 E31.30170
G1 X52.250 Y144.721 E32.75811
G1 X50.942 Y144.670 E32.78336
G1 X49.865 Y144.552 E32.80426
G1 X49.134 Y144.432 E32.81855
G1 X48.409 Y144.280 E32.83283
G1 X47.692 Y144.097 E32.84711
G1 X46.983 Y143.882 E32.86139
G1 X45.980 Y143.519 E32.88197
G1 X45.234 Y143.202 E32.89761
G1 X44.566 Y142.881 E32.91190
G1 X43.616 Y142.360 E32.93280
G1 X42.987 Y141.969 E32.94709
G1 X42.376 Y141.552 E32.96137
G1 X41.783 Y141.108 E32.97565
G1 X41.211 Y140.639 E32.98993
G1 X40.659 Y140.145 E33.00422
G1 X39.855 Y139.341 E33.02614
G1 X39.361 Y138.789 E33.04043
G1 X38.892 Y138.217 E33.05471
G1 X38.448 Y137.624 E33.06899
