; generated by Slic3r 1.2.9 on 2020-05-09 at 13:19:48

; external perimeters extrusion width = 0.40mm
; perimeters extrusion width = 0.67mm
; infill extrusion width = 0.67mm
; solid infill extrusion width = 0.67mm
; top infill extrusion width = 0.67mm
; support material extrusion width = 0.40mm

M190 S60 ; set bed temperature
M104 S200 ; set temperature
G28 ; home all axes
G1 Z5 F5000 ; lift nozzle

M109 S200 ; wait for temperature to be reached
G21 ; set units to millimeters
G90 ; use absolute coordinates
M82 ; use absolute distances for extrusion
G92 E0
G1 Z0.200 F1800.000
G1 E-3.00000 F2400.00000
G92 E0
G1 X38.918 Y38.918 F1800.000
G1 E3.00000 F2400.00000
G1 X39.670 Y38.205 E3.01998 F1800.000
G1 X40.294 Y37.670 E3.03585
G1 X40.942 Y37.162 E3.05172
G1 X41.610 Y36.684 E3.06759
G1 X42.300 Y36.234 E3.08346
G1 X43.294 Y35.659 E3.10561
G1 X44.089 Y35.253 E3.12284
G1 X44.838 Y34.913 E3.13871
G1 X62.589 Y27.961 E3.50645
G1 X66.148 Y27.289 E3.57631
G1 X112.480 Y27.291 E4.47007
G1 X113.615 Y27.326 E4.49197 F1800.000
G1 X116.706 Y27.946 E4.55278
G1 X134.768 Y34.750 E4.92511
G1 X135.525 Y35.072 E4.94098
G1 X136.267 Y35.428 E4.95685
G1 X136.992 Y35.815 E4.97271
G1 X138.060 Y36.463 E4.99680
G1 X138.739 Y36.928 E5.01267
G1 X139.397 Y37.422 E5.02854
G1 X140.330 Y38.205 E5.05205
G1 X140.931 Y38.768 E5.06792
G1 X141.507 Y39.355 E5.08379
G1 X142.330 Y40.294 E5.10788
G1 X142.838 Y40.941 E5.12375
G1 X143.537 Y41.940 E5.14726
G1 X143.971 Y42.639 E5.16313
G1 X144.572 Y43.733 E5.18722
G1 X144.928 Y44.475 E5.20309
G1 X145.394 Y45.601 E5.22660
G1 X145.667 Y46.377 E5.24247
G1 X145.906 Y47.165 E5.25834
G1 X146.203 Y48.377 E5.28243
G1 X146.355 Y49.186 E5.29830
G1 X146.470 Y50.000 E5.31417
G1 X146.551 Y50.819 E5.33003
G1 X146.595 Y51.640 E5.34590
G1 X146.606 Y52.250 E5.35766
G1 X146.606 Y127.750 E6.81407
G1 X146.595 Y128.360 E6.82584
G1 X146.551 Y129.181 E6.84171
G1 X146.470 Y129.999 E6.85756
G1 X146.355 Y130.814 E6.87343
G1 X146.111 Y132.039 E6.89752
G1 X145.906 Y132.835 E6.91339
G1 X145.667 Y133.623 E6.92926
G1 X145.250 Y134.768 E6.95277
G1 X144.928 Y135.525 E6.96864
G1 X144.572 Y136.267 E6.98451
G1 X144.185 Y136.992 E7.00038
G1 X143.766 Y137.700 E7.01625
G1 X143.316 Y138.390 E7.03212
G1 X142.879 Y139.002 E7.04663
G1 X142.056 Y140.032 E7.07207
G1 X141.507 Y140.645 E7.08794
G1 X140.931 Y141.232 E7.10381
G1 X140.032 Y142.056 E7.12733
G1 X139.396 Y142.578 E7.14320
G1 X138.739 Y143.072 E7.15907
G1 X138.060 Y143.537 E7.17493
G1 X137.362 Y143.971 E7.19080
G1 X136.267 Y144.572 E7.21489
G1 X135.162 Y145.087 E7.23840
G1 X134.398 Y145.394 E7.25428
G1 X133.623 Y145.667 E7.27014
G1 X132.835 Y145.906 E7.28601
G1 X132.039 Y146.111 E7.30188
G1 X130.814 Y146.355 E7.32597
G1 X129.999 Y146.470 E7.34184
G1 X129.181 Y146.551 E7.35770
G1 X128.360 Y146.595 E7.37356
G1 X127.750 Y146.606 E7.38533
G1 X52.250 Y146.606 E8.84174
G1 X51.640 Y146.595 E8.85350
G1 X50.819 Y146.551 E8.86937
G1 X49.578 Y146.415 E8.89345
G1 X48.766 Y146.280 E8.90932
G1 X47.961 Y146.111 E8.92519
G1 X47.164 Y145.906 E8.94106
G1 X46.377 Y145.667 E8.95693
G1 X45.297 Y145.276 E8.97909
G1 X44.475 Y144.928 E8.99631
G1 X43.733 Y144.572 E9.01219
G1 X42.639 Y143.971 E9.03627
G1 X41.940 Y143.537 E9.05214
G1 X41.261 Y143.072 E9.06800
G1 X40.603 Y142.578 E9.08388
G1 X39.968 Y142.056 E9.09974
G1 X39.355 Y141.507 E9.11561
G1 X38.493 Y140.645 E9.13913
G1 X37.944 Y140.032 E9.15500
G1 X37.422 Y139.397 E9.17087
G1 X36.928 Y138.739 E9.18673
G1 X36.463 Y138.060 E9.20261
G1 X36.065 Y137.422 E9.21711
G1 X35.428 Y136.267 E9.24256
G1 X35.072 Y135.525 E9.25843
G1 X34.750 Y134.768 E9.27430
G1 X34.460 Y133.998 E9.29017
G1 X34.205 Y133.216 E9.30603
G1 X33.889 Y132.039 E9.32955
G1 X33.719 Y131.234 E9.34542
G1 X33.585 Y130.422 E9.36129
G1 X33.486 Y129.605 E9.37716
G1 X33.423 Y128.785 E9.39302
G1 X33.394 Y127.750 E9.41300
G1 X33.394 Y52.250 E10.86941
G1 X33.423 Y51.215 E10.88939
G1 X33.486 Y50.395 E10.90526
G1 X33.585 Y49.578 E10.92113
G1 X33.719 Y48.766 E10.93699
G1 X33.889 Y47.961 E10.95286
G1 X34.094 Y47.164 E10.96873
G1 X34.460 Y46.002 E10.99225
G1 X34.750 Y45.232 E11.00812
G1 X35.072 Y44.475 E11.02399
G1 X35.428 Y43.733 E11.03986
G1 X36.029 Y42.638 E11.06394
G1 X36.463 Y41.940 E11.07981
G1 X37.106 Y41.019 E11.10148
G1 X37.670 Y40.294 E11.11919
G1 X38.205 Y39.670 E11.13506
G1 X38.876 Y38.961 E11.15388
G1 X39.320 Y39.405 F1800.000
G1 X40.084 Y38.678 E11.17423 F1800.000
G1 X40.687 Y38.160 E11.18957
G1 X41.313 Y37.669 E11.20491
G1 X41.959 Y37.206 E11.22025
G1 X42.625 Y36.771 E11.23559
G1 X43.596 Y36.209 E11.25722
G1 X44.367 Y35.816 E11.27391
G1 X45.091 Y35.488 E11.28925
G1 X62.818 Y28.546 E11.65649
G1 X66.148 Y27.918 E11.72186
G1 X112.480 Y27.920 E12.61561
G1 X113.592 Y27.954 E12.63708 F1800.000
G1 X116.485 Y28.534 E12.69398
G1 X134.541 Y35.335 E13.06618
G1 X135.272 Y35.648 E13.08152
G1 X135.989 Y35.992 E13.09686
G1 X137.036 Y36.566 E13.11989
G1 X137.711 Y36.986 E13.13522
G1 X138.367 Y37.435 E13.15057
G1 X139.003 Y37.912 E13.16591
G1 X139.916 Y38.678 E13.18889
G1 X140.497 Y39.221 E13.20423
G1 X141.053 Y39.790 E13.21957
G1 X141.840 Y40.687 E13.24260
G1 X142.331 Y41.313 E13.25794
G1 X143.014 Y42.289 E13.28092
G1 X143.434 Y42.964 E13.29627
G1 X144.008 Y44.011 E13.31930
G1 X144.352 Y44.728 E13.33464
G1 X144.808 Y45.829 E13.35762
G1 X145.072 Y46.579 E13.37297
G1 X145.303 Y47.340 E13.38831
G1 X145.587 Y48.500 E13.41133
G1 X145.734 Y49.282 E13.42668
G1 X145.846 Y50.069 E13.44202
G1 X145.924 Y50.860 E13.45735
G1 X145.978 Y52.250 E13.48419
G1 X145.978 Y127.750 E14.94059
G1 X145.924 Y129.140 E14.96743
G1 X145.846 Y129.931 E14.98276
G1 X145.734 Y130.718 E14.99810
G1 X145.501 Y131.890 E15.02113
G1 X145.303 Y132.660 E15.03647
G1 X145.072 Y133.421 E15.05181
G1 X144.665 Y134.541 E15.07480
G1 X144.352 Y135.272 E15.09014
G1 X144.008 Y135.989 E15.10548
G1 X143.634 Y136.690 E15.12081
G1 X143.229 Y137.374 E15.13616
G1 X142.794 Y138.041 E15.15150
G1 X142.372 Y138.630 E15.16548
G1 X141.584 Y139.618 E15.18986
G1 X141.053 Y140.210 E15.20521
G1 X140.497 Y140.779 E15.22055
G1 X139.618 Y141.584 E15.24354
G1 X139.003 Y142.088 E15.25888
G1 X138.367 Y142.565 E15.27422
G1 X137.711 Y143.014 E15.28955
G1 X137.036 Y143.434 E15.30489
G1 X135.989 Y144.008 E15.32792
G1 X134.909 Y144.512 E15.35091
G1 X134.171 Y144.809 E15.36625
G1 X133.421 Y145.072 E15.38159
G1 X132.660 Y145.303 E15.39693
G1 X131.890 Y145.501 E15.41227
G1 X130.718 Y145.734 E15.43530
G1 X129.931 Y145.846 E15.45064
G1 X129.140 Y145.924 E15.46598
G1 X127.750 Y145.978 E15.49281
G1 X52.250 Y145.978 E16.94922
G1 X50.860 Y145.924 E16.97605
G1 X49.673 Y145.794 E16.99908
G1 X48.889 Y145.664 E17.01442
G1 X48.110 Y145.501 E17.02976
G1 X47.340 Y145.303 E17.04510
G1 X46.579 Y145.072 E17.06044
G1 X45.525 Y144.690 E17.08207
G1 X44.728 Y144.352 E17.09876
G1 X44.011 Y144.008 E17.11412
G1 X42.965 Y143.434 E17.13713
G1 X42.289 Y143.014 E17.15248
G1 X41.633 Y142.565 E17.16781
G1 X40.997 Y142.088 E17.18316
G1 X40.382 Y141.584 E17.19849
G1 X39.790 Y141.053 E17.21384
G1 X38.947 Y140.210 E17.23682
G1 X38.416 Y139.618 E17.25216
G1 X37.912 Y139.003 E17.26750
G1 X37.435 Y138.367 E17.28284
G1 X36.986 Y137.711 E17.29818
G1 X36.602 Y137.096 E17.31216
G1 X35.991 Y135.989 E17.33655
G1 X35.648 Y135.272 E17.35189
G1 X35.335 Y134.540 E17.36723
G1 X35.055 Y133.796 E17.38257
G1 X34.808 Y133.040 E17.39791
G1 X34.499 Y131.889 E17.42090
G1 X34.336 Y131.111 E17.43624
G1 X34.206 Y130.326 E17.45158
G1 X34.111 Y129.537 E17.46692
G1 X34.050 Y128.744 E17.48226
G1 X34.022 Y127.750 E17.50144
G1 X34.022 Y52.250 E18.95785
G1 X34.050 Y51.256 E18.97704
G1 X34.111 Y50.463 E18.99237
G1 X34.206 Y49.673 E19.00772
G1 X34.336 Y48.889 E19.02306
G1 X34.499 Y48.111 E19.03840
G1 X34.697 Y47.340 E19.05374
G1 X35.055 Y46.204 E19.07672
G1 X35.335 Y45.459 E19.09206
G1 X35.648 Y44.728 E19.10740
G1 X35.992 Y44.011 E19.12274
G1 X36.366 Y43.310 E19.13808
G1 X36.986 Y42.289 E19.16111
G1 X37.435 Y41.633 E19.17645
G1 X38.160 Y40.687 E19.19944
G1 X38.678 Y40.084 E19.21478
G1 X39.278 Y39.447 E19.23165
G1 X39.722 Y39.892 F1800.000
G1 X40.498 Y39.150 E19.25236 F1800.000
G1 X41.081 Y38.650 E19.26717
G1 X41.685 Y38.176 E19.28198
G1 X42.309 Y37.728 E19.29679
G1 X42.951 Y37.309 E19.31160
G1 X43.898 Y36.760 E19.33270
G1 X44.645 Y36.380 E19.34887
G1 X45.344 Y36.063 E19.36368
G1 X63.047 Y29.131 E19.73041
G1 X66.148 Y28.546 E19.79129
G1 X112.480 Y28.548 E20.68504
G1 X113.570 Y28.582 E20.70607 F1800.000
G1 X116.263 Y29.122 E20.75907
G1 X134.313 Y35.921 E21.13113
G1 X135.019 Y36.223 E21.14594
G1 X135.711 Y36.555 E21.16075
G1 X136.388 Y36.917 E21.17556
G1 X137.362 Y37.508 E21.19753
G1 X137.996 Y37.941 E21.21235
G1 X138.610 Y38.402 E21.22716
G1 X139.502 Y39.150 E21.24961
G1 X140.062 Y39.675 E21.26442
G1 X140.599 Y40.224 E21.27924
G1 X141.350 Y41.081 E21.30121
G1 X141.824 Y41.685 E21.31602
G1 X142.492 Y42.638 E21.33847
G1 X142.897 Y43.290 E21.35329
G1 X143.445 Y44.289 E21.37526
G1 X143.777 Y44.981 E21.39007
G1 X144.223 Y46.057 E21.41253
G1 X144.477 Y46.781 E21.42734
G1 X144.700 Y47.516 E21.44216
G1 X144.971 Y48.622 E21.46412
G1 X145.113 Y49.377 E21.47894
G1 X145.221 Y50.137 E21.49375
G1 X145.297 Y50.901 E21.50856
G1 X145.350 Y52.250 E21.53460
G1 X145.350 Y127.750 E22.99100
G1 X145.297 Y129.099 E23.01705
G1 X145.173 Y130.231 E23.03901
G1 X144.971 Y131.378 E23.06147
G1 X144.796 Y132.125 E23.07628
G1 X144.589 Y132.865 E23.09109
G1 X144.350 Y133.595 E23.10591
G1 X144.079 Y134.313 E23.12072
G1 X143.589 Y135.418 E23.14404
G1 X143.274 Y136.040 E23.15749
G1 X142.897 Y136.710 E23.17231
G1 X142.492 Y137.362 E23.18712
G1 X142.059 Y137.996 E23.20193
G1 X141.598 Y138.610 E23.21675
G1 X141.111 Y139.204 E23.23155
G1 X140.325 Y140.062 E23.25401
G1 X139.502 Y140.850 E23.27599
G1 X138.919 Y141.350 E23.29079
G1 X138.316 Y141.824 E23.30561
G1 X137.691 Y142.272 E23.32042
G1 X137.049 Y142.691 E23.33523
G1 X136.040 Y143.274 E23.35769
G1 X135.355 Y143.620 E23.37250
G1 X134.656 Y143.937 E23.38731
G1 X133.943 Y144.223 E23.40212
G1 X133.219 Y144.477 E23.41693
G1 X132.484 Y144.700 E23.43175
G1 X131.808 Y144.874 E23.44520
G1 X130.623 Y145.113 E23.46853
G1 X129.863 Y145.221 E23.48334
G1 X129.099 Y145.297 E23.49815
G1 X127.750 Y145.350 E23.52419
G1 X52.250 Y145.350 E24.98059
G1 X51.297 Y145.323 E24.99898
G1 X50.137 Y145.221 E25.02144
G1 X49.377 Y145.113 E25.03625
G1 X48.622 Y144.971 E25.05107
G1 X47.875 Y144.796 E25.06588
G1 X46.781 Y144.477 E25.08785
G1 X46.057 Y144.223 E25.10266
G1 X45.344 Y143.937 E25.11747
G1 X44.352 Y143.476 E25.13857
G1 X43.612 Y143.083 E25.15474
G1 X42.952 Y142.692 E25.16955
G1 X42.308 Y142.272 E25.18437
G1 X41.390 Y141.598 E25.20634
G1 X40.796 Y141.111 E25.22114
G1 X40.224 Y140.599 E25.23596
G1 X39.401 Y139.776 E25.25841
G1 X38.889 Y139.204 E25.27323
G1 X38.402 Y138.610 E25.28804
G1 X37.941 Y137.996 E25.30285
G1 X37.508 Y137.362 E25.31766
G1 X37.139 Y136.770 E25.33111
G1 X36.555 Y135.711 E25.35444
G1 X36.223 Y135.019 E25.36926
G1 X35.921 Y134.313 E25.38407
G1 X35.650 Y133.594 E25.39888
G1 X35.411 Y132.865 E25.41369
G1 X35.110 Y131.740 E25.43615
G1 X34.952 Y130.989 E25.45096
G1 X34.827 Y130.231 E25.46577
G1 X34.736 Y129.469 E25.48058
G1 X34.677 Y128.703 E25.49539
G1 X34.650 Y127.750 E25.51378
G1 X34.650 Y52.250 E26.97019
G1 X34.677 Y51.297 E26.98858
G1 X34.736 Y50.531 E27.00339
G1 X34.827 Y49.769 E27.01821
G1 X34.952 Y49.011 E27.03302
G1 X35.110 Y48.260 E27.04783
G1 X35.300 Y47.516 E27.06264
G1 X35.650 Y46.406 E27.08510
G1 X35.921 Y45.687 E27.09991
G1 X36.223 Y44.981 E27.11472
G1 X36.555 Y44.289 E27.12953
G1 X37.103 Y43.290 E27.15150
G1 X37.508 Y42.638 E27.16631
G1 X38.119 Y41.762 E27.18693
G1 X38.650 Y41.081 E27.20358
G1 X39.150 Y40.498 E27.21839
G1 X39.679 Y39.934 E27.23331
G1 X40.129 Y40.372 F1800.000
G1 X40.659 Y39.855 E27.24760 F1800.000
G1 X41.210 Y39.361 E27.26188
G1 X42.056 Y38.683 E27.28279
G1 X42.658 Y38.251 E27.29708
G1 X43.277 Y37.846 E27.31136
G1 X43.914 Y37.468 E27.32564
G1 X44.923 Y36.943 E27.34757
G1 X45.597 Y36.638 E27.36185
G1 X63.276 Y29.716 E27.72808
G1 X66.148 Y29.174 E27.78446
G1 X112.480 Y29.176 E28.67822
G1 X113.547 Y29.209 E28.69881 F1800.000
G1 X116.042 Y29.710 E28.74790
G1 X134.085 Y36.506 E29.11983
G1 X134.766 Y36.798 E29.13411
G1 X135.433 Y37.119 E29.14839
G1 X136.086 Y37.468 E29.16267
G1 X136.723 Y37.846 E29.17696
G1 X137.342 Y38.251 E29.19124
G1 X138.217 Y38.892 E29.21215
G1 X139.088 Y39.623 E29.23408
G1 X139.628 Y40.129 E29.24836
G1 X140.145 Y40.659 E29.26264
G1 X140.860 Y41.474 E29.28356
G1 X141.317 Y42.056 E29.29784
G1 X141.969 Y42.987 E29.31977
G1 X142.360 Y43.616 E29.33406
G1 X142.881 Y44.567 E29.35497
G1 X143.202 Y45.234 E29.36925
G1 X143.637 Y46.284 E29.39118
G1 X143.882 Y46.983 E29.40547
G1 X144.097 Y47.692 E29.41975
G1 X144.354 Y48.745 E29.44066
G1 X144.492 Y49.473 E29.45495
G1 X144.597 Y50.206 E29.46923
G1 X144.670 Y50.942 E29.48351
G1 X144.721 Y52.250 E29.50875
G1 X144.721 Y127.750 E30.96516
G1 X144.670 Y129.058 E30.99041
G1 X144.552 Y130.135 E31.01132
G1 X144.354 Y131.255 E31.03325
G1 X144.186 Y131.976 E31.04753
G1 X143.986 Y132.689 E31.06181
G1 X143.755 Y133.393 E31.07610
G1 X143.494 Y134.085 E31.09038
G1 X143.026 Y135.140 E31.11265
G1 X142.723 Y135.738 E31.12557
G1 X142.360 Y136.384 E31.13986
G1 X141.969 Y137.013 E31.15414
G1 X141.552 Y137.624 E31.16842
G1 X141.108 Y138.217 E31.18271
G1 X140.639 Y138.789 E31.19698
G1 X139.871 Y139.628 E31.21892
G1 X139.087 Y140.378 E31.23984
G1 X138.526 Y140.860 E31.25411
G1 X137.944 Y141.317 E31.26839
G1 X137.342 Y141.749 E31.28268
G1 X136.723 Y142.154 E31.29696
G1 X135.738 Y142.723 E31.31890
G1 X135.078 Y143.057 E31.33317
G1 X134.403 Y143.362 E31.34746
G1 X133.715 Y143.637 E31.36174
G1 X133.017 Y143.882 E31.37602
G1 X132.308 Y144.097 E31.39031
G1 X131.659 Y144.263 E31.40323
G1 X130.527 Y144.492 E31.42550
G1 X129.794 Y144.597 E31.43978
G1 X129.058 Y144.670 E31.45406
G1 X127.750 Y144.721 E31.47931
G1 X52.250 Y144.721 E32.93571
G1 X51.338 Y144.696 E32.95331
G1 X50.206 Y144.597 E32.97524
G1 X49.473 Y144.492 E32.98952
G1 X48.745 Y144.354 E33.00381
G1 X48.024 Y144.186 E33.01809
G1 X46.983 Y143.882 E33.03900
G1 X46.284 Y143.637 E33.05329
G1 X45.597 Y143.362 E33.06757
G1 X44.630 Y142.913 E33.08814
G1 X43.914 Y142.532 E33.10378
G1 X43.277 Y142.154 E33.11806
G1 X42.658 Y141.749 E33.13235
G1 X41.783 Y141.108 E33.15326
G1 X41.211 Y140.639 E33.16754
G1 X40.659 Y140.145 E33.18183
G1 X39.855 Y139.341 E33.20375
G1 X39.361 Y138.789 E33.21804
G1 X38.892 Y138.217 E33.23232
G1 X38.448 Y137.624 E33.24660
G1 X38.030 Y137.013 E33.26089
G1 X37.677 Y136.444 E33.27381
G1 X37.118 Y135.433 E33.29608
G1 X36.798 Y134.766 E33.31036
G1 X36.506 Y134.085 E33.32465
G1 X36.245 Y133.392 E33.33893
G1 X36.014 Y132.689 E33.35321
G1 X35.720 Y131.591 E33.37514
G1 X35.568 Y130.866 E33.38942
G1 X35.448 Y130.135 E33.40371
G1 X35.360 Y129.400 E33.41799
G1 X35.304 Y128.662 E33.43227
G1 X35.279 Y127.750 E33.44987
G1 X35.279 Y52.250 E34.90628
G1 X35.304 Y51.338 E34.92388
G1 X35.360 Y50.600 E34.93816
G1 X35.448 Y49.864 E34.95244
G1 X35.568 Y49.134 E34.96672
G1 X35.720 Y48.409 E34.98101
G1 X35.903 Y47.692 E34.99529
G1 X36.245 Y46.608 E35.01722
G1 X36.506 Y45.915 E35.03150
G1 X36.798 Y45.234 E35.04578
G1 X37.119 Y44.567 E35.06007
G1 X37.468 Y43.914 E35.07435
G1 X38.031 Y42.987 E35.09526
G1 X38.448 Y42.376 E35.10955
G1 X38.892 Y41.783 E35.12383
G1 X39.361 Y41.210 E35.13811
G1 X40.088 Y40.416 E35.15888
G1 X40.542 Y40.850 F1800.000
G1 X41.093 Y40.309 E35.17379 F1800.000
G1 X41.625 Y39.834 E35.18754
G1 X42.176 Y39.382 E35.20130
G1 X43.007 Y38.773 E35.22116
G1 X43.603 Y38.383 E35.23491
G1 X44.502 Y37.862 E35.25496
G1 X45.200 Y37.507 E35.27006
G1 X45.850 Y37.213 E35.28382
G1 X63.505 Y30.301 E35.64954
G1 X66.148 Y29.803 E35.70143
G1 X112.480 Y29.805 E36.59519
G1 X113.525 Y29.837 E36.61535 F1800.000
G1 X115.821 Y30.298 E36.66052
G1 X133.857 Y37.092 E37.03232
G1 X134.513 Y37.373 E37.04607
G1 X135.155 Y37.682 E37.05982
G1 X135.784 Y38.019 E37.07357
G1 X136.397 Y38.383 E37.08733
G1 X136.993 Y38.773 E37.10108
G1 X137.824 Y39.382 E37.12094
G1 X138.673 Y40.095 E37.14234
G1 X139.193 Y40.583 E37.15609
G1 X139.691 Y41.093 E37.16985
G1 X140.370 Y41.867 E37.18970
G1 X140.811 Y42.428 E37.20346
G1 X141.447 Y43.336 E37.22486
G1 X141.823 Y43.942 E37.23861
