; generated by Slic3r 1.2.9 on 2020-12-06 at 22:32:09

; external perimeters extrusion width = 0.30mm
; perimeters extrusion width = 0.51mm
; infill extrusion width = 0.73mm
; solid infill extrusion width = 0.51mm
; top infill extrusion width = 0.51mm

M190 S60 ; set bed temperature
M104 S180 ; set temperature
G28 ; home all axes
G1 Z5 F5000 ; lift nozzle

M109 S180 ; wait for temperature to be reached
G21 ; set units to millimeters
G90 ; use absolute coordinates
M82 ; use absolute distances for extrusion
G92 E0
G1 Z0.200 F2400.000
G1 E-2.00000 F2400.00000
G92 E0
G1 X66.436 Y78.220 F2400.000
G1 E2.00000 F2400.00000
G1 X66.980 Y77.783 E2.02049 F1200.000
G1 X67.392 Y77.486 E2.03545
G1 X67.818 Y77.206 E2.05039
G1 X68.535 Y76.792 E2.07473
G1 X69.454 Y76.355 E2.10464
G1 X70.103 Y76.102 E2.12513
G1 X70.586 Y75.943 E2.14008
G1 X71.076 Y75.804 E2.15503
G1 X71.779 Y75.646 E2.17621
G1 X72.387 Y75.543 E2.19434
G1 X72.892 Y75.484 E2.20928
G1 X73.860 Y75.432 E2.23777
G1 X75.840 Y75.431 E2.29593
G1 X75.969 Y75.377 E2.30007
G1 X87.097 Y64.250 E2.76255
G1 X90.280 Y62.931 E2.86378
G1 X112.725 Y62.931 E3.52338
G1 X115.907 Y64.250 E3.62462
G1 X127.035 Y75.377 E4.08710 F1200.000
G1 X127.165 Y75.431 E4.09123
G1 X129.144 Y75.432 E4.14939
G1 X130.113 Y75.484 E4.17789
G1 X130.618 Y75.543 E4.19285
G1 X131.328 Y75.666 E4.21403
G1 X131.929 Y75.804 E4.23214
G1 X132.419 Y75.943 E4.24711
G1 X133.079 Y76.167 E4.26759
G1 X133.551 Y76.355 E4.28253
G1 X134.015 Y76.564 E4.29749
G1 X134.656 Y76.894 E4.31867
G1 X135.187 Y77.207 E4.33679
G1 X135.612 Y77.485 E4.35171
G1 X136.025 Y77.783 E4.36668
G1 X136.569 Y78.220 E4.38717
G1 X137.313 Y78.913 E4.41707
G1 X137.873 Y79.524 E4.44144
G1 X138.499 Y80.326 E4.47130
G1 X139.053 Y81.180 E4.50122
G1 X139.529 Y82.078 E4.53111
G1 X139.926 Y83.014 E4.56098
G1 X140.239 Y83.981 E4.59085
G1 X140.468 Y84.973 E4.62078
G1 X140.574 Y85.662 E4.64125
G1 X140.646 Y86.487 E4.66559
G1 X140.661 Y86.996 E4.68056
G1 X140.646 Y87.693 E4.70105
G1 X140.574 Y88.518 E4.72539
G1 X140.501 Y89.022 E4.74036
G1 X140.365 Y89.706 E4.76084
G1 X140.150 Y90.506 E4.78520
G1 X139.926 Y91.167 E4.80569
G1 X139.609 Y91.932 E4.83003
G1 X139.300 Y92.557 E4.85053
G1 X139.052 Y93.002 E4.86548
G1 X138.607 Y93.700 E4.88982
G1 X138.194 Y94.263 E4.91033
G1 X137.733 Y94.817 E4.93152
G1 X137.313 Y95.268 E4.94964
G1 X136.809 Y95.750 E4.97013
G1 X136.259 Y96.215 E4.99130
G1 X135.767 Y96.587 E5.00942
G1 X135.187 Y96.974 E5.02991
G1 X134.750 Y97.235 E5.04487
G1 X134.016 Y97.617 E5.06919
G1 X133.377 Y97.898 E5.08970
G1 X132.901 Y98.078 E5.10465
G1 X132.214 Y98.298 E5.12585
G1 X131.617 Y98.453 E5.14397
G1 X130.934 Y98.589 E5.16445
G1 X130.431 Y98.662 E5.17939
G1 X129.416 Y98.742 E5.20929
G1 X127.165 Y98.749 E5.27545
G1 X127.035 Y98.803 E5.27959
G1 X117.524 Y108.314 E5.67488
G1 X117.705 Y108.751 E5.68876
G1 X130.352 Y108.751 E6.06043
G1 X135.424 Y113.823 E6.27124
G1 X135.424 Y131.996 E6.80531
G1 X130.352 Y137.069 E7.01612
G1 X118.411 Y137.069 E7.36703
G1 X113.339 Y131.996 E7.57784
G1 X113.339 Y128.276 E7.68718
G1 X113.132 Y128.069 E7.69579
G1 X83.864 Y128.069 E8.55591
G1 X83.657 Y128.276 E8.56451
G1 X83.657 Y131.996 E8.67385
G1 X78.584 Y137.069 E8.88466
G1 X66.644 Y137.069 E9.23557
G1 X61.571 Y131.996 E9.44638
G1 X61.571 Y113.823 E9.98046
G1 X66.644 Y108.751 E10.19126
G1 X85.300 Y108.751 E10.73953
G1 X85.481 Y108.314 E10.75341
G1 X75.969 Y98.803 E11.14870
G1 X75.840 Y98.749 E11.15284
G1 X73.399 Y98.734 E11.22455
G1 X72.575 Y98.662 E11.24888
G1 X72.070 Y98.589 E11.26385
G1 X71.180 Y98.402 E11.29057
G1 X70.406 Y98.181 E11.31423
G1 X69.628 Y97.898 E11.33858
G1 X68.989 Y97.617 E11.35908
G1 X68.254 Y97.234 E11.38343
G1 X67.658 Y96.873 E11.40392
G1 X66.980 Y96.398 E11.42826
G1 X66.195 Y95.750 E11.45815
G1 X65.691 Y95.268 E11.47866
G1 X65.010 Y94.512 E11.50854
G1 X64.506 Y93.855 E11.53290
G1 X64.118 Y93.275 E11.55339
G1 X63.617 Y92.390 E11.58328
G1 X63.195 Y91.465 E11.61318
G1 X62.854 Y90.506 E11.64307
G1 X62.599 Y89.521 E11.67296
G1 X62.431 Y88.518 E11.70285
G1 X62.350 Y87.505 E11.73274
G1 X62.358 Y86.487 E11.76264
G1 X62.455 Y85.475 E11.79252
G1 X62.640 Y84.475 E11.82242
G1 X62.911 Y83.494 E11.85231
G1 X63.267 Y82.541 E11.88220
G1 X63.704 Y81.623 E11.91209
G1 X64.220 Y80.746 E11.94198
G1 X64.810 Y79.918 E11.97187
G1 X65.470 Y79.144 E12.00177
G1 X65.825 Y78.779 E12.01672
G1 X66.402 Y78.249 E12.03974
G1 X66.635 Y78.515 F2400.000
G1 X67.443 Y77.881 E12.06993 F1200.000
G1 X68.004 Y77.507 E12.08975
G1 X68.428 Y77.254 E12.10425
G1 X69.142 Y76.882 E12.12791
G1 X69.592 Y76.680 E12.14242
G1 X70.221 Y76.435 E12.16223
G1 X70.689 Y76.281 E12.17672
G1 X71.164 Y76.146 E12.19122
G1 X71.848 Y75.992 E12.21184
G1 X72.437 Y75.893 E12.22940
G1 X72.927 Y75.836 E12.24388
G1 X73.866 Y75.786 E12.27153
G1 X75.986 Y75.785 E12.33382
G1 X76.116 Y75.731 E12.33795
G1 X87.298 Y64.549 E12.80267
G1 X90.350 Y63.285 E12.89977
G1 X112.654 Y63.285 E13.55524
G1 X115.707 Y64.549 E13.65235 F1200.000
G1 X126.889 Y75.731 E14.11706
G1 X127.019 Y75.785 E14.12120
G1 X129.138 Y75.786 E14.18349
G1 X130.078 Y75.836 E14.21114
G1 X131.055 Y75.972 E14.24013
G1 X132.016 Y76.193 E14.26911
G1 X132.954 Y76.497 E14.29810
G1 X133.603 Y76.764 E14.31872
G1 X134.142 Y77.020 E14.33626
G1 X135.001 Y77.507 E14.36526
G1 X135.561 Y77.881 E14.38506
G1 X135.957 Y78.176 E14.39956
G1 X136.707 Y78.816 E14.42854
G1 X137.399 Y79.519 E14.45753
G1 X137.917 Y80.136 E14.48120
G1 X138.489 Y80.939 E14.51018
G1 X138.988 Y81.789 E14.53916
G1 X139.412 Y82.680 E14.56813
G1 X139.757 Y83.604 E14.59714
G1 X140.020 Y84.554 E14.62611
G1 X140.152 Y85.216 E14.64594
G1 X140.257 Y86.015 E14.66961
G1 X140.301 Y86.688 E14.68943
G1 X140.301 Y87.492 E14.71307
G1 X140.273 Y87.985 E14.72759
G1 X140.199 Y88.656 E14.74741
G1 X140.060 Y89.448 E14.77104
G1 X139.899 Y90.104 E14.79089
G1 X139.657 Y90.872 E14.81456
G1 X139.413 Y91.500 E14.83437
G1 X139.072 Y92.230 E14.85803
G1 X138.748 Y92.821 E14.87786
G1 X138.315 Y93.501 E14.90152
G1 X137.916 Y94.045 E14.92135
G1 X137.467 Y94.584 E14.94197
G1 X137.060 Y95.021 E14.95952
G1 X136.573 Y95.487 E14.97933
G1 X136.037 Y95.940 E14.99995
G1 X135.561 Y96.299 E15.01749
G1 X135.000 Y96.674 E15.03731
G1 X134.303 Y97.077 E15.06096
G1 X133.698 Y97.375 E15.08079
G1 X132.954 Y97.683 E15.10444
G1 X132.488 Y97.845 E15.11895
G1 X132.016 Y97.987 E15.13346
G1 X131.361 Y98.148 E15.15327
G1 X130.569 Y98.287 E15.17690
G1 X130.077 Y98.345 E15.19144
G1 X129.139 Y98.395 E15.21906
G1 X127.019 Y98.396 E15.28137
G1 X126.889 Y98.450 E15.28550
G1 X116.671 Y108.668 E15.71017
G1 X116.851 Y109.104 E15.72405
G1 X130.205 Y109.104 E16.11650
G1 X135.071 Y113.969 E16.31870
G1 X135.071 Y131.850 E16.84417
G1 X130.205 Y136.715 E17.04637
G1 X118.557 Y136.715 E17.38868
G1 X113.692 Y131.850 E17.59089
G1 X113.692 Y127.922 E17.70631
G1 X113.485 Y127.715 E17.71492
G1 X83.510 Y127.715 E18.59581
G1 X83.303 Y127.922 E18.60441
G1 X83.303 Y131.850 E18.71984
G1 X78.438 Y136.715 E18.92204
G1 X66.790 Y136.715 E19.26435
G1 X61.925 Y131.850 E19.46655
G1 X61.925 Y113.969 E19.99202
G1 X66.790 Y109.104 E20.19423
G1 X86.153 Y109.104 E20.76327
G1 X86.334 Y108.668 E20.77715
G1 X76.116 Y98.450 E21.20182
G1 X75.986 Y98.396 E21.20595
G1 X73.418 Y98.381 E21.28140
G1 X72.617 Y98.311 E21.30505
G1 X72.128 Y98.240 E21.31957
G1 X71.467 Y98.108 E21.33938
G1 X70.689 Y97.900 E21.36303
G1 X70.050 Y97.683 E21.38286
G1 X69.306 Y97.375 E21.40654
G1 X68.519 Y96.976 E21.43247
G1 X67.851 Y96.577 E21.45533
G1 X67.192 Y96.115 E21.47899
G1 X66.666 Y95.693 E21.49881
G1 X66.072 Y95.148 E21.52249
G1 X65.400 Y94.427 E21.55146
G1 X64.978 Y93.901 E21.57128
G1 X64.516 Y93.241 E21.59496
G1 X64.016 Y92.391 E21.62395
G1 X63.592 Y91.500 E21.65293
G1 X63.247 Y90.576 E21.68191
G1 X62.984 Y89.625 E21.71090
G1 X62.805 Y88.655 E21.73989
G1 X62.732 Y87.985 E21.75970
G1 X62.704 Y87.493 E21.77419
G1 X62.711 Y86.506 E21.80319
G1 X62.805 Y85.525 E21.83216
G1 X62.984 Y84.555 E21.86115
G1 X63.247 Y83.604 E21.89014
G1 X63.592 Y82.680 E21.91912
G1 X64.016 Y81.790 E21.94811
G1 X64.516 Y80.939 E21.97709
G1 X65.088 Y80.136 E22.00608
G1 X65.728 Y79.386 E22.03506
G1 X66.072 Y79.032 E22.04956
G1 X66.601 Y78.545 E22.07070
G1 X66.834 Y78.810 F2400.000
G1 X67.266 Y78.454 E22.08715 F1200.000
G1 X67.791 Y78.069 E22.10630
G1 X68.191 Y77.807 E22.12034
G1 X68.868 Y77.416 E22.14331
G1 X69.295 Y77.201 E22.15737
G1 X69.891 Y76.939 E22.17651
G1 X70.338 Y76.769 E22.19055
G1 X71.084 Y76.534 E22.21353
G1 X72.015 Y76.320 E22.24161
G1 X72.487 Y76.243 E22.25567
G1 X73.134 Y76.172 E22.27480
G1 X73.872 Y76.139 E22.29650
G1 X76.132 Y76.138 E22.36293
G1 X76.262 Y76.084 E22.36706
G1 X87.498 Y64.849 E22.83401
G1 X90.420 Y63.638 E22.92698
G1 X112.584 Y63.638 E23.57832
G1 X115.507 Y64.849 E23.67129
G1 X126.742 Y76.084 E24.13825 F1200.000
G1 X126.872 Y76.138 E24.14238
G1 X129.132 Y76.139 E24.20880
G1 X129.871 Y76.172 E24.23052
G1 X130.346 Y76.221 E24.24456
G1 X130.990 Y76.320 E24.26369
G1 X131.921 Y76.534 E24.29178
G1 X132.666 Y76.769 E24.31475
G1 X133.113 Y76.939 E24.32880
G1 X133.553 Y77.128 E24.34286
G1 X134.136 Y77.416 E24.36198
G1 X134.728 Y77.755 E24.38204
G1 X135.213 Y78.069 E24.39900
G1 X135.976 Y78.645 E24.42709
G1 X136.685 Y79.284 E24.45516
G1 X137.337 Y79.985 E24.48327
G1 X137.924 Y80.737 E24.51133
G1 X138.392 Y81.454 E24.53648
G1 X138.757 Y82.110 E24.55854
G1 X139.154 Y82.979 E24.58662
G1 X139.474 Y83.880 E24.61471
G1 X139.714 Y84.804 E24.64278
G1 X139.849 Y85.574 E24.66575
G1 X139.905 Y86.049 E24.67982
G1 X139.948 Y86.699 E24.69895
G1 X139.948 Y87.481 E24.72192
G1 X139.905 Y88.131 E24.74108
G1 X139.803 Y88.907 E24.76407
G1 X139.676 Y89.545 E24.78320
G1 X139.502 Y90.205 E24.80325
G1 X139.324 Y90.755 E24.82023
G1 X139.088 Y91.361 E24.83937
G1 X138.757 Y92.070 E24.86234
G1 X138.444 Y92.641 E24.88149
G1 X138.024 Y93.301 E24.90448
G1 X137.638 Y93.826 E24.92362
G1 X137.201 Y94.351 E24.94368
G1 X136.808 Y94.774 E24.96067
G1 X136.337 Y95.224 E24.97979
G1 X135.816 Y95.664 E24.99984
G1 X135.355 Y96.012 E25.01682
G1 X134.814 Y96.374 E25.03596
G1 X134.137 Y96.765 E25.05893
G1 X133.552 Y97.053 E25.07808
G1 X132.830 Y97.352 E25.10106
G1 X132.378 Y97.509 E25.11510
G1 X131.920 Y97.647 E25.12916
G1 X131.288 Y97.802 E25.14830
G1 X130.519 Y97.937 E25.17125
G1 X130.043 Y97.993 E25.18533
G1 X129.133 Y98.041 E25.21211
G1 X126.872 Y98.042 E25.27854
G1 X126.742 Y98.096 E25.28268
G1 X115.817 Y109.021 E25.73672
G1 X115.998 Y109.458 E25.75060
G1 X130.059 Y109.458 E26.16382
G1 X134.717 Y114.116 E26.35742
G1 X134.717 Y131.704 E26.87429
G1 X130.059 Y136.362 E27.06789
G1 X118.704 Y136.362 E27.40159
G1 X114.046 Y131.704 E27.59519
G1 X114.046 Y127.569 E27.71670
G1 X113.839 Y127.362 E27.72530
G1 X83.157 Y127.362 E28.62697
G1 X82.950 Y127.569 E28.63557
G1 X82.950 Y131.704 E28.75708
G1 X78.292 Y136.362 E28.95068
G1 X66.936 Y136.362 E29.28438
G1 X62.278 Y131.704 E29.47798
G1 X62.278 Y114.116 E29.99485
G1 X66.936 Y109.458 E30.18845
G1 X87.006 Y109.458 E30.77826
G1 X87.187 Y109.021 E30.79214
G1 X76.262 Y98.096 E31.24619
G1 X76.132 Y98.042 E31.25032
G1 X73.611 Y98.036 E31.32443
G1 X72.961 Y97.993 E31.34355
G1 X72.487 Y97.937 E31.35759
G1 X71.716 Y97.801 E31.38060
G1 X71.084 Y97.647 E31.39972
G1 X70.338 Y97.412 E31.42270
G1 X69.731 Y97.176 E31.44184
G1 X69.022 Y96.845 E31.46485
G1 X68.191 Y96.374 E31.49290
G1 X67.649 Y96.012 E31.51205
G1 X67.029 Y95.536 E31.53503
G1 X66.539 Y95.106 E31.55417
G1 X65.986 Y94.553 E31.57716
G1 X65.366 Y93.827 E31.60523
G1 X64.981 Y93.301 E31.62438
G1 X64.474 Y92.491 E31.65246
G1 X64.040 Y91.640 E31.68054
G1 X63.681 Y90.755 E31.70862
G1 X63.401 Y89.841 E31.73669
G1 X63.201 Y88.907 E31.76478
G1 X63.084 Y87.958 E31.79286
G1 X63.050 Y87.003 E31.82094
G1 X63.064 Y86.526 E31.83498
G1 X63.132 Y85.747 E31.85795
G1 X63.291 Y84.805 E31.88604
G1 X63.531 Y83.880 E31.91412
G1 X63.851 Y82.979 E31.94220
G1 X64.113 Y82.383 E31.96134
G1 X64.328 Y81.956 E31.97538
G1 X64.812 Y81.133 E32.00346
G1 X65.366 Y80.354 E32.03154
G1 X65.986 Y79.627 E32.05962
G1 X66.319 Y79.285 E32.07367
G1 X66.800 Y78.840 E32.09291
G1 X67.033 Y79.106 F2400.000
G1 X67.484 Y78.732 E32.11012 F1200.000
G1 X67.991 Y78.361 E32.12859
G1 X68.377 Y78.107 E32.14217
G1 X69.034 Y77.728 E32.16447
G1 X69.448 Y77.520 E32.17807
G1 X70.023 Y77.267 E32.19653
G1 X70.455 Y77.102 E32.21012
G1 X71.179 Y76.874 E32.23242
G1 X71.627 Y76.761 E32.24602
G1 X72.243 Y76.638 E32.26447
G1 X73.161 Y76.525 E32.29165
G1 X73.961 Y76.492 E32.31517
G1 X76.279 Y76.492 E32.38329
G1 X76.409 Y76.438 E32.38742
G1 X87.698 Y65.148 E32.85661
G1 X90.491 Y63.992 E32.94545
G1 X112.514 Y63.992 E33.59266
G1 X115.307 Y65.148 E33.68149 F1200.000
G1 X126.596 Y76.438 E34.15069
G1 X126.726 Y76.492 E34.15482
G1 X129.044 Y76.492 E34.22294
G1 X129.844 Y76.525 E34.24647
G1 X130.761 Y76.638 E34.27363
G1 X131.665 Y76.831 E34.30081
G1 X132.111 Y76.957 E34.31442
G1 X132.705 Y77.159 E34.33286
G1 X133.319 Y77.411 E34.35234
G1 X133.823 Y77.651 E34.36875
G1 X134.627 Y78.107 E34.39594
G1 X135.149 Y78.456 E34.41438
G1 X135.520 Y78.732 E34.42798
G1 X136.224 Y79.332 E34.45515
G1 X136.872 Y79.991 E34.48232
G1 X137.360 Y80.573 E34.50463
G1 X137.897 Y81.326 E34.53179
G1 X138.365 Y82.123 E34.55896
G1 X138.762 Y82.957 E34.58613
G1 X139.086 Y83.824 E34.61332
G1 X139.332 Y84.715 E34.64048
G1 X139.454 Y85.331 E34.65895
G1 X139.553 Y86.084 E34.68126
G1 X139.595 Y86.711 E34.69972
G1 X139.595 Y87.469 E34.72200
G1 X139.553 Y88.097 E34.74049
G1 X139.454 Y88.849 E34.76279
G1 X139.332 Y89.465 E34.78124
G1 X139.162 Y90.106 E34.80073
G1 X138.990 Y90.637 E34.81714
G1 X138.763 Y91.223 E34.83560
G1 X138.442 Y91.910 E34.85789
G1 X138.140 Y92.461 E34.87637
G1 X137.732 Y93.101 E34.89867
G1 X137.360 Y93.608 E34.91714
G1 X136.872 Y94.190 E34.93946
G1 X136.438 Y94.643 E34.95791
G1 X135.879 Y95.156 E34.98020
G1 X135.520 Y95.449 E34.99380
G1 X135.014 Y95.820 E35.01225
G1 X134.373 Y96.228 E35.03457
G1 X133.823 Y96.530 E35.05302
G1 X133.135 Y96.850 E35.07531
G1 X132.705 Y97.021 E35.08891
G1 X132.110 Y97.223 E35.10737
G1 X131.665 Y97.349 E35.12097
G1 X130.924 Y97.514 E35.14327
G1 X130.008 Y97.641 E35.17046
G1 X129.127 Y97.688 E35.19638
G1 X126.726 Y97.689 E35.26695
G1 X126.596 Y97.743 E35.27108
G1 X115.807 Y108.532 E35.71949
G1 X114.093 Y109.242 E35.77401
G1 X114.206 Y109.811 E35.79106
G1 X129.913 Y109.811 E36.25264
G1 X134.364 Y114.262 E36.43763
G1 X134.364 Y131.557 E36.94589
G1 X129.913 Y136.008 E37.13089
G1 X118.850 Y136.008 E37.45599
G1 X114.399 Y131.557 E37.64099
G1 X114.399 Y127.215 E37.76858
G1 X114.192 Y127.008 E37.77718
G1 X82.803 Y127.008 E38.69962
G1 X82.596 Y127.215 E38.70823
G1 X82.596 Y131.557 E38.83582
G1 X78.145 Y136.008 E39.02081
G1 X67.083 Y136.008 E39.34591
G1 X62.632 Y131.557 E39.53091
G1 X62.632 Y114.262 E40.03917
G1 X67.083 Y109.811 E40.22416
G1 X88.799 Y109.811 E40.86234
G1 X88.912 Y109.242 E40.87939
G1 X87.198 Y108.532 E40.93390
G1 X76.409 Y97.743 E41.38232
G1 X76.279 Y97.689 E41.38645
G1 X73.622 Y97.683 E41.46452
G1 X72.701 Y97.609 E41.49166
G1 X72.080 Y97.514 E41.51013
G1 X71.339 Y97.349 E41.53244
G1 X70.736 Y97.174 E41.55090
G1 X70.023 Y96.914 E41.57321
G1 X69.448 Y96.661 E41.59167
G1 X68.774 Y96.310 E41.61398
G1 X68.071 Y95.873 E41.63832
G1 X67.484 Y95.448 E41.65960
G1 X66.903 Y94.961 E41.68190
G1 X66.310 Y94.381 E41.70626
G1 X65.830 Y93.840 E41.72754
G1 X65.368 Y93.237 E41.74985
G1 X65.108 Y92.855 E41.76344
G1 X64.782 Y92.318 E41.78189
G1 X64.362 Y91.494 E41.80907
G1 X64.014 Y90.637 E41.83624
G1 X63.743 Y89.753 E41.86341
G1 X63.550 Y88.849 E41.89059
G1 X63.437 Y87.931 E41.91776
G1 X63.404 Y87.007 E41.94494
G1 X63.417 Y86.545 E41.95853
G1 X63.483 Y85.789 E41.98082
G1 X63.637 Y84.877 E42.00800
G1 X63.869 Y83.982 E42.03517
G1 X64.179 Y83.111 E42.06235
G1 X64.432 Y82.536 E42.08081
G1 X64.639 Y82.123 E42.09440
G1 X65.108 Y81.326 E42.12157
G1 X65.644 Y80.572 E42.14874
G1 X66.244 Y79.869 E42.17592
G1 X66.566 Y79.537 E42.18951
G1 X66.999 Y79.135 E42.20687
G1 X67.232 Y79.401 F2400.000
G1 X67.703 Y79.010 E42.22483 F1200.000
G1 X68.191 Y78.652 E42.24262
G1 X68.564 Y78.407 E42.25575
G1 X69.201 Y78.039 E42.27737
G1 X69.601 Y77.838 E42.29052
G1 X70.155 Y77.595 E42.30830
G1 X70.572 Y77.436 E42.32144
G1 X71.274 Y77.215 E42.34306
G1 X72.145 Y77.014 E42.36933
