; generated by Slic3r 1.2.9 on 2020-12-09 at 10:29:08

; external perimeters extrusion width = 0.30mm
; perimeters extrusion width = 0.51mm
; infill extrusion width = 0.73mm
; solid infill extrusion width = 0.51mm
; top infill extrusion width = 0.51mm

M190 S60 ; set bed temperature
M104 S180 ; set temperature
G28 ; home all axes
G1 Z5 F5000 ; lift nozzle

M109 S180 ; wait for temperature to be reached
G21 ; set units to millimeters
G90 ; use absolute coordinates
M82 ; use absolute distances for extrusion
G92 E0
G1 Z0.200 F2400.000
G1 E-2.00000 F2400.00000
G92 E0
G1 X46.098 Y46.100 F2400.000
G1 E2.00000 F2400.00000
G1 X46.788 Y45.442 E2.02802 F1200.000
G1 X47.436 Y44.880 E2.05322
G1 X48.107 Y44.346 E2.07843
G1 X48.802 Y43.842 E2.10364
G1 X49.517 Y43.369 E2.12884
G1 X50.252 Y42.928 E2.15405
G1 X51.006 Y42.519 E2.17925
G1 X51.778 Y42.143 E2.20447
G1 X52.564 Y41.801 E2.22966
G1 X53.365 Y41.494 E2.25488
G1 X54.178 Y41.222 E2.28008
G1 X54.821 Y41.035 E2.29974
G1 X55.653 Y40.827 E2.32494
G1 X56.493 Y40.656 E2.35015
G1 X57.340 Y40.521 E2.37536
G1 X58.192 Y40.424 E2.40056
G1 X59.048 Y40.364 E2.42578
G1 X59.953 Y40.341 E2.45237
G1 X140.142 Y40.342 E4.80894
G1 X140.952 Y40.364 E4.83276 F1200.000
G1 X141.620 Y40.408 E4.85243
G1 X142.472 Y40.497 E4.87760
G1 X143.320 Y40.623 E4.90282
G1 X144.163 Y40.787 E4.92805
G1 X144.997 Y40.986 E4.95325
G1 X146.001 Y41.279 E4.98399
G1 X146.813 Y41.559 E5.00921
G1 X147.611 Y41.874 E5.03442
G1 X148.394 Y42.223 E5.05961
G1 X148.994 Y42.519 E5.07928
G1 X149.747 Y42.927 E5.10446
G1 X150.484 Y43.370 E5.12972
G1 X151.199 Y43.842 E5.15491
G1 X151.893 Y44.346 E5.18012
G1 X152.709 Y45.001 E5.21086
G1 X153.351 Y45.569 E5.23605
G1 X153.968 Y46.166 E5.26128
G1 X154.431 Y46.649 E5.28095
G1 X154.928 Y47.210 E5.30296
G1 X155.539 Y47.957 E5.33133
G1 X156.049 Y48.645 E5.35650
G1 X156.530 Y49.358 E5.38178
G1 X156.978 Y50.089 E5.40697
G1 X157.395 Y50.840 E5.43221
G1 X157.857 Y51.778 E5.46293
G1 X158.199 Y52.564 E5.48814
G1 X158.506 Y53.365 E5.51335
G1 X158.721 Y53.998 E5.53299
G1 X158.964 Y54.819 E5.55816
G1 X159.173 Y55.654 E5.58345
G1 X159.344 Y56.494 E5.60864
G1 X159.478 Y57.340 E5.63380
G1 X159.576 Y58.191 E5.65898
G1 X159.636 Y59.048 E5.68423
G1 X159.659 Y59.953 E5.71084
G1 X159.659 Y140.047 E8.06462
G1 X159.636 Y140.951 E8.09120
G1 X159.576 Y141.807 E8.11642
G1 X159.478 Y142.660 E8.14164
G1 X159.344 Y143.507 E8.16684
G1 X159.173 Y144.347 E8.19203
G1 X158.965 Y145.179 E8.21723
G1 X158.777 Y145.822 E8.23692
G1 X158.506 Y146.635 E8.26211
G1 X158.199 Y147.436 E8.28731
G1 X157.858 Y148.221 E8.31249
G1 X157.481 Y148.994 E8.33774
G1 X157.073 Y149.746 E8.36289
G1 X156.631 Y150.483 E8.38815
G1 X156.158 Y151.198 E8.41334
G1 X155.653 Y151.894 E8.43862
G1 X155.121 Y152.564 E8.46376
G1 X154.559 Y153.211 E8.48894
G1 X153.968 Y153.834 E8.51417
G1 X153.351 Y154.431 E8.53940
G1 X152.790 Y154.928 E8.56142
G1 X151.893 Y155.654 E8.59535
G1 X151.199 Y156.158 E8.62053
G1 X150.483 Y156.631 E8.64577
G1 X149.748 Y157.072 E8.67096
G1 X148.993 Y157.482 E8.69619
G1 X148.223 Y157.857 E8.72138
G1 X147.436 Y158.199 E8.74660
G1 X146.635 Y158.506 E8.77180
G1 X145.822 Y158.778 E8.79700
G1 X144.997 Y159.014 E8.82220
G1 X144.346 Y159.173 E8.84190
G1 X143.506 Y159.344 E8.86710
G1 X142.661 Y159.478 E8.89225
G1 X141.809 Y159.576 E8.91744
G1 X140.952 Y159.636 E8.94269
G1 X140.047 Y159.659 E8.96930
G1 X59.953 Y159.659 E11.32308
G1 X59.238 Y159.644 E11.34408
G1 X58.381 Y159.592 E11.36932
G1 X57.526 Y159.503 E11.39458
G1 X56.679 Y159.377 E11.41976
G1 X55.653 Y159.173 E11.45049
G1 X54.821 Y158.965 E11.47570
G1 X53.998 Y158.721 E11.50092
G1 X53.365 Y158.506 E11.52057
G1 X52.565 Y158.199 E11.54575
G1 X51.606 Y157.777 E11.57653
G1 X50.839 Y157.394 E11.60174
G1 X50.089 Y156.978 E11.62693
G1 X49.517 Y156.631 E11.64658
G1 X48.802 Y156.158 E11.67178
G1 X48.106 Y155.653 E11.69706
G1 X47.435 Y155.120 E11.72224
G1 X46.649 Y154.430 E11.75298
G1 X46.032 Y153.834 E11.77818
G1 X45.442 Y153.212 E11.80339
G1 X44.879 Y152.564 E11.82861
G1 X44.346 Y151.893 E11.85381
G1 X43.842 Y151.199 E11.87901
G1 X43.369 Y150.483 E11.90422
G1 X42.928 Y149.748 E11.92942
G1 X42.606 Y149.161 E11.94909
G1 X42.223 Y148.394 E11.97428
G1 X41.873 Y147.610 E11.99952
G1 X41.559 Y146.813 E12.02467
G1 X41.222 Y145.822 E12.05546
G1 X40.986 Y144.997 E12.08067
G1 X40.787 Y144.163 E12.10587
G1 X40.656 Y143.506 E12.12554
G1 X40.521 Y142.659 E12.15075
G1 X40.424 Y141.808 E12.17594
G1 X40.364 Y140.952 E12.20114
G1 X40.341 Y140.047 E12.22775
G1 X40.342 Y59.859 E14.58430
G1 X40.364 Y59.048 E14.60814
G1 X40.408 Y58.381 E14.62779
G1 X40.497 Y57.528 E14.65300
G1 X40.623 Y56.679 E14.67821
G1 X40.787 Y55.837 E14.70341
G1 X40.986 Y55.003 E14.72862
G1 X41.279 Y53.999 E14.75936
G1 X41.559 Y53.187 E14.78458
G1 X41.874 Y52.390 E14.80979
G1 X42.223 Y51.606 E14.83499
G1 X42.658 Y50.744 E14.86338
G1 X43.022 Y50.089 E14.88541
G1 X43.369 Y49.517 E14.90506
G1 X43.842 Y48.801 E14.93027
G1 X44.346 Y48.107 E14.95548
G1 X44.880 Y47.436 E14.98068
G1 X45.442 Y46.788 E15.00589
G1 X46.066 Y46.132 E15.03251
G1 X46.316 Y46.382 F2400.000
G1 X47.024 Y45.705 E15.06128 F1200.000
G1 X47.660 Y45.153 E15.08604
G1 X48.319 Y44.629 E15.11079
G1 X49.001 Y44.134 E15.13555
G1 X49.703 Y43.669 E15.16029
G1 X50.426 Y43.236 E15.18505
G1 X51.166 Y42.834 E15.20980
G1 X51.923 Y42.465 E15.23457
G1 X52.695 Y42.129 E15.25931
G1 X53.482 Y41.828 E15.28407
G1 X54.281 Y41.561 E15.30882
G1 X54.916 Y41.376 E15.32825
G1 X55.733 Y41.172 E15.35300
G1 X56.558 Y41.003 E15.37776
G1 X57.390 Y40.871 E15.40251
G1 X58.227 Y40.776 E15.42726
G1 X59.067 Y40.717 E15.45202
G1 X59.955 Y40.694 E15.47810
G1 X140.045 Y40.694 E17.83179
G1 X140.933 Y40.717 E17.85787 F1200.000
G1 X141.773 Y40.776 E17.88263
G1 X142.609 Y40.871 E17.90737
G1 X143.441 Y41.003 E17.93213
G1 X144.267 Y41.172 E17.95689
G1 X144.909 Y41.329 E17.97632
G1 X145.718 Y41.560 E18.00104
G1 X146.518 Y41.828 E18.02582
G1 X147.305 Y42.130 E18.05060
G1 X148.076 Y42.465 E18.07531
G1 X148.834 Y42.834 E18.10009
G1 X149.731 Y43.326 E18.13015
G1 X150.450 Y43.767 E18.15492
G1 X150.999 Y44.134 E18.17435
G1 X151.597 Y44.567 E18.19603
G1 X152.340 Y45.153 E18.22384
G1 X152.975 Y45.705 E18.24857
G1 X153.587 Y46.285 E18.27336
G1 X154.173 Y46.891 E18.29812
G1 X154.731 Y47.522 E18.32288
G1 X155.371 Y48.319 E18.35293
G1 X155.866 Y49.001 E18.37768
G1 X156.331 Y49.704 E18.40245
G1 X156.674 Y50.269 E18.42189
G1 X157.032 Y50.914 E18.44357
G1 X157.459 Y51.759 E18.47139
G1 X157.802 Y52.529 E18.49616
G1 X158.111 Y53.313 E18.52092
G1 X158.439 Y54.281 E18.55096
G1 X158.671 Y55.090 E18.57570
G1 X158.868 Y55.910 E18.60048
G1 X159.028 Y56.737 E18.62523
G1 X159.152 Y57.570 E18.64997
G1 X159.224 Y58.226 E18.66936
G1 X159.283 Y59.067 E18.69416
G1 X159.306 Y59.955 E18.72025
G1 X159.306 Y140.045 E21.07393
G1 X159.283 Y140.932 E21.10000
G1 X159.224 Y141.773 E21.12476
G1 X159.129 Y142.610 E21.14953
G1 X158.997 Y143.442 E21.17428
G1 X158.828 Y144.267 E21.19902
G1 X158.624 Y145.084 E21.22376
G1 X158.439 Y145.719 E21.24322
G1 X158.172 Y146.518 E21.26796
G1 X157.871 Y147.304 E21.29271
G1 X157.536 Y148.076 E21.31743
G1 X157.166 Y148.834 E21.34223
G1 X156.765 Y149.573 E21.36693
G1 X156.331 Y150.297 E21.39174
G1 X155.866 Y150.999 E21.41647
G1 X155.370 Y151.682 E21.44129
G1 X154.847 Y152.340 E21.46598
G1 X154.296 Y152.975 E21.49071
G1 X153.715 Y153.587 E21.51549
G1 X153.109 Y154.173 E21.54026
G1 X152.557 Y154.662 E21.56195
G1 X151.681 Y155.371 E21.59508
G1 X151.000 Y155.866 E21.61981
G1 X150.296 Y156.331 E21.64459
G1 X149.575 Y156.764 E21.66933
G1 X148.833 Y157.166 E21.69411
G1 X148.077 Y157.535 E21.71885
G1 X147.304 Y157.871 E21.74361
G1 X146.518 Y158.172 E21.76836
G1 X145.719 Y158.439 E21.79311
G1 X144.909 Y158.671 E21.81785
G1 X144.266 Y158.829 E21.83732
G1 X143.441 Y158.997 E21.86207
G1 X142.611 Y159.128 E21.88677
G1 X141.774 Y159.224 E21.91151
G1 X140.933 Y159.283 E21.93630
G1 X140.045 Y159.306 E21.96240
G1 X59.955 Y159.306 E24.31607
G1 X59.250 Y159.291 E24.33679
G1 X58.408 Y159.240 E24.36157
G1 X57.569 Y159.152 E24.38638
G1 X56.736 Y159.028 E24.41111
G1 X55.733 Y158.828 E24.44116
G1 X54.916 Y158.624 E24.46591
G1 X54.108 Y158.385 E24.49069
G1 X53.482 Y158.172 E24.51011
G1 X52.697 Y157.871 E24.53484
G1 X51.759 Y157.459 E24.56493
G1 X51.005 Y157.082 E24.58969
G1 X50.269 Y156.674 E24.61443
G1 X49.704 Y156.331 E24.63385
G1 X49.002 Y155.867 E24.65860
G1 X48.318 Y155.371 E24.68342
G1 X47.660 Y154.847 E24.70814
G1 X46.891 Y154.172 E24.73821
G1 X46.285 Y153.587 E24.76296
G1 X45.705 Y152.976 E24.78771
G1 X45.153 Y152.340 E24.81248
G1 X44.629 Y151.680 E24.83723
G1 X44.134 Y150.999 E24.86197
G1 X43.669 Y150.296 E24.88673
G1 X43.236 Y149.575 E24.91148
G1 X42.917 Y148.994 E24.93092
G1 X42.542 Y148.241 E24.95566
G1 X42.198 Y147.471 E24.98044
G1 X41.890 Y146.689 E25.00515
G1 X41.561 Y145.719 E25.03525
G1 X41.329 Y144.909 E25.06001
G1 X41.132 Y144.090 E25.08476
G1 X41.003 Y143.441 E25.10420
G1 X40.871 Y142.609 E25.12895
G1 X40.776 Y141.773 E25.15370
G1 X40.717 Y140.933 E25.17844
G1 X40.694 Y140.045 E25.20454
G1 X40.694 Y59.955 E27.55821
G1 X40.717 Y59.067 E27.58430
G1 X40.776 Y58.227 E27.60906
G1 X40.871 Y57.390 E27.63381
G1 X41.003 Y56.558 E27.65857
G1 X41.172 Y55.733 E27.68332
G1 X41.376 Y54.916 E27.70807
G1 X41.561 Y54.281 E27.72749
G1 X41.828 Y53.482 E27.75225
G1 X42.129 Y52.696 E27.77701
G1 X42.541 Y51.759 E27.80708
G1 X42.917 Y51.005 E27.83183
G1 X43.326 Y50.269 E27.85659
G1 X43.767 Y49.551 E27.88135
G1 X44.238 Y48.852 E27.90610
G1 X44.739 Y48.176 E27.93085
G1 X45.269 Y47.521 E27.95561
G1 X45.705 Y47.024 E27.97504
G1 X46.284 Y46.413 E27.99977
G1 X46.538 Y46.660 F2400.000
G1 X47.260 Y45.968 E28.02916 F1200.000
G1 X47.884 Y45.426 E28.05346
G1 X48.531 Y44.911 E28.07776
G1 X49.201 Y44.425 E28.10207
G1 X49.890 Y43.969 E28.12636
G1 X50.599 Y43.544 E28.15067
G1 X51.326 Y43.149 E28.17496
G1 X52.069 Y42.787 E28.19927
G1 X52.827 Y42.457 E28.22356
G1 X53.600 Y42.161 E28.24787
G1 X54.480 Y41.871 E28.27512
G1 X55.179 Y41.671 E28.29648
G1 X55.813 Y41.516 E28.31566
G1 X56.624 Y41.351 E28.33997
G1 X57.440 Y41.221 E28.36427
G1 X58.262 Y41.128 E28.38857
G1 X59.087 Y41.070 E28.41287
G1 X59.957 Y41.048 E28.43844
G1 X140.130 Y41.049 E30.79456
G1 X140.913 Y41.070 E30.81759 F1200.000
G1 X141.566 Y41.112 E30.83681
G1 X142.387 Y41.199 E30.86107
G1 X143.205 Y41.321 E30.88538
G1 X144.018 Y41.478 E30.90970
G1 X144.822 Y41.671 E30.93400
G1 X145.781 Y41.951 E30.96338
G1 X146.564 Y42.220 E30.98769
G1 X147.333 Y42.524 E31.01200
G1 X148.088 Y42.860 E31.03629
G1 X148.674 Y43.149 E31.05550
G1 X149.400 Y43.543 E31.07978
G1 X150.111 Y43.970 E31.10412
G1 X150.800 Y44.426 E31.12841
G1 X151.469 Y44.912 E31.15271
G1 X152.249 Y45.538 E31.18209
G1 X152.868 Y46.085 E31.20638
G1 X153.463 Y46.660 E31.23070
G1 X153.915 Y47.133 E31.24991
G1 X154.396 Y47.676 E31.27125
G1 X154.983 Y48.394 E31.29848
G1 X155.474 Y49.057 E31.32275
G1 X155.938 Y49.745 E31.34712
G1 X156.370 Y50.449 E31.37141
G1 X156.771 Y51.173 E31.39574
G1 X157.213 Y52.069 E31.42510
G1 X157.543 Y52.828 E31.44940
G1 X157.839 Y53.600 E31.47371
G1 X158.049 Y54.218 E31.49290
G1 X158.284 Y55.010 E31.51716
G1 X158.484 Y55.815 E31.54154
G1 X158.649 Y56.625 E31.56583
G1 X158.779 Y57.440 E31.59008
G1 X158.872 Y58.260 E31.61436
G1 X158.930 Y59.087 E31.63870
G1 X158.952 Y59.957 E31.66428
G1 X158.952 Y140.043 E34.01784
G1 X158.930 Y140.913 E34.04341
G1 X158.872 Y141.738 E34.06771
G1 X158.779 Y142.560 E34.09203
G1 X158.649 Y143.377 E34.11633
G1 X158.484 Y144.186 E34.14061
G1 X158.284 Y144.988 E34.16490
G1 X158.101 Y145.617 E34.18414
G1 X157.839 Y146.400 E34.20842
G1 X157.543 Y147.172 E34.23272
G1 X157.214 Y147.930 E34.25699
G1 X156.851 Y148.675 E34.28133
G1 X156.457 Y149.400 E34.30558
G1 X156.031 Y150.110 E34.32993
G1 X155.575 Y150.799 E34.35421
G1 X155.087 Y151.470 E34.37858
G1 X154.574 Y152.116 E34.40282
G1 X154.032 Y152.739 E34.42709
G1 X153.463 Y153.340 E34.45142
G1 X152.868 Y153.915 E34.47574
G1 X152.324 Y154.396 E34.49708
G1 X151.468 Y155.089 E34.52942
G1 X150.800 Y155.574 E34.55370
G1 X150.110 Y156.031 E34.57803
G1 X149.401 Y156.456 E34.60232
G1 X148.674 Y156.851 E34.62664
G1 X147.931 Y157.213 E34.65092
G1 X147.172 Y157.543 E34.67523
G1 X146.400 Y157.839 E34.69953
G1 X145.616 Y158.101 E34.72382
G1 X144.822 Y158.329 E34.74812
G1 X144.186 Y158.484 E34.76736
G1 X143.376 Y158.649 E34.79166
G1 X142.561 Y158.779 E34.81590
G1 X141.740 Y158.872 E34.84019
G1 X140.913 Y158.930 E34.86453
G1 X140.043 Y158.952 E34.89011
G1 X59.957 Y158.952 E37.24367
G1 X59.261 Y158.938 E37.26411
G1 X58.435 Y158.888 E37.28844
G1 X57.611 Y158.801 E37.31279
G1 X56.794 Y158.679 E37.33707
G1 X55.814 Y158.484 E37.36644
G1 X55.011 Y158.284 E37.39074
G1 X54.218 Y158.049 E37.41506
G1 X53.436 Y157.779 E37.43935
G1 X52.667 Y157.476 E37.46364
G1 X52.070 Y157.214 E37.48282
G1 X51.326 Y156.851 E37.50714
G1 X50.449 Y156.370 E37.53654
G1 X49.744 Y155.938 E37.56085
G1 X49.059 Y155.475 E37.58514
G1 X48.394 Y154.983 E37.60946
G1 X47.751 Y154.462 E37.63376
G1 X47.132 Y153.914 E37.65805
G1 X46.661 Y153.463 E37.67723
G1 X46.086 Y152.868 E37.70154
G1 X45.537 Y152.248 E37.72588
G1 X45.017 Y151.606 E37.75017
G1 X44.525 Y150.942 E37.77444
G1 X44.063 Y150.256 E37.79875
G1 X43.631 Y149.552 E37.82303
G1 X43.149 Y148.674 E37.85246
G1 X42.787 Y147.931 E37.87675
G1 X42.457 Y147.172 E37.90106
G1 X42.161 Y146.401 E37.92535
G1 X41.899 Y145.616 E37.94966
G1 X41.671 Y144.821 E37.97396
G1 X41.478 Y144.017 E37.99826
G1 X41.351 Y143.376 E38.01747
G1 X41.221 Y142.559 E38.04177
G1 X41.128 Y141.738 E38.06606
G1 X41.070 Y140.914 E38.09036
G1 X41.048 Y140.043 E38.11594
G1 X41.048 Y59.957 E40.46950
G1 X41.070 Y59.087 E40.49508
G1 X41.128 Y58.262 E40.51938
G1 X41.221 Y57.440 E40.54368
G1 X41.351 Y56.623 E40.56799
G1 X41.516 Y55.813 E40.59229
G1 X41.716 Y55.011 E40.61658
G1 X41.899 Y54.384 E40.63578
G1 X42.161 Y53.599 E40.66008
G1 X42.457 Y52.827 E40.68439
G1 X42.787 Y52.069 E40.70868
G1 X43.229 Y51.172 E40.73808
G1 X43.630 Y50.449 E40.76239
G1 X44.063 Y49.744 E40.78669
G1 X44.525 Y49.058 E40.81099
G1 X45.017 Y48.394 E40.83529
G1 X45.538 Y47.751 E40.85959
G1 X45.969 Y47.260 E40.87879
G1 X46.506 Y46.693 E40.90177
G1 X46.762 Y46.937 F2400.000
G1 X47.374 Y46.344 E40.92682 F1200.000
G1 X47.981 Y45.806 E40.95067
G1 X48.612 Y45.295 E40.97452
G1 X49.264 Y44.812 E40.99836
G1 X50.077 Y44.270 E41.02707
G1 X50.772 Y43.852 E41.05093
G1 X51.485 Y43.465 E41.07477
G1 X52.215 Y43.109 E41.09863
G1 X52.959 Y42.785 E41.12246
G1 X53.717 Y42.495 E41.14632
G1 X54.579 Y42.210 E41.17300
G1 X55.267 Y42.013 E41.19402
G1 X55.893 Y41.860 E41.21298
G1 X56.689 Y41.698 E41.23683
G1 X57.490 Y41.571 E41.26068
G1 X58.296 Y41.479 E41.28452
G1 X59.106 Y41.423 E41.30837
G1 X59.959 Y41.401 E41.33344
G1 X140.041 Y41.401 E43.68689
G1 X140.894 Y41.423 E43.71196 F1200.000
G1 X141.704 Y41.479 E43.73581
G1 X142.510 Y41.571 E43.75965
G1 X143.311 Y41.698 E43.78350
G1 X144.107 Y41.860 E43.80735
G1 X144.734 Y42.014 E43.82633
G1 X145.513 Y42.237 E43.85015
G1 X146.283 Y42.495 E43.87402
G1 X147.041 Y42.786 E43.89788
G1 X147.785 Y43.109 E43.92170
G1 X148.515 Y43.465 E43.94557
G1 X149.371 Y43.934 E43.97427
G1 X150.063 Y44.359 E43.99813
G1 X150.600 Y44.717 E44.01711
G1 X151.179 Y45.137 E44.03811
G1 X151.891 Y45.699 E44.06479
G1 X152.503 Y46.231 E44.08862
G1 X153.093 Y46.790 E44.11250
G1 X153.657 Y47.374 E44.13635
G1 X154.195 Y47.982 E44.16020
G1 X154.806 Y48.743 E44.18889
G1 X155.282 Y49.400 E44.21273
G1 X155.731 Y50.077 E44.23660
G1 X156.066 Y50.629 E44.25558
G1 X156.413 Y51.254 E44.27659
G1 X156.821 Y52.065 E44.30327
G1 X157.152 Y52.807 E44.32714
G1 X157.449 Y53.562 E44.35098
G1 X157.763 Y54.486 E44.37968
G1 X157.986 Y55.266 E44.40351
G1 X158.176 Y56.056 E44.42738
G1 X158.331 Y56.852 E44.45123
G1 X158.450 Y57.654 E44.47506
G1 X158.521 Y58.295 E44.49400
G1 X158.577 Y59.106 E44.51789
G1 X158.599 Y59.959 E44.54296
G1 X158.599 Y140.041 E46.89641
G1 X158.577 Y140.894 E46.92146
G1 X158.521 Y141.703 E46.94532
G1 X158.429 Y142.510 E46.96917
G1 X158.302 Y143.311 E46.99302
G1 X158.140 Y144.106 E47.01685
G1 X157.944 Y144.893 E47.04069
G1 X157.763 Y145.514 E47.05970
G1 X157.505 Y146.283 E47.08353
G1 X157.215 Y147.041 E47.10737
G1 X156.892 Y147.784 E47.13119
