; generated by Slic3r 1.2.9 on 2020-11-30 at 17:25:35

; external perimeters extrusion width = 0.30mm
; perimeters extrusion width = 0.51mm
; infill extrusion width = 0.73mm
; solid infill extrusion width = 0.51mm
; top infill extrusion width = 0.51mm

M190 S60 ; set bed temperature
M104 S185 ; set temperature
G28 ; home all axes
G1 Z5 F5000 ; lift nozzle

M109 S185 ; wait for temperature to be reached
G21 ; set units to millimeters
G90 ; use absolute coordinates
M82 ; use absolute distances for extrusion
G92 E0
G1 Z0.200 F2400.000
G1 E-2.00000 F2400.00000
G92 E0
G1 X61.950 Y62.473 F2400.000
G1 E2.00000 F2400.00000
G1 X62.721 Y61.788 E2.03032 F1200.000
G1 X63.550 Y61.174 E2.06064
G1 X64.429 Y60.634 E2.09096
G1 X64.886 Y60.393 E2.10613
G1 X65.466 Y60.122 E2.12494
G1 X66.436 Y59.751 E2.15548
G1 X67.428 Y59.467 E2.18579
G1 X68.442 Y59.272 E2.21613
G1 X69.468 Y59.165 E2.24646
G1 X70.175 Y59.143 E2.26725
G1 X125.367 Y59.146 E3.88922
G1 X126.398 Y59.207 E3.91955 F1200.000
G1 X127.041 Y59.292 E3.93862
G1 X128.050 Y59.499 E3.96888
G1 X129.039 Y59.793 E3.99920
G1 X129.878 Y60.119 E4.02568
G1 X130.806 Y60.571 E4.05600
G1 X131.691 Y61.101 E4.08632
G1 X132.223 Y61.473 E4.10541
G1 X133.022 Y62.122 E4.13566
G1 X133.759 Y62.835 E4.16577
G1 X134.358 Y63.517 E4.19245
G1 X134.972 Y64.346 E4.22277
G1 X135.512 Y65.225 E4.25309
G1 X135.811 Y65.799 E4.27211
G1 X136.221 Y66.745 E4.30242
G1 X136.548 Y67.724 E4.33275
G1 X136.788 Y68.730 E4.36313
G1 X136.939 Y69.748 E4.39339
G1 X141.592 Y113.841 E5.69638
G1 X141.647 Y114.706 E5.72184
G1 X141.647 Y115.352 E5.74084
G1 X141.588 Y116.252 E5.76732
G1 X141.504 Y116.893 E5.78634
G1 X141.297 Y117.905 E5.81668
G1 X141.003 Y118.893 E5.84698
G1 X140.624 Y119.852 E5.87730
G1 X140.403 Y120.319 E5.89246
G1 X139.970 Y121.108 E5.91893
G1 X139.401 Y121.970 E5.94926
G1 X138.760 Y122.778 E5.97957
G1 X138.050 Y123.527 E6.00990
G1 X137.279 Y124.211 E6.04021
G1 X117.650 Y139.069 E6.76367
G1 X115.321 Y140.332 E6.84154
G1 X112.325 Y140.857 E6.93093
G1 X92.325 Y140.857 E7.51869
G1 X89.705 Y140.459 E7.59656
G1 X86.999 Y139.069 E7.68595
G1 X67.673 Y124.449 E8.39811
G1 X66.978 Y123.878 E8.42455
G1 X66.236 Y123.160 E8.45488
G1 X65.560 Y122.381 E8.48520
G1 X64.955 Y121.545 E8.51552
G1 X64.680 Y121.108 E8.53069
G1 X64.247 Y120.319 E8.55716
G1 X63.979 Y119.744 E8.57579
G1 X63.778 Y119.254 E8.59135
G1 X63.489 Y118.401 E8.61781
G1 X63.353 Y117.904 E8.63298
G1 X63.215 Y117.285 E8.65162
G1 X63.126 Y116.764 E8.66715
G1 X58.369 Y71.679 E9.99944
G1 X58.350 Y71.162 E10.01463
G1 X58.369 Y70.263 E10.04107
G1 X58.412 Y69.748 E10.05624
G1 X58.495 Y69.114 E10.07506
G1 X58.703 Y68.095 E10.10562
G1 X58.955 Y67.231 E10.13205
G1 X59.129 Y66.745 E10.14722
G1 X59.374 Y66.154 E10.16603
G1 X59.597 Y65.681 E10.18139
G1 X59.838 Y65.224 E10.19657
G1 X60.305 Y64.455 E10.22303
G1 X60.676 Y63.925 E10.24204
G1 X60.993 Y63.517 E10.25722
G1 X61.327 Y63.124 E10.27238
G1 X61.918 Y62.505 E10.29752
G1 X62.168 Y62.755 F2400.000
G1 X62.943 Y62.064 E10.32803 F1200.000
G1 X63.747 Y61.468 E10.35745
G1 X64.599 Y60.943 E10.38686
G1 X65.494 Y60.496 E10.41628
G1 X66.425 Y60.128 E10.44570
G1 X66.902 Y59.974 E10.46040
G1 X67.505 Y59.812 E10.47877
G1 X68.495 Y59.621 E10.50840
G1 X69.491 Y59.518 E10.53783
G1 X70.175 Y59.497 E10.55794
G1 X125.360 Y59.499 E12.17969
G1 X126.359 Y59.559 E12.20911 F1200.000
G1 X126.987 Y59.641 E12.22772
G1 X127.966 Y59.842 E12.25708
G1 X128.925 Y60.127 E12.28649
G1 X129.736 Y60.443 E12.31207
G1 X130.636 Y60.880 E12.34148
G1 X131.495 Y61.395 E12.37089
G1 X132.014 Y61.758 E12.38952
G1 X132.789 Y62.388 E12.41888
G1 X133.504 Y63.079 E12.44808
G1 X134.082 Y63.738 E12.47385
G1 X134.678 Y64.542 E12.50327
G1 X135.203 Y65.395 E12.53268
G1 X135.494 Y65.955 E12.55125
G1 X135.892 Y66.873 E12.58065
G1 X136.208 Y67.823 E12.61007
G1 X136.441 Y68.799 E12.63955
G1 X136.587 Y69.787 E12.66891
G1 X141.241 Y113.878 E13.97185
G1 X141.294 Y114.714 E13.99645
G1 X141.294 Y115.345 E14.01499
G1 X141.237 Y116.213 E14.04057
G1 X141.155 Y116.839 E14.05913
G1 X140.954 Y117.821 E14.08857
G1 X140.668 Y118.779 E14.11796
G1 X140.300 Y119.710 E14.14737
G1 X140.086 Y120.162 E14.16209
G1 X139.668 Y120.925 E14.18765
G1 X139.116 Y121.761 E14.21707
G1 X138.494 Y122.545 E14.24648
G1 X137.806 Y123.272 E14.27590
G1 X137.058 Y123.936 E14.30530
G1 X117.437 Y138.787 E15.02846
G1 X115.151 Y140.018 E15.10475
G1 X112.325 Y140.503 E15.18903
G1 X92.325 Y140.503 E15.77679
G1 X89.759 Y140.105 E15.85308
G1 X87.212 Y138.787 E15.93736
G1 X67.886 Y124.167 E16.64952
G1 X67.211 Y123.612 E16.67521
G1 X66.492 Y122.916 E16.70463
G1 X65.836 Y122.160 E16.73404
G1 X65.249 Y121.349 E16.76346
G1 X64.982 Y120.925 E16.77817
G1 X64.564 Y120.162 E16.80374
G1 X64.302 Y119.602 E16.82191
G1 X64.108 Y119.126 E16.83702
G1 X63.828 Y118.303 E16.86258
G1 X63.668 Y117.705 E16.88075
G1 X63.559 Y117.203 E16.89586
G1 X63.427 Y116.343 E16.92142
G1 X58.722 Y71.656 E18.24194
G1 X58.703 Y71.155 E18.25668
G1 X58.722 Y70.286 E18.28222
G1 X58.763 Y69.787 E18.29693
G1 X58.844 Y69.167 E18.31530
G1 X59.047 Y68.179 E18.34495
G1 X59.290 Y67.345 E18.37047
G1 X59.458 Y66.873 E18.38519
G1 X59.697 Y66.296 E18.40355
G1 X59.914 Y65.838 E18.41845
G1 X60.148 Y65.394 E18.43318
G1 X60.599 Y64.651 E18.45874
G1 X60.961 Y64.134 E18.47729
G1 X61.269 Y63.738 E18.49202
G1 X61.592 Y63.357 E18.50672
G1 X62.136 Y62.786 E18.52987
G1 X62.386 Y63.036 F2400.000
G1 X62.794 Y62.654 E18.54632 F1200.000
G1 X63.164 Y62.340 E18.56057
G1 X63.943 Y61.761 E18.58909
G1 X64.769 Y61.253 E18.61759
G1 X65.637 Y60.819 E18.64610
G1 X66.539 Y60.462 E18.67461
G1 X67.001 Y60.314 E18.68887
G1 X67.589 Y60.156 E18.70678
G1 X68.549 Y59.970 E18.73551
G1 X69.514 Y59.870 E18.76403
G1 X70.175 Y59.850 E18.78345
G1 X125.352 Y59.852 E20.40498
G1 X126.321 Y59.910 E20.43349 F1200.000
G1 X126.933 Y59.991 E20.45165
G1 X127.882 Y60.185 E20.48010
G1 X128.811 Y60.462 E20.50861
G1 X129.594 Y60.766 E20.53328
G1 X130.466 Y61.190 E20.56179
G1 X131.298 Y61.689 E20.59029
G1 X131.805 Y62.043 E20.60847
G1 X132.556 Y62.654 E20.63692
G1 X133.248 Y63.324 E20.66522
G1 X133.806 Y63.960 E20.69008
G1 X134.385 Y64.738 E20.71859
G1 X134.893 Y65.565 E20.74710
G1 X135.177 Y66.112 E20.76521
G1 X135.563 Y67.001 E20.79371
G1 X135.869 Y67.922 E20.82222
G1 X136.094 Y68.868 E20.85079
G1 X136.236 Y69.825 E20.87925
G1 X140.889 Y113.915 E22.18215
G1 X140.941 Y114.721 E22.20588
G1 X140.941 Y115.337 E22.22397
G1 X140.886 Y116.175 E22.24865
G1 X140.805 Y116.786 E22.26676
G1 X140.610 Y117.737 E22.29529
G1 X140.333 Y118.666 E22.32377
G1 X139.977 Y119.568 E22.35228
G1 X139.769 Y120.006 E22.36654
G1 X139.365 Y120.742 E22.39119
G1 X138.831 Y121.552 E22.41971
G1 X138.228 Y122.312 E22.44821
G1 X137.562 Y123.016 E22.47673
G1 X136.836 Y123.660 E22.50522
G1 X117.224 Y138.505 E23.22808
G1 X114.983 Y139.702 E23.30276
G1 X112.325 Y140.150 E23.38196
G1 X92.325 Y140.150 E23.96972
G1 X89.815 Y139.752 E24.04439
G1 X87.426 Y138.505 E24.12360
G1 X68.099 Y123.885 E24.83576
G1 X67.444 Y123.346 E24.86069
G1 X66.747 Y122.671 E24.88921
G1 X66.112 Y121.938 E24.91772
G1 X65.543 Y121.153 E24.94623
G1 X65.284 Y120.742 E24.96049
G1 X64.881 Y120.006 E24.98515
G1 X64.626 Y119.460 E25.00287
G1 X64.437 Y118.998 E25.01752
G1 X64.168 Y118.204 E25.04218
G1 X64.011 Y117.621 E25.05989
G1 X63.906 Y117.134 E25.07455
G1 X63.778 Y116.305 E25.09920
G1 X59.075 Y71.633 E26.41927
G1 X59.056 Y71.147 E26.43355
G1 X59.075 Y70.309 E26.45819
G1 X59.114 Y69.825 E26.47245
G1 X59.194 Y69.221 E26.49036
G1 X59.390 Y68.263 E26.51910
G1 X59.624 Y67.459 E26.54373
G1 X59.788 Y67.002 E26.55799
G1 X60.021 Y66.439 E26.57589
G1 X60.231 Y65.994 E26.59035
G1 X60.458 Y65.564 E26.60462
G1 X60.893 Y64.847 E26.62927
G1 X61.246 Y64.343 E26.64737
G1 X61.544 Y63.959 E26.66165
G1 X61.858 Y63.590 E26.67590
G1 X62.354 Y63.068 E26.69704
G1 X62.604 Y63.318 F2400.000
G1 X63.027 Y62.919 E26.71413 F1200.000
G1 X63.385 Y62.615 E26.72794
G1 X64.139 Y62.055 E26.75554
G1 X64.939 Y61.563 E26.78314
G1 X65.779 Y61.143 E26.81074
G1 X66.652 Y60.797 E26.83835
G1 X67.100 Y60.653 E26.85215
G1 X67.673 Y60.499 E26.86961
G1 X68.603 Y60.320 E26.89743
G1 X69.537 Y60.223 E26.92504
G1 X70.175 Y60.204 E26.94379
G1 X125.344 Y60.206 E28.56509
G1 X126.282 Y60.261 E28.59270 F1200.000
G1 X126.879 Y60.340 E28.61040
G1 X127.798 Y60.529 E28.63795
G1 X128.698 Y60.797 E28.66555
G1 X129.451 Y61.090 E28.68932
G1 X130.296 Y61.500 E28.71692
G1 X131.102 Y61.982 E28.74451
G1 X131.863 Y62.533 E28.77212
G1 X132.573 Y63.148 E28.79973
G1 X132.999 Y63.574 E28.81743
G1 X133.613 Y64.283 E28.84499
G1 X134.164 Y65.044 E28.87260
G1 X134.646 Y65.850 E28.90019
G1 X135.053 Y66.689 E28.92760
G1 X135.349 Y67.448 E28.95155
G1 X135.617 Y68.348 E28.97915
G1 X135.748 Y68.936 E28.99686
G1 X135.885 Y69.864 E29.02441
G1 X140.538 Y113.952 E30.32727
G1 X140.587 Y114.729 E30.35014
G1 X140.587 Y115.329 E30.36778
G1 X140.534 Y116.136 E30.39154
G1 X140.456 Y116.732 E30.40920
G1 X140.267 Y117.653 E30.43682
G1 X139.999 Y118.552 E30.46440
G1 X139.653 Y119.425 E30.49200
G1 X139.452 Y119.850 E30.50581
G1 X139.063 Y120.558 E30.52956
G1 X138.546 Y121.343 E30.55717
G1 X137.963 Y122.079 E30.58476
G1 X137.317 Y122.761 E30.61237
G1 X136.615 Y123.384 E30.63997
G1 X117.011 Y138.224 E31.36253
G1 X114.815 Y139.386 E31.43555
G1 X112.325 Y139.796 E31.50971
G1 X92.325 Y139.796 E32.09746
G1 X89.872 Y139.399 E32.17048
G1 X87.639 Y138.224 E32.24465
G1 X68.313 Y123.604 E32.95681
G1 X67.677 Y123.081 E32.98100
G1 X67.002 Y122.427 E33.00861
G1 X66.387 Y121.717 E33.03620
G1 X65.836 Y120.956 E33.06381
G1 X65.587 Y120.558 E33.07762
G1 X65.198 Y119.850 E33.10137
G1 X64.949 Y119.317 E33.11864
G1 X64.767 Y118.870 E33.13284
G1 X64.507 Y118.105 E33.15659
G1 X64.355 Y117.537 E33.17385
G1 X64.252 Y117.065 E33.18805
G1 X64.130 Y116.266 E33.21180
G1 X59.427 Y71.610 E34.53141
G1 X59.410 Y71.139 E34.54525
G1 X59.427 Y70.332 E34.56897
G1 X59.466 Y69.864 E34.58278
G1 X59.543 Y69.275 E34.60024
G1 X59.733 Y68.347 E34.62808
G1 X59.959 Y67.572 E34.65179
G1 X60.117 Y67.130 E34.66560
G1 X60.344 Y66.581 E34.68306
G1 X60.548 Y66.150 E34.69706
G1 X60.768 Y65.734 E34.71088
G1 X61.187 Y65.044 E34.73462
G1 X61.531 Y64.552 E34.75227
G1 X61.820 Y64.180 E34.76609
G1 X62.124 Y63.823 E34.77989
G1 X62.572 Y63.350 E34.79903
G1 X62.822 Y63.600 F2400.000
G1 X63.260 Y63.185 E34.81676 F1200.000
G1 X63.606 Y62.891 E34.83011
G1 X64.336 Y62.349 E34.85681
G1 X65.109 Y61.873 E34.88351
G1 X65.921 Y61.466 E34.91020
G1 X66.766 Y61.132 E34.93690
G1 X67.198 Y60.992 E34.95025
G1 X67.757 Y60.842 E34.96726
G1 X68.657 Y60.669 E34.99417
G1 X69.560 Y60.576 E35.02087
G1 X70.175 Y60.557 E35.03895
G1 X125.337 Y60.559 E36.66002
G1 X126.244 Y60.613 E36.68672 F1200.000
G1 X126.826 Y60.689 E36.70397
G1 X127.714 Y60.872 E36.73061
G1 X128.584 Y61.131 E36.75731
G1 X129.309 Y61.413 E36.78017
G1 X130.126 Y61.810 E36.80686
G1 X130.906 Y62.276 E36.83355
G1 X131.642 Y62.809 E36.86025
G1 X132.329 Y63.404 E36.88695
G1 X132.744 Y63.819 E36.90420
G1 X133.337 Y64.504 E36.93086
G1 X133.870 Y65.241 E36.95756
G1 X134.336 Y66.020 E36.98424
G1 X134.730 Y66.831 E37.01075
G1 X135.015 Y67.562 E37.03380
G1 X135.274 Y68.432 E37.06048
G1 X135.401 Y69.005 E37.07774
G1 X135.533 Y69.902 E37.10439
G1 X140.186 Y113.990 E38.40720
G1 X140.234 Y114.737 E38.42921
G1 X140.234 Y115.322 E38.44639
G1 X140.183 Y116.098 E38.46925
G1 X140.107 Y116.678 E38.48646
G1 X139.924 Y117.569 E38.51317
G1 X139.664 Y118.438 E38.53985
G1 X139.330 Y119.283 E38.56654
G1 X139.135 Y119.693 E38.57989
G1 X138.761 Y120.375 E38.60274
G1 X138.261 Y121.134 E38.62945
G1 X137.697 Y121.846 E38.65613
G1 X137.073 Y122.506 E38.68284
G1 X136.394 Y123.109 E38.70952
G1 X116.798 Y137.942 E39.43178
G1 X114.648 Y139.069 E39.50311
G1 X112.325 Y139.443 E39.57227
G1 X92.325 Y139.443 E40.16002
G1 X89.930 Y139.046 E40.23135
G1 X87.852 Y137.942 E40.30051
G1 X68.526 Y123.322 E41.01267
G1 X67.910 Y122.815 E41.03611
G1 X67.258 Y122.183 E41.06281
G1 X66.663 Y121.496 E41.08950
G1 X66.130 Y120.760 E41.11620
G1 X65.889 Y120.375 E41.12956
G1 X65.515 Y119.693 E41.15240
G1 X65.273 Y119.175 E41.16922
G1 X65.096 Y118.742 E41.18297
G1 X64.846 Y118.006 E41.20581
G1 X64.698 Y117.453 E41.22262
G1 X64.599 Y116.996 E41.23637
G1 X64.481 Y116.228 E41.25921
G1 X59.780 Y71.587 E42.57837
G1 X59.763 Y71.132 E42.59175
G1 X59.780 Y70.355 E42.61457
G1 X59.817 Y69.902 E42.62793
G1 X59.892 Y69.329 E42.64493
G1 X60.076 Y68.431 E42.67186
G1 X60.294 Y67.686 E42.69467
G1 X60.446 Y67.258 E42.70803
G1 X60.668 Y66.723 E42.72503
G1 X60.865 Y66.307 E42.73857
G1 X61.078 Y65.904 E42.75194
G1 X61.481 Y65.240 E42.77478
G1 X61.816 Y64.761 E42.79198
G1 X62.096 Y64.402 E42.80534
G1 X62.390 Y64.056 E42.81869
G1 X62.790 Y63.632 E42.83582
G1 X63.040 Y63.881 F2400.000
G1 X63.493 Y63.451 E42.85421 F1200.000
G1 X63.828 Y63.167 E42.86710
G1 X64.532 Y62.643 E42.89289
G1 X65.279 Y62.183 E42.91868
G1 X66.064 Y61.790 E42.94447
G1 X66.880 Y61.466 E42.97027
G1 X67.842 Y61.186 E42.99972
G1 X68.710 Y61.018 E43.02571
G1 X69.584 Y60.928 E43.05151
G1 X70.175 Y60.911 E43.06890
G1 X125.329 Y60.912 E44.68975
G1 X126.205 Y60.964 E44.71555 F1200.000
G1 X126.772 Y61.039 E44.73234
G1 X127.630 Y61.215 E44.75808
G1 X128.471 Y61.466 E44.78387
G1 X129.167 Y61.737 E44.80582
G1 X129.956 Y62.120 E44.83161
G1 X130.709 Y62.570 E44.85739
G1 X131.421 Y63.085 E44.88319
G1 X132.084 Y63.659 E44.90898
G1 X132.488 Y64.063 E44.92578
G1 X133.062 Y64.726 E44.95153
G1 X133.576 Y65.437 E44.97732
G1 X134.026 Y66.190 E45.00310
G1 X134.406 Y66.973 E45.02870
G1 X134.680 Y67.675 E45.05084
G1 X134.931 Y68.516 E45.07662
G1 X135.055 Y69.074 E45.09342
G1 X135.182 Y69.941 E45.11917
G1 X139.835 Y114.027 E46.42194
G1 X139.881 Y114.744 E46.44308
G1 X139.881 Y115.314 E46.45982
G1 X139.832 Y116.059 E46.48177
G1 X139.757 Y116.624 E46.49852
G1 X139.580 Y117.485 E46.52433
G1 X139.329 Y118.325 E46.55010
G1 X139.006 Y119.141 E46.57588
G1 X138.818 Y119.537 E46.58878
G1 X138.459 Y120.192 E46.61072
G1 X137.976 Y120.925 E46.63652
G1 X137.431 Y121.613 E46.66230
G1 X136.828 Y122.251 E46.68810
G1 X136.173 Y122.833 E46.71388
G1 X116.584 Y137.660 E47.43585
G1 X114.483 Y138.752 E47.50544
G1 X112.325 Y139.089 E47.56963
G1 X92.325 Y139.089 E48.15739
G1 X89.990 Y138.692 E48.22698
G1 X88.065 Y137.660 E48.29117
G1 X68.739 Y123.040 E49.00333
G1 X68.143 Y122.549 E49.02602
G1 X67.513 Y121.938 E49.05182
G1 X66.939 Y121.275 E49.07760
G1 X66.424 Y120.563 E49.10340
G1 X66.191 Y120.192 E49.11630
G1 X65.832 Y119.537 E49.13824
G1 X65.425 Y118.614 E49.16788
G1 X65.185 Y117.907 E49.18982
G1 X65.041 Y117.369 E49.20618
G1 X64.946 Y116.927 E49.21947
G1 X64.832 Y116.189 E49.24141
G1 X60.133 Y71.563 E50.56012
G1 X60.117 Y71.124 E50.57304
G1 X60.133 Y70.378 E50.59496
G1 X60.242 Y69.382 E50.62442
G1 X60.420 Y68.515 E50.65042
G1 X60.628 Y67.799 E50.67233
G1 X60.776 Y67.386 E50.68523
G1 X61.182 Y66.463 E50.71487
G1 X61.387 Y66.074 E50.72778
G1 X61.775 Y65.436 E50.74971
G1 X62.371 Y64.623 E50.77936
G1 X63.008 Y63.913 E50.80738
G1 X63.258 Y64.163 F2400.000
G1 X63.726 Y63.717 E50.82640 F1200.000
G1 X64.049 Y63.442 E50.83884
G1 X64.728 Y62.937 E50.86373
G1 X65.449 Y62.493 E50.88861
G1 X66.206 Y62.113 E50.91350
G1 X66.993 Y61.801 E50.93838
G1 X67.926 Y61.529 E50.96693
G1 X68.764 Y61.368 E50.99202
G1 X69.607 Y61.281 E51.01691
G1 X70.175 Y61.264 E51.03362
G1 X125.321 Y61.266 E52.65424
G1 X126.167 Y61.315 E52.67913 F1200.000
G1 X126.718 Y61.388 E52.69547
G1 X127.546 Y61.558 E52.72031
G1 X128.357 Y61.801 E52.74519
G1 X129.024 Y62.060 E52.76624
G1 X129.786 Y62.430 E52.79112
G1 X130.513 Y62.864 E52.81600
G1 X131.199 Y63.360 E52.84089
G1 X131.840 Y63.914 E52.86577
G1 X132.233 Y64.307 E52.88211
G1 X132.786 Y64.947 E52.90696
G1 X133.282 Y65.633 E52.93185
G1 X133.716 Y66.360 E52.95672
G1 X134.083 Y67.116 E52.98141
G1 X134.345 Y67.789 E53.00265
G1 X134.588 Y68.600 E53.02752
G1 X134.708 Y69.143 E53.04387
G1 X134.831 Y69.979 E53.06871
G1 X139.483 Y114.064 E54.37145
G1 X139.527 Y114.752 E54.39172
G1 X139.527 Y115.306 E54.40800
G1 X139.480 Y116.021 E54.42905
G1 X139.408 Y116.571 E54.44534
G1 X139.237 Y117.401 E54.47024
G1 X138.995 Y118.211 E54.49511
G1 X138.683 Y118.998 E54.51999
G1 X138.501 Y119.381 E54.53244
G1 X138.157 Y120.008 E54.55347
