; generated by Slic3r 1.2.9 on 2020-12-02 at 20:43:54

; external perimeters extrusion width = 0.30mm
; perimeters extrusion width = 0.51mm
; infill extrusion width = 0.73mm
; solid infill extrusion width = 0.51mm
; top infill extrusion width = 0.51mm

M190 S60 ; set bed temperature
M104 S185 ; set temperature
G28 ; home all axes
G1 Z5 F5000 ; lift nozzle

M109 S185 ; wait for temperature to be reached
G21 ; set units to millimeters
G90 ; use absolute coordinates
M82 ; use absolute distances for extrusion
G92 E0
G1 Z0.200 F2400.000
G1 E-2.00000 F2400.00000
G92 E0
G1 X84.049 Y84.049 F2400.000
G1 E2.00000 F2400.00000
G1 X84.450 Y83.647 E2.01668 F1200.000
G1 X86.179 Y82.321 E2.08073
G1 X87.162 Y81.753 E2.11409
G1 X89.176 Y80.919 E2.17814
G1 X90.272 Y80.625 E2.21149
G1 X92.433 Y80.341 E2.27554
G1 X93.568 Y80.341 E2.30889
G1 X95.728 Y80.625 E2.37294
G1 X96.825 Y80.919 E2.40629
G1 X98.838 Y81.753 E2.47033
G1 X99.905 Y82.369 E2.50655
G1 X100.095 Y82.369 E2.51212
G1 X101.162 Y81.753 E2.54834
G1 X103.176 Y80.919 E2.61239
G1 X104.272 Y80.625 E2.64574
G1 X105.840 Y80.419 E2.69223
G1 X106.433 Y80.341 E2.70979
G1 X107.568 Y80.341 E2.74314
G1 X109.728 Y80.625 E2.80719 F1200.000
G1 X110.825 Y80.919 E2.84054
G1 X112.838 Y81.753 E2.90458
G1 X113.821 Y82.321 E2.93794
G1 X115.550 Y83.647 E3.00199
G1 X116.353 Y84.450 E3.03535
G1 X117.679 Y86.179 E3.09939
G1 X118.247 Y87.162 E3.13275
G1 X119.081 Y89.175 E3.19679
G1 X119.375 Y90.272 E3.23015
G1 X119.659 Y92.432 E3.29419
G1 X119.659 Y93.568 E3.32755
G1 X119.375 Y95.728 E3.39159
G1 X119.081 Y96.825 E3.42495
G1 X118.247 Y98.838 E3.48899
G1 X117.631 Y99.905 E3.52522
G1 X117.631 Y100.095 E3.53078
G1 X118.247 Y101.162 E3.56700
G1 X119.081 Y103.175 E3.63104
G1 X119.375 Y104.272 E3.66440
G1 X119.659 Y106.432 E3.72844
G1 X119.659 Y107.568 E3.76180
G1 X119.375 Y109.728 E3.82584
G1 X119.081 Y110.825 E3.85921
G1 X118.247 Y112.838 E3.92324
G1 X117.679 Y113.821 E3.95661
G1 X116.353 Y115.550 E4.02066
G1 X115.550 Y116.353 E4.05401
G1 X113.821 Y117.679 E4.11806
G1 X112.838 Y118.247 E4.15141
G1 X110.825 Y119.081 E4.21546
G1 X109.728 Y119.375 E4.24882
G1 X107.568 Y119.659 E4.31286
G1 X106.433 Y119.659 E4.34622
G1 X104.272 Y119.375 E4.41026
G1 X103.175 Y119.081 E4.44362
G1 X101.162 Y118.247 E4.50767
G1 X100.095 Y117.631 E4.54388
G1 X99.905 Y117.631 E4.54945
G1 X98.838 Y118.247 E4.58567
G1 X96.825 Y119.081 E4.64971
G1 X95.728 Y119.375 E4.68307
G1 X93.568 Y119.659 E4.74711
G1 X92.433 Y119.659 E4.78047
G1 X90.272 Y119.375 E4.84451
G1 X89.175 Y119.081 E4.87787
G1 X87.162 Y118.247 E4.94192
G1 X86.179 Y117.679 E4.97528
G1 X84.450 Y116.353 E5.03932
G1 X83.647 Y115.550 E5.07268
G1 X82.321 Y113.821 E5.13672
G1 X81.753 Y112.838 E5.17008
G1 X80.919 Y110.825 E5.23413
G1 X80.625 Y109.728 E5.26748
G1 X80.341 Y107.567 E5.33153
G1 X80.341 Y106.432 E5.36489
G1 X80.625 Y104.272 E5.42893
G1 X80.919 Y103.175 E5.46229
G1 X81.753 Y101.162 E5.52633
G1 X82.369 Y100.095 E5.56255
G1 X82.369 Y99.905 E5.56811
G1 X81.753 Y98.838 E5.60433
G1 X80.919 Y96.825 E5.66838
G1 X80.625 Y95.728 E5.70173
G1 X80.341 Y93.567 E5.76578
G1 X80.341 Y92.432 E5.79914
G1 X80.625 Y90.272 E5.86318
G1 X80.919 Y89.175 E5.89654
G1 X81.753 Y87.162 E5.96058
G1 X82.321 Y86.179 E5.99394
G1 X83.647 Y84.450 E6.05798
G1 X84.017 Y84.081 E6.07334
G1 X84.267 Y84.331 F2400.000
G1 X84.684 Y83.914 E6.09066 F1200.000
G1 X86.376 Y82.615 E6.15335
G1 X87.319 Y82.071 E6.18534
G1 X89.289 Y81.255 E6.24803
G1 X90.341 Y80.973 E6.28002
G1 X92.456 Y80.694 E6.34271
G1 X93.544 Y80.694 E6.37470
G1 X95.659 Y80.973 E6.43739
G1 X96.711 Y81.255 E6.46938
G1 X98.681 Y82.071 E6.53205
G1 X99.624 Y82.615 E6.56405
G1 X99.880 Y82.812 E6.57353
G1 X100.120 Y82.812 E6.58058
G1 X100.376 Y82.615 E6.59006
G1 X101.319 Y82.071 E6.62206
G1 X103.289 Y81.255 E6.68474
G1 X104.341 Y80.973 E6.71673
G1 X106.456 Y80.694 E6.77942
G1 X107.544 Y80.694 E6.81141 F1200.000
G1 X109.090 Y80.898 E6.85722
G1 X109.659 Y80.973 E6.87410
G1 X110.711 Y81.255 E6.90609
G1 X112.681 Y82.071 E6.96877
G1 X113.624 Y82.615 E7.00077
G1 X115.316 Y83.914 E7.06345
G1 X116.086 Y84.684 E7.09545
G1 X117.385 Y86.376 E7.15813
G1 X117.929 Y87.319 E7.19013
G1 X118.745 Y89.289 E7.25281
G1 X119.027 Y90.341 E7.28481
G1 X119.306 Y92.456 E7.34749
G1 X119.306 Y93.544 E7.37948
G1 X119.027 Y95.659 E7.44216
G1 X118.745 Y96.711 E7.47416
G1 X117.929 Y98.681 E7.53684
G1 X117.385 Y99.624 E7.56884
G1 X117.188 Y99.880 E7.57832
G1 X117.188 Y100.120 E7.58537
G1 X117.385 Y100.376 E7.59484
G1 X117.929 Y101.319 E7.62684
G1 X118.745 Y103.289 E7.68952
G1 X119.027 Y104.341 E7.72152
G1 X119.306 Y106.456 E7.78420
G1 X119.306 Y107.544 E7.81620
G1 X119.027 Y109.659 E7.87888
G1 X118.745 Y110.711 E7.91088
G1 X117.929 Y112.681 E7.97355
G1 X117.385 Y113.624 E8.00556
G1 X116.086 Y115.316 E8.06824
G1 X115.316 Y116.086 E8.10024
G1 X113.624 Y117.385 E8.16292
G1 X112.681 Y117.929 E8.19492
G1 X110.711 Y118.745 E8.25760
G1 X109.659 Y119.027 E8.28960
G1 X107.545 Y119.306 E8.35227
G1 X106.456 Y119.306 E8.38427
G1 X104.341 Y119.027 E8.44695
G1 X103.289 Y118.745 E8.47895
G1 X101.319 Y117.929 E8.54164
G1 X100.376 Y117.385 E8.57363
G1 X100.120 Y117.188 E8.58311
G1 X99.880 Y117.188 E8.59016
G1 X99.624 Y117.385 E8.59963
G1 X98.681 Y117.929 E8.63163
G1 X96.711 Y118.745 E8.69431
G1 X95.659 Y119.027 E8.72631
G1 X93.545 Y119.306 E8.78899
G1 X92.456 Y119.306 E8.82099
G1 X90.341 Y119.027 E8.88366
G1 X89.289 Y118.745 E8.91566
G1 X87.319 Y117.929 E8.97835
G1 X86.376 Y117.385 E9.01035
G1 X84.684 Y116.086 E9.07303
G1 X83.914 Y115.316 E9.10502
G1 X82.615 Y113.624 E9.16771
G1 X82.071 Y112.681 E9.19970
G1 X81.255 Y110.711 E9.26239
G1 X80.973 Y109.659 E9.29438
G1 X80.769 Y108.113 E9.34020
G1 X80.694 Y107.544 E9.35707
G1 X80.694 Y106.456 E9.38906
G1 X80.973 Y104.341 E9.45174
G1 X81.255 Y103.289 E9.48374
G1 X82.071 Y101.319 E9.54643
G1 X82.615 Y100.376 E9.57842
G1 X82.812 Y100.120 E9.58789
G1 X82.812 Y99.880 E9.59495
G1 X82.615 Y99.624 E9.60442
G1 X82.071 Y98.681 E9.63642
G1 X81.255 Y96.711 E9.69910
G1 X80.973 Y95.659 E9.73110
G1 X80.769 Y94.113 E9.77691
G1 X80.694 Y93.544 E9.79379
G1 X80.694 Y92.456 E9.82578
G1 X80.973 Y90.341 E9.88846
G1 X81.255 Y89.289 E9.92045
G1 X82.071 Y87.319 E9.98314
G1 X82.615 Y86.376 E10.01513
G1 X83.914 Y84.684 E10.07782
G1 X84.235 Y84.362 E10.09117
G1 X84.485 Y84.612 F2400.000
G1 X84.917 Y84.180 E10.10913 F1200.000
G1 X86.573 Y82.910 E10.17046
G1 X87.475 Y82.389 E10.20109
G1 X89.403 Y81.590 E10.26241
G1 X90.410 Y81.320 E10.29304
G1 X92.479 Y81.048 E10.35437
G1 X93.521 Y81.048 E10.38500
G1 X95.590 Y81.320 E10.44633
G1 X96.597 Y81.590 E10.47696
G1 X98.525 Y82.388 E10.53827
G1 X99.427 Y82.910 E10.56891
G1 X99.880 Y83.257 E10.58568
G1 X100.120 Y83.257 E10.59273
G1 X100.573 Y82.910 E10.60950
G1 X101.475 Y82.389 E10.64013
G1 X103.403 Y81.590 E10.70145
G1 X104.410 Y81.320 E10.73208
G1 X105.933 Y81.120 E10.77721
G1 X106.479 Y81.048 E10.79341
G1 X107.521 Y81.048 E10.82404
G1 X109.590 Y81.320 E10.88536 F1200.000
G1 X110.597 Y81.590 E10.91599
G1 X112.525 Y82.388 E10.97731
G1 X113.427 Y82.910 E11.00795
G1 X115.083 Y84.180 E11.06927
G1 X115.820 Y84.917 E11.09991
G1 X117.090 Y86.573 E11.16123
G1 X117.611 Y87.475 E11.19186
G1 X118.410 Y89.403 E11.25318
G1 X118.680 Y90.410 E11.28382
G1 X118.952 Y92.479 E11.34514
G1 X118.952 Y93.521 E11.37577
G1 X118.680 Y95.590 E11.43709
G1 X118.410 Y96.597 E11.46773
G1 X117.612 Y98.524 E11.52904
G1 X117.090 Y99.427 E11.55968
G1 X116.743 Y99.880 E11.57645
G1 X116.743 Y100.120 E11.58350
G1 X117.090 Y100.573 E11.60026
G1 X117.611 Y101.475 E11.63090
G1 X118.410 Y103.403 E11.69222
G1 X118.680 Y104.410 E11.72285
G1 X118.952 Y106.479 E11.78417
G1 X118.952 Y107.521 E11.81481
G1 X118.680 Y109.590 E11.87613
G1 X118.410 Y110.597 E11.90677
G1 X117.612 Y112.524 E11.96808
G1 X117.090 Y113.427 E11.99872
G1 X115.820 Y115.083 E12.06005
G1 X115.083 Y115.820 E12.09068
G1 X113.427 Y117.090 E12.15200
G1 X112.525 Y117.611 E12.18264
G1 X110.597 Y118.410 E12.24396
G1 X109.590 Y118.680 E12.27459
G1 X107.521 Y118.952 E12.33591
G1 X106.479 Y118.952 E12.36655
G1 X104.410 Y118.680 E12.42786
G1 X103.403 Y118.410 E12.45850
G1 X101.475 Y117.611 E12.51983
G1 X100.573 Y117.090 E12.55046
G1 X100.120 Y116.743 E12.56722
G1 X99.880 Y116.743 E12.57427
G1 X99.427 Y117.090 E12.59104
G1 X98.525 Y117.611 E12.62167
G1 X96.597 Y118.410 E12.68300
G1 X95.590 Y118.680 E12.71363
G1 X93.521 Y118.952 E12.77495
G1 X92.479 Y118.952 E12.80558
G1 X90.410 Y118.680 E12.86690
G1 X89.403 Y118.410 E12.89754
G1 X87.475 Y117.611 E12.95886
G1 X86.573 Y117.090 E12.98950
G1 X84.917 Y115.820 E13.05082
G1 X84.180 Y115.083 E13.08145
G1 X82.910 Y113.427 E13.14277
G1 X82.389 Y112.525 E13.17341
G1 X81.590 Y110.597 E13.23473
G1 X81.320 Y109.590 E13.26537
G1 X81.120 Y108.067 E13.31049
G1 X81.048 Y107.521 E13.32669
G1 X81.048 Y106.479 E13.35732
G1 X81.320 Y104.410 E13.41864
G1 X81.590 Y103.403 E13.44928
G1 X82.389 Y101.475 E13.51060
G1 X82.910 Y100.573 E13.54123
G1 X83.257 Y100.120 E13.55800
G1 X83.257 Y99.880 E13.56505
G1 X82.910 Y99.427 E13.58181
G1 X82.389 Y98.525 E13.61245
G1 X81.590 Y96.597 E13.67377
G1 X81.320 Y95.590 E13.70440
G1 X81.120 Y94.067 E13.74953
G1 X81.048 Y93.521 E13.76573
G1 X81.048 Y92.479 E13.79636
G1 X81.320 Y90.410 E13.85768
G1 X81.590 Y89.403 E13.88832
G1 X82.389 Y87.475 E13.94964
G1 X82.910 Y86.573 E13.98027
G1 X84.180 Y84.917 E14.04159
G1 X84.453 Y84.644 E14.05294
G1 X84.703 Y84.894 F2400.000
G1 X85.151 Y84.446 E14.07155 F1200.000
G1 X86.769 Y83.204 E14.13151
G1 X87.632 Y82.706 E14.16078
G1 X89.517 Y81.925 E14.22074
G1 X90.479 Y81.668 E14.25001
G1 X92.502 Y81.401 E14.30998
G1 X93.498 Y81.401 E14.33925
G1 X95.521 Y81.668 E14.39921
G1 X96.483 Y81.925 E14.42848
G1 X98.368 Y82.706 E14.48843
G1 X99.231 Y83.204 E14.51771
G1 X99.880 Y83.702 E14.54176
G1 X100.120 Y83.702 E14.54881
G1 X100.769 Y83.204 E14.57287
G1 X101.632 Y82.706 E14.60214
G1 X103.517 Y81.925 E14.66211
G1 X104.479 Y81.668 E14.69138
G1 X106.502 Y81.401 E14.75134
G1 X107.498 Y81.401 E14.78061 F1200.000
G1 X108.998 Y81.599 E14.82505
G1 X109.521 Y81.668 E14.84057
G1 X110.483 Y81.925 E14.86984
G1 X112.368 Y82.706 E14.92979
G1 X113.231 Y83.204 E14.95907
G1 X114.849 Y84.446 E15.01903
G1 X115.554 Y85.151 E15.04831
G1 X116.796 Y86.769 E15.10826
G1 X117.294 Y87.632 E15.13754
G1 X118.075 Y89.517 E15.19749
G1 X118.332 Y90.479 E15.22677
G1 X118.599 Y92.502 E15.28673
G1 X118.599 Y93.498 E15.31600
G1 X118.332 Y95.521 E15.37596
G1 X118.075 Y96.483 E15.40524
G1 X117.294 Y98.368 E15.46519
G1 X116.796 Y99.231 E15.49447
G1 X116.298 Y99.880 E15.51852
G1 X116.298 Y100.120 E15.52557
G1 X116.796 Y100.769 E15.54963
G1 X117.294 Y101.632 E15.57890
G1 X118.075 Y103.517 E15.63886
G1 X118.332 Y104.479 E15.66813
G1 X118.599 Y106.502 E15.72809
G1 X118.599 Y107.498 E15.75737
G1 X118.332 Y109.521 E15.81732
G1 X118.075 Y110.483 E15.84660
G1 X117.294 Y112.368 E15.90655
G1 X116.796 Y113.231 E15.93583
G1 X115.554 Y114.849 E15.99579
G1 X114.849 Y115.554 E16.02507
G1 X113.231 Y116.796 E16.08503
G1 X112.368 Y117.294 E16.11430
G1 X110.483 Y118.075 E16.17426
G1 X109.521 Y118.332 E16.20353
G1 X107.498 Y118.599 E16.26349
G1 X106.502 Y118.599 E16.29276
G1 X104.479 Y118.332 E16.35272
G1 X103.517 Y118.075 E16.38199
G1 X101.632 Y117.294 E16.44196
G1 X100.769 Y116.796 E16.47123
G1 X100.120 Y116.298 E16.49528
G1 X99.880 Y116.298 E16.50233
G1 X99.231 Y116.796 E16.52639
G1 X98.368 Y117.294 E16.55566
G1 X96.483 Y118.075 E16.61562
G1 X95.521 Y118.332 E16.64489
G1 X93.498 Y118.599 E16.70485
G1 X92.502 Y118.599 E16.73413
G1 X90.479 Y118.332 E16.79408
G1 X89.517 Y118.075 E16.82336
G1 X87.632 Y117.294 E16.88332
G1 X86.769 Y116.796 E16.91259
G1 X85.151 Y115.554 E16.97255
G1 X84.446 Y114.849 E17.00182
G1 X83.204 Y113.231 E17.06179
G1 X82.706 Y112.368 E17.09106
G1 X81.925 Y110.483 E17.15102
G1 X81.668 Y109.521 E17.18029
G1 X81.470 Y108.021 E17.22474
G1 X81.401 Y107.498 E17.24026
G1 X81.401 Y106.502 E17.26953
G1 X81.668 Y104.479 E17.32948
G1 X81.925 Y103.517 E17.35876
G1 X82.706 Y101.632 E17.41872
G1 X83.204 Y100.769 E17.44799
G1 X83.702 Y100.120 E17.47204
G1 X83.702 Y99.880 E17.47909
G1 X83.204 Y99.231 E17.50315
G1 X82.706 Y98.368 E17.53242
G1 X81.925 Y96.483 E17.59238
G1 X81.668 Y95.521 E17.62165
G1 X81.470 Y94.021 E17.66610
G1 X81.401 Y93.498 E17.68162
G1 X81.401 Y92.502 E17.71089
G1 X81.668 Y90.479 E17.77085
G1 X81.925 Y89.517 E17.80012
G1 X82.706 Y87.632 E17.86008
G1 X83.204 Y86.769 E17.88935
G1 X84.446 Y85.151 E17.94931
G1 X84.671 Y84.926 E17.95865
G1 X84.921 Y85.176 F2400.000
G1 X85.384 Y84.713 E17.97790 F1200.000
G1 X86.966 Y83.499 E18.03651
G1 X87.789 Y83.024 E18.06441
G1 X89.631 Y82.261 E18.12302
G1 X90.548 Y82.015 E18.15092
G1 X92.525 Y81.755 E18.20953
G1 X93.475 Y81.755 E18.23744
G1 X95.452 Y82.015 E18.29604
G1 X96.369 Y82.261 E18.32394
G1 X98.211 Y83.024 E18.38254
G1 X99.034 Y83.499 E18.41045
G1 X99.880 Y84.148 E18.44180
G1 X100.120 Y84.148 E18.44885
G1 X100.966 Y83.499 E18.48019
G1 X101.789 Y83.024 E18.50810
G1 X103.631 Y82.261 E18.56670
G1 X104.548 Y82.015 E18.59461
G1 X106.025 Y81.821 E18.63838
G1 X106.525 Y81.755 E18.65321
G1 X107.475 Y81.755 E18.68112
G1 X109.452 Y82.015 E18.73972 F1200.000
G1 X110.369 Y82.261 E18.76763
G1 X112.211 Y83.024 E18.82622
G1 X113.034 Y83.499 E18.85414
G1 X114.616 Y84.713 E18.91274
G1 X115.287 Y85.384 E18.94065
G1 X116.501 Y86.966 E18.99925
G1 X116.976 Y87.789 E19.02716
G1 X117.739 Y89.631 E19.08575
G1 X117.985 Y90.548 E19.11367
G1 X118.245 Y92.525 E19.17226
G1 X118.245 Y93.475 E19.20018
G1 X117.985 Y95.452 E19.25877
G1 X117.739 Y96.369 E19.28669
G1 X116.976 Y98.211 E19.34528
G1 X116.501 Y99.034 E19.37320
G1 X115.852 Y99.880 E19.40454
G1 X115.852 Y100.120 E19.41159
G1 X116.501 Y100.966 E19.44293
G1 X116.976 Y101.789 E19.47085
G1 X117.739 Y103.631 E19.52944
G1 X117.985 Y104.548 E19.55736
G1 X118.245 Y106.525 E19.61595
G1 X118.245 Y107.475 E19.64386
G1 X117.985 Y109.452 E19.70246
G1 X117.739 Y110.369 E19.73037
G1 X116.976 Y112.211 E19.78897
G1 X116.501 Y113.034 E19.81688
G1 X115.287 Y114.616 E19.87548
G1 X114.616 Y115.287 E19.90340
G1 X113.034 Y116.501 E19.96199
G1 X112.211 Y116.976 E19.98991
G1 X110.369 Y117.739 E20.04851
G1 X109.452 Y117.985 E20.07642
G1 X107.475 Y118.245 E20.13501
G1 X106.525 Y118.245 E20.16292
G1 X104.548 Y117.985 E20.22152
G1 X103.631 Y117.739 E20.24943
G1 X101.789 Y116.976 E20.30804
G1 X100.966 Y116.501 E20.33595
G1 X100.120 Y115.852 E20.36729
G1 X99.880 Y115.852 E20.37434
G1 X99.034 Y116.501 E20.40568
G1 X98.211 Y116.976 E20.43359
G1 X96.369 Y117.739 E20.49219
G1 X95.452 Y117.985 E20.52010
G1 X93.475 Y118.245 E20.57870
G1 X92.525 Y118.245 E20.60661
G1 X90.548 Y117.985 E20.66520
G1 X89.631 Y117.739 E20.69312
G1 X87.789 Y116.976 E20.75172
G1 X86.966 Y116.501 E20.77963
G1 X85.384 Y115.287 E20.83823
G1 X84.713 Y114.616 E20.86614
G1 X83.499 Y113.034 E20.92474
G1 X83.024 Y112.211 E20.95265
G1 X82.261 Y110.369 E21.01125
G1 X82.015 Y109.452 E21.03916
G1 X81.821 Y107.975 E21.08293
G1 X81.755 Y107.475 E21.09776
G1 X81.755 Y106.525 E21.12567
G1 X82.015 Y104.548 E21.18427
G1 X82.261 Y103.631 E21.21218
G1 X83.024 Y101.789 E21.27078
G1 X83.499 Y100.966 E21.29869
G1 X84.148 Y100.120 E21.33003
G1 X84.148 Y99.880 E21.33708
G1 X83.499 Y99.034 E21.36843
G1 X83.024 Y98.211 E21.39634
G1 X82.261 Y96.369 E21.45494
G1 X82.015 Y95.452 E21.48285
G1 X81.821 Y93.975 E21.52662
G1 X81.755 Y93.475 E21.54145
G1 X81.755 Y92.525 E21.56936
G1 X82.015 Y90.548 E21.62796
G1 X82.261 Y89.631 E21.65587
G1 X83.024 Y87.789 E21.71447
G1 X83.499 Y86.966 E21.74238
G1 X84.713 Y85.384 E21.80098
G1 X84.889 Y85.208 E21.80831
G1 X85.139 Y85.457 F2400.000
G1 X85.618 Y84.979 E21.82821 F1200.000
G1 X87.163 Y83.793 E21.88545
G1 X87.945 Y83.341 E21.91199
G1 X89.745 Y82.596 E21.96923
G1 X90.617 Y82.362 E21.99578
G1 X92.548 Y82.108 E22.05302
G1 X93.452 Y82.108 E22.07957
G1 X95.383 Y82.362 E22.13681
G1 X96.255 Y82.596 E22.16335
G1 X98.055 Y83.341 E22.22058
G1 X98.837 Y83.793 E22.24714
G1 X99.880 Y84.593 E22.28577
G1 X100.120 Y84.593 E22.29282
G1 X101.163 Y83.793 E22.33146
G1 X101.945 Y83.341 E22.35800
G1 X103.745 Y82.596 E22.41524
G1 X104.617 Y82.362 E22.44179
G1 X106.548 Y82.108 E22.49903
G1 X107.452 Y82.108 E22.52558 F1200.000
G1 X108.905 Y82.300 E22.56866
