; generated by Slic3r 1.2.9 on 2020-12-02 at 16:52:24

; external perimeters extrusion width = 0.30mm
; perimeters extrusion width = 0.51mm
; infill extrusion width = 0.73mm
; solid infill extrusion width = 0.51mm
; top infill extrusion width = 0.51mm

M190 S60 ; set bed temperature
M104 S185 ; set temperature
G28 ; home all axes
G1 Z5 F5000 ; lift nozzle

M109 S185 ; wait for temperature to be reached
G21 ; set units to millimeters
G90 ; use absolute coordinates
M82 ; use absolute distances for extrusion
G92 E0
G1 Z0.200 F2400.000
G1 E-2.00000 F2400.00000
G92 E0
G1 X77.790 Y90.363 F2400.000
G1 E2.00000 F2400.00000
G1 X78.663 Y89.684 E2.03249 F1200.000
G1 X79.278 Y89.273 E2.05425
G1 X79.752 Y88.990 E2.07047
G1 X80.736 Y88.487 E2.10293
G1 X81.243 Y88.268 E2.11917
G1 X82.102 Y87.956 E2.14604
G1 X83.169 Y87.661 E2.17856
G1 X83.895 Y87.517 E2.20031
G1 X84.441 Y87.437 E2.21652
G1 X85.352 Y87.357 E2.24341
G1 X85.907 Y87.341 E2.25971
G1 X86.458 Y87.349 E2.27592
G1 X87.165 Y87.391 E2.29672
G1 X87.391 Y87.165 E2.30613
G1 X87.349 Y86.458 E2.32693
G1 X87.349 Y85.542 E2.35386
G1 X87.397 Y84.803 E2.37563
G1 X87.517 Y83.895 E2.40253
G1 X87.748 Y82.815 E2.43499
G1 X88.072 Y81.760 E2.46743
G1 X88.487 Y80.735 E2.49991
G1 X88.815 Y80.071 E2.52168
G1 X89.085 Y79.588 E2.53794
G1 X89.374 Y79.119 E2.55415
G1 X89.899 Y78.369 E2.58105
G1 X90.242 Y77.935 E2.59730
G1 X90.730 Y77.378 E2.61907
G1 X91.115 Y76.982 E2.63530
G1 X91.790 Y76.363 E2.66221
G1 X92.663 Y75.684 E2.69470
G1 X93.278 Y75.273 E2.71645
G1 X93.752 Y74.990 E2.73268
G1 X94.564 Y74.567 E2.75958
G1 X95.069 Y74.340 E2.77585
G1 X95.759 Y74.072 E2.79760
G1 X96.283 Y73.899 E2.81383
G1 X96.815 Y73.748 E2.83007
G1 X97.709 Y73.550 E2.85697
G1 X98.441 Y73.437 E2.87874
G1 X98.990 Y73.381 E2.89497
G1 X100.095 Y73.341 E2.92745
G1 X101.198 Y73.397 E2.95991 F1200.000
G1 X101.746 Y73.462 E2.97614
G1 X102.647 Y73.620 E3.00301
G1 X103.717 Y73.899 E3.03551
G1 X104.757 Y74.268 E3.06794
G1 X105.761 Y74.728 E3.10039
G1 X106.723 Y75.273 E3.13288
G1 X107.338 Y75.684 E3.15464
G1 X107.781 Y76.014 E3.17087
G1 X108.622 Y76.731 E3.20333
G1 X109.269 Y77.377 E3.23021
G1 X109.637 Y77.791 E3.24649
G1 X110.100 Y78.368 E3.26824
G1 X110.571 Y79.036 E3.29224
G1 X110.916 Y79.589 E3.31138
G1 X111.272 Y80.238 E3.33316
G1 X111.513 Y80.736 E3.34940
G1 X111.863 Y81.582 E3.37631
G1 X112.102 Y82.283 E3.39809
G1 X112.252 Y82.815 E3.41433
G1 X112.431 Y83.611 E3.43831
G1 X112.538 Y84.255 E3.45748
G1 X112.619 Y84.990 E3.47923
G1 X112.651 Y85.542 E3.49546
G1 X112.651 Y86.457 E3.52235
G1 X112.609 Y87.165 E3.54319
G1 X112.835 Y87.391 E3.55260
G1 X113.542 Y87.349 E3.57340
G1 X114.095 Y87.341 E3.58965
G1 X115.198 Y87.397 E3.62211
G1 X115.746 Y87.462 E3.63834
G1 X116.647 Y87.620 E3.66521
G1 X117.717 Y87.899 E3.69771
G1 X118.242 Y88.072 E3.71395
G1 X118.932 Y88.341 E3.73571
G1 X119.929 Y88.815 E3.76816
G1 X120.882 Y89.374 E3.80063
G1 X121.781 Y90.014 E3.83307
G1 X122.210 Y90.363 E3.84931
G1 X122.884 Y90.982 E3.87621
G1 X123.637 Y91.791 E3.90870
G1 X124.100 Y92.368 E3.93045
G1 X124.424 Y92.817 E3.94669
G1 X125.010 Y93.752 E3.97914
G1 X125.513 Y94.736 E4.01159
G1 X125.732 Y95.243 E4.02783
G1 X126.045 Y96.103 E4.05473
G1 X126.339 Y97.168 E4.08719
G1 X126.538 Y98.255 E4.11966
G1 X126.619 Y98.990 E4.14141
G1 X126.651 Y99.542 E4.15765
G1 X126.643 Y100.646 E4.19010
G1 X126.603 Y101.198 E4.20636
G1 X126.483 Y102.105 E4.23323
G1 X126.252 Y103.185 E4.26571
G1 X126.045 Y103.896 E4.28748
G1 X125.863 Y104.418 E4.30371
G1 X125.433 Y105.436 E4.33618
G1 X124.916 Y106.411 E4.36862
G1 X124.315 Y107.338 E4.40109
G1 X123.758 Y108.065 E4.42799
G1 X123.270 Y108.622 E4.44977
G1 X122.694 Y109.201 E4.47376
G1 X122.209 Y109.637 E4.49294
G1 X121.631 Y110.101 E4.51470
G1 X120.881 Y110.626 E4.54161
G1 X120.248 Y111.010 E4.56339
G1 X119.436 Y111.433 E4.59027
G1 X118.932 Y111.659 E4.60652
G1 X118.241 Y111.928 E4.62830
G1 X117.369 Y112.203 E4.65517
G1 X116.648 Y112.379 E4.67699
G1 X115.746 Y112.538 E4.70389
G1 X114.648 Y112.643 E4.73633
G1 X113.906 Y112.659 E4.75814
G1 X112.835 Y112.609 E4.78963
G1 X112.609 Y112.835 E4.79904
G1 X112.651 Y113.542 E4.81984
G1 X112.651 Y114.457 E4.84673
G1 X112.603 Y115.198 E4.86855
G1 X112.483 Y116.105 E4.89543
G1 X112.338 Y116.832 E4.91723
G1 X112.102 Y117.715 E4.94410
G1 X111.863 Y118.418 E4.96591
G1 X111.513 Y119.264 E4.99282
G1 X111.185 Y119.929 E5.01462
G1 X110.727 Y120.723 E5.04154
G1 X110.315 Y121.338 E5.06330
G1 X109.758 Y122.065 E5.09020
G1 X109.270 Y122.622 E5.11198
G1 X108.694 Y123.201 E5.13597
G1 X108.209 Y123.637 E5.15515
G1 X107.631 Y124.101 E5.17691
G1 X106.881 Y124.626 E5.20383
G1 X106.248 Y125.010 E5.22560
G1 X105.436 Y125.433 E5.25248
G1 X104.757 Y125.732 E5.27429
G1 X103.898 Y126.044 E5.30117
G1 X103.186 Y126.252 E5.32296
G1 X102.292 Y126.450 E5.34985
G1 X101.559 Y126.563 E5.37167
G1 X100.458 Y126.651 E5.40411
G1 X99.354 Y126.643 E5.43657
G1 X98.254 Y126.538 E5.46904
G1 X97.168 Y126.338 E5.50149
G1 X96.104 Y126.045 E5.53393
G1 X95.243 Y125.732 E5.56085
G1 X94.735 Y125.513 E5.57710
G1 X94.071 Y125.185 E5.59886
G1 X93.103 Y124.616 E5.63187
G1 X92.897 Y124.616 E5.63792
G1 X92.248 Y125.010 E5.66025
G1 X91.265 Y125.513 E5.69269
G1 X90.419 Y125.863 E5.71959
G1 X89.369 Y126.203 E5.75202
G1 X88.648 Y126.379 E5.77384
G1 X87.559 Y126.563 E5.80630
G1 X86.458 Y126.651 E5.83875
G1 X85.354 Y126.643 E5.87121
G1 X84.802 Y126.603 E5.88746
G1 X83.895 Y126.483 E5.91434
G1 X82.815 Y126.252 E5.94681
G1 X81.758 Y125.928 E5.97929
G1 X81.068 Y125.659 E6.00105
G1 X80.564 Y125.433 E6.01728
G1 X79.589 Y124.916 E6.04973
G1 X79.119 Y124.626 E6.06596
G1 X78.370 Y124.101 E6.09283
G1 X77.517 Y123.397 E6.12533
G1 X76.982 Y122.885 E6.14711
G1 X76.603 Y122.483 E6.16334
G1 X75.900 Y121.632 E6.19579
G1 X75.374 Y120.881 E6.22270
G1 X74.990 Y120.248 E6.24449
G1 X74.567 Y119.435 E6.27143
G1 X74.173 Y118.511 E6.30094
G1 X73.898 Y117.716 E6.32564
G1 X73.661 Y116.831 E6.35257
G1 X73.462 Y115.748 E6.38495
G1 X73.357 Y114.648 E6.41742
G1 X73.349 Y113.542 E6.44992
G1 X73.437 Y112.440 E6.48240
G1 X73.620 Y111.353 E6.51480
G1 X73.898 Y110.283 E6.54727
G1 X74.269 Y109.242 E6.57975
G1 X74.487 Y108.735 E6.59597
G1 X74.815 Y108.071 E6.61774
G1 X75.384 Y107.103 E6.65074
G1 X75.384 Y106.897 E6.65680
G1 X74.990 Y106.248 E6.67913
G1 X74.487 Y105.264 E6.71159
G1 X74.136 Y104.418 E6.73851
G1 X73.797 Y103.368 E6.77093
G1 X73.621 Y102.647 E6.79273
G1 X73.437 Y101.559 E6.82516
G1 X73.349 Y100.458 E6.85762
G1 X73.349 Y99.542 E6.88455
G1 X73.397 Y98.803 E6.90632
G1 X73.462 Y98.254 E6.92257
G1 X73.620 Y97.353 E6.94945
G1 X73.748 Y96.815 E6.96569
G1 X73.898 Y96.283 E6.98193
G1 X74.137 Y95.582 E7.00370
G1 X74.567 Y94.564 E7.03617
G1 X74.815 Y94.071 E7.05239
G1 X75.221 Y93.363 E7.07638
G1 X75.576 Y92.816 E7.09554
G1 X75.899 Y92.369 E7.11176
G1 X76.242 Y91.935 E7.12801
G1 X76.730 Y91.378 E7.14977
G1 X77.115 Y90.982 E7.16601
G1 X77.757 Y90.393 E7.19159
G1 X77.990 Y90.659 F2400.000
G1 X78.437 Y90.293 E7.20857 F1200.000
G1 X78.868 Y89.971 E7.22439
G1 X79.465 Y89.573 E7.24547
G1 X79.926 Y89.298 E7.26124
G1 X80.717 Y88.886 E7.28746
G1 X81.208 Y88.665 E7.30327
G1 X81.876 Y88.406 E7.32435
G1 X82.386 Y88.237 E7.34012
G1 X82.903 Y88.090 E7.35591
G1 X83.774 Y87.897 E7.38213
G1 X84.483 Y87.788 E7.40322
G1 X85.017 Y87.733 E7.41900
G1 X85.553 Y87.702 E7.43478
G1 X86.447 Y87.702 E7.46103
G1 X87.552 Y87.792 E7.49363
G1 X87.792 Y87.552 E7.50359
G1 X87.702 Y86.447 E7.53618
G1 X87.694 Y85.909 E7.55198
G1 X87.733 Y85.018 E7.57819
G1 X87.788 Y84.482 E7.59402
G1 X87.897 Y83.774 E7.61508
G1 X88.006 Y83.248 E7.63085
G1 X88.237 Y82.386 E7.65709
G1 X88.467 Y81.706 E7.67818
G1 X88.666 Y81.207 E7.69397
G1 X88.886 Y80.717 E7.70975
G1 X89.253 Y80.008 E7.73323
G1 X89.573 Y79.464 E7.75176
G1 X89.868 Y79.016 E7.76753
G1 X90.292 Y78.437 E7.78863
G1 X90.632 Y78.021 E7.80441
G1 X91.234 Y77.363 E7.83063
G1 X91.620 Y76.988 E7.84642
G1 X92.159 Y76.515 E7.86752
G1 X92.581 Y76.182 E7.88330
G1 X93.016 Y75.868 E7.89909
G1 X93.769 Y75.388 E7.92530
G1 X94.398 Y75.043 E7.94640
G1 X94.881 Y74.809 E7.96218
G1 X95.375 Y74.596 E7.97797
G1 X96.212 Y74.291 E8.00417
G1 X97.249 Y74.005 E8.03578
G1 X97.952 Y73.866 E8.05684
G1 X98.483 Y73.788 E8.07261
G1 X99.372 Y73.710 E8.09882
G1 X99.910 Y73.694 E8.11466
G1 X100.983 Y73.733 E8.14621 F1200.000
G1 X101.518 Y73.788 E8.16199
G1 X102.227 Y73.897 E8.18307
G1 X102.752 Y74.006 E8.19883
G1 X103.523 Y74.210 E8.22227
G1 X104.124 Y74.406 E8.24087
G1 X104.625 Y74.596 E8.25662
G1 X105.601 Y75.043 E8.28816
G1 X106.536 Y75.573 E8.31974
G1 X107.132 Y75.972 E8.34082
G1 X107.563 Y76.292 E8.35660
G1 X108.380 Y76.989 E8.38815
G1 X109.011 Y77.619 E8.41435
G1 X109.369 Y78.021 E8.43018
G1 X109.818 Y78.581 E8.45125
G1 X110.330 Y79.312 E8.47749
G1 X110.702 Y79.926 E8.49859
G1 X111.114 Y80.717 E8.52481
G1 X111.335 Y81.208 E8.54062
G1 X111.594 Y81.876 E8.56170
G1 X111.836 Y82.636 E8.58513
G1 X111.994 Y83.248 E8.60370
G1 X112.134 Y83.953 E8.62481
G1 X112.251 Y84.836 E8.65099
G1 X112.298 Y85.553 E8.67212
G1 X112.306 Y86.091 E8.68791
G1 X112.267 Y86.983 E8.71417
G1 X112.208 Y87.552 E8.73097
G1 X112.448 Y87.792 E8.74094
G1 X113.553 Y87.702 E8.77353
G1 X114.351 Y87.700 E8.79696
G1 X114.983 Y87.733 E8.81558
G1 X115.518 Y87.788 E8.83136
G1 X116.227 Y87.897 E8.85244
G1 X117.097 Y88.090 E8.87865
G1 X117.614 Y88.237 E8.89445
G1 X118.124 Y88.406 E8.91024
G1 X118.793 Y88.666 E8.93131
G1 X119.762 Y89.127 E8.96286
G1 X120.688 Y89.670 E8.99442
G1 X121.563 Y90.292 E9.02596
G1 X121.979 Y90.632 E9.04174
G1 X122.637 Y91.234 E9.06796
G1 X123.369 Y92.021 E9.09954
G1 X123.818 Y92.581 E9.12061
G1 X124.132 Y93.016 E9.13640
G1 X124.702 Y93.926 E9.16794
G1 X125.191 Y94.882 E9.19950
G1 X125.404 Y95.375 E9.21528
G1 X125.709 Y96.213 E9.24150
G1 X125.994 Y97.248 E9.27305
G1 X126.189 Y98.305 E9.30462
G1 X126.267 Y99.017 E9.32569
G1 X126.298 Y99.553 E9.34147
G1 X126.290 Y100.627 E9.37302
G1 X126.251 Y101.163 E9.38882
G1 X126.134 Y102.047 E9.41502
G1 X125.910 Y103.097 E9.44658
G1 X125.709 Y103.786 E9.46768
G1 X125.533 Y104.294 E9.48346
G1 X125.114 Y105.283 E9.51502
G1 X124.612 Y106.231 E9.54655
G1 X124.028 Y107.132 E9.57812
G1 X123.485 Y107.840 E9.60434
G1 X123.012 Y108.380 E9.62544
G1 X122.380 Y109.012 E9.65168
G1 X121.840 Y109.485 E9.67278
G1 X121.132 Y110.028 E9.69901
G1 X120.535 Y110.427 E9.72011
G1 X119.763 Y110.873 E9.74632
G1 X119.119 Y111.191 E9.76743
G1 X118.294 Y111.532 E9.79365
G1 X117.614 Y111.763 E9.81476
G1 X117.098 Y111.910 E9.83053
G1 X116.227 Y112.103 E9.85674
G1 X115.516 Y112.212 E9.87787
G1 X114.447 Y112.298 E9.90942
G1 X113.373 Y112.290 E9.94096
G1 X112.448 Y112.208 E9.96826
G1 X112.208 Y112.448 E9.97822
G1 X112.267 Y113.017 E9.99504
G1 X112.306 Y113.909 E10.02127
G1 X112.290 Y114.627 E10.04237
G1 X112.212 Y115.516 E10.06859
G1 X112.103 Y116.226 E10.08971
G1 X111.910 Y117.097 E10.11594
G1 X111.709 Y117.786 E10.13703
G1 X111.404 Y118.625 E10.16327
G1 X111.114 Y119.283 E10.18437
G1 X110.703 Y120.073 E10.21057
G1 X110.330 Y120.688 E10.23171
G1 X109.817 Y121.420 E10.25795
G1 X109.368 Y121.979 E10.27903
G1 X108.766 Y122.637 E10.30526
G1 X108.247 Y123.134 E10.32637
G1 X107.563 Y123.707 E10.35258
G1 X106.984 Y124.132 E10.37370
G1 X106.231 Y124.612 E10.39993
G1 X105.283 Y125.114 E10.43145
G1 X104.626 Y125.404 E10.45257
G1 X103.788 Y125.709 E10.47878
G1 X103.098 Y125.910 E10.49989
G1 X102.227 Y126.103 E10.52610
G1 X101.516 Y126.212 E10.54723
G1 X100.447 Y126.298 E10.57877
G1 X99.373 Y126.290 E10.61032
G1 X98.304 Y126.188 E10.64188
G1 X97.248 Y125.994 E10.67344
G1 X96.214 Y125.709 E10.70497
G1 X95.375 Y125.404 E10.73121
G1 X94.881 Y125.191 E10.74700
G1 X94.238 Y124.873 E10.76808
G1 X93.769 Y124.612 E10.78387
G1 X93.107 Y124.193 E10.80687
G1 X92.893 Y124.193 E10.81318
G1 X92.074 Y124.702 E10.84151
G1 X91.119 Y125.191 E10.87304
G1 X90.294 Y125.532 E10.89926
G1 X89.274 Y125.862 E10.93078
G1 X88.575 Y126.033 E10.95192
G1 X87.516 Y126.212 E10.98348
G1 X86.447 Y126.298 E11.01502
G1 X85.373 Y126.290 E11.04657
G1 X84.837 Y126.251 E11.06237
G1 X83.953 Y126.134 E11.08857
G1 X82.903 Y125.910 E11.12013
G1 X81.876 Y125.594 E11.15171
G1 X81.207 Y125.334 E11.17279
G1 X80.717 Y125.114 E11.18857
G1 X79.769 Y124.612 E11.22011
G1 X79.312 Y124.330 E11.23589
G1 X78.582 Y123.819 E11.26208
G1 X77.753 Y123.134 E11.29368
G1 X77.235 Y122.637 E11.31477
G1 X76.866 Y122.247 E11.33055
G1 X76.182 Y121.419 E11.36209
G1 X75.670 Y120.688 E11.38833
G1 X75.298 Y120.074 E11.40944
G1 X74.885 Y119.282 E11.43569
G1 X74.502 Y118.383 E11.46441
G1 X74.237 Y117.614 E11.48831
G1 X74.005 Y116.751 E11.51457
G1 X73.812 Y115.698 E11.54604
G1 X73.710 Y114.628 E11.57761
G1 X73.702 Y113.553 E11.60919
G1 X73.788 Y112.482 E11.64078
G1 X73.897 Y111.774 E11.66183
G1 X74.006 Y111.248 E11.67761
G1 X74.291 Y110.213 E11.70917
G1 X74.597 Y109.374 E11.73541
G1 X74.809 Y108.881 E11.75118
G1 X75.127 Y108.238 E11.77227
G1 X75.389 Y107.768 E11.78807
G1 X75.807 Y107.107 E11.81106
G1 X75.807 Y106.893 E11.81736
G1 X75.298 Y106.074 E11.84569
G1 X74.809 Y105.118 E11.87725
G1 X74.467 Y104.293 E11.90349
G1 X74.137 Y103.273 E11.93500
G1 X73.966 Y102.575 E11.95613
G1 X73.788 Y101.517 E11.98765
G1 X73.702 Y100.447 E12.01921
G1 X73.702 Y99.553 E12.04545
G1 X73.749 Y98.837 E12.06655
G1 X73.812 Y98.304 E12.08234
G1 X73.966 Y97.426 E12.10854
G1 X74.090 Y96.903 E12.12433
G1 X74.237 Y96.386 E12.14011
G1 X74.467 Y95.706 E12.16120
G1 X74.886 Y94.717 E12.19277
G1 X75.127 Y94.238 E12.20854
G1 X75.523 Y93.546 E12.23196
G1 X75.868 Y93.016 E12.25055
G1 X76.182 Y92.581 E12.26631
G1 X76.515 Y92.159 E12.28211
G1 X76.988 Y91.620 E12.30320
G1 X77.363 Y91.235 E12.31898
G1 X77.956 Y90.689 E12.34267
G1 X78.189 Y90.954 F2400.000
G1 X78.655 Y90.571 E12.36041 F1200.000
G1 X79.216 Y90.159 E12.38085
G1 X79.651 Y89.873 E12.39617
G1 X80.403 Y89.439 E12.42169
G1 X80.870 Y89.204 E12.43704
G1 X81.507 Y88.924 E12.45747
G1 X82.322 Y88.627 E12.48299
G1 X82.823 Y88.477 E12.49835
G1 X83.330 Y88.350 E12.51370
G1 X84.010 Y88.214 E12.53408
G1 X84.871 Y88.101 E12.55960
G1 X85.391 Y88.063 E12.57493
G1 X85.914 Y88.048 E12.59031
G1 X86.608 Y88.063 E12.61071
G1 X87.128 Y88.101 E12.62604
G1 X87.956 Y88.209 E12.65056
G1 X88.209 Y87.956 E12.66109
G1 X88.101 Y87.128 E12.68562
G1 X88.055 Y86.435 E12.70603
G1 X88.048 Y85.913 E12.72138
G1 X88.086 Y85.045 E12.74691
G1 X88.139 Y84.525 E12.76228
G1 X88.244 Y83.839 E12.78266
G1 X88.350 Y83.329 E12.79798
G1 X88.575 Y82.489 E12.82354
G1 X88.798 Y81.831 E12.84395
G1 X88.991 Y81.346 E12.85929
G1 X89.204 Y80.870 E12.87462
G1 X89.563 Y80.178 E12.89753
G1 X89.873 Y79.651 E12.91549
G1 X90.160 Y79.216 E12.93081
G1 X90.570 Y78.655 E12.95123
G1 X90.900 Y78.251 E12.96656
G1 X91.487 Y77.610 E12.99210
G1 X91.861 Y77.246 E13.00744
G1 X92.384 Y76.788 E13.02785
G1 X92.793 Y76.465 E13.04318
G1 X93.216 Y76.159 E13.05851
G1 X93.949 Y75.693 E13.08405
G1 X94.558 Y75.358 E13.10447
G1 X95.027 Y75.131 E13.11980
G1 X95.507 Y74.924 E13.13513
G1 X96.322 Y74.627 E13.16065
G1 X96.823 Y74.477 E13.17601
G1 X97.498 Y74.312 E13.19643
G1 X98.352 Y74.162 E13.22192
G1 X98.871 Y74.101 E13.23726
G1 X99.565 Y74.055 E13.25771
G1 X100.087 Y74.048 E13.27305
G1 X101.128 Y74.101 E13.30369 F1200.000
G1 X101.646 Y74.161 E13.31902
G1 X102.501 Y74.312 E13.34454
G1 X103.512 Y74.575 E13.37522
G1 X104.494 Y74.924 E13.40584
G1 X105.442 Y75.358 E13.43648
G1 X106.349 Y75.873 E13.46715
G1 X106.926 Y76.259 E13.48755
G1 X107.345 Y76.570 E13.50288
G1 X108.139 Y77.247 E13.53353
G1 X108.753 Y77.861 E13.55905
G1 X109.101 Y78.251 E13.57442
G1 X109.535 Y78.793 E13.59481
G1 X110.034 Y79.505 E13.62037
G1 X110.394 Y80.099 E13.64079
G1 X110.796 Y80.870 E13.66633
G1 X111.009 Y81.347 E13.68169
G1 X111.261 Y81.994 E13.70208
G1 X111.497 Y82.735 E13.72495
G1 X111.650 Y83.328 E13.74296
G1 X111.786 Y84.010 E13.76339
G1 X111.899 Y84.871 E13.78889
G1 X111.945 Y85.565 E13.80934
G1 X111.945 Y86.434 E13.83487
G1 X111.899 Y87.129 E13.85533
G1 X111.791 Y87.956 E13.87985
G1 X112.044 Y88.209 E13.89038
G1 X112.871 Y88.101 E13.91487
G1 X113.391 Y88.063 E13.93021
G1 X113.914 Y88.048 E13.94559
G1 X114.608 Y88.063 E13.96598
G1 X115.646 Y88.161 E13.99664
G1 X116.501 Y88.312 E14.02215
G1 X117.010 Y88.433 E14.03750
G1 X118.007 Y88.739 E14.06817
G1 X118.654 Y88.991 E14.08857
