; generated by Slic3r 1.2.9 on 2019-12-14 at 14:35:01

; external perimeters extrusion width = 0.40mm
; perimeters extrusion width = 0.67mm
; infill extrusion width = 0.67mm
; solid infill extrusion width = 0.67mm
; top infill extrusion width = 0.67mm

M107
M190 S60 ; set bed temperature
M104 S200 ; set temperature
G28 ; home all axes
G1 Z5 F5000 ; lift nozzle

M109 S200 ; wait for temperature to be reached
G21 ; set units to millimeters
G90 ; use absolute coordinates
M82 ; use absolute distances for extrusion
G92 E0
G1 Z0.300 F2700.000
G1 E-2.00000 F2400.00000
G92 E0
G1 X37.770 Y37.770 F2700.000
G1 E2.00000 F2400.00000
G1 X38.458 Y37.142 E2.01797 F2700.000
G1 X39.230 Y36.559 E2.03663
G1 X39.671 Y36.274 E2.04676
G1 X40.208 Y35.968 E2.05867
G1 X41.082 Y35.555 E2.07734
G1 X42.002 Y35.225 E2.09619
G1 X42.859 Y35.002 E2.11326
G1 X43.456 Y34.892 E2.12498
G1 X43.966 Y34.826 E2.13489
G1 X45.000 Y34.763 E2.15488
G1 X135.000 Y34.763 E3.89099
G1 X136.034 Y34.826 E3.91098
G1 X136.888 Y34.951 E3.92763 F2700.000
G1 X137.751 Y35.152 E3.94472
G1 X138.582 Y35.423 E3.96158
G1 X139.470 Y35.804 E3.98022
G1 X140.250 Y36.226 E3.99732
G1 X141.056 Y36.761 E4.01598
G1 X141.746 Y37.317 E4.03307
G1 X142.262 Y37.803 E4.04676
G1 X142.858 Y38.457 E4.06382
G1 X143.388 Y39.154 E4.08071
G1 X143.773 Y39.750 E4.09440
G1 X144.196 Y40.529 E4.11150
G1 X144.544 Y41.332 E4.12837
G1 X144.848 Y42.250 E4.14703
G1 X145.049 Y43.111 E4.16410
G1 X145.174 Y43.966 E4.18075
G1 X145.237 Y45.000 E4.20074
G1 X145.237 Y135.000 E5.93685
G1 X145.174 Y136.034 E5.95684
G1 X145.108 Y136.545 E5.96677
G1 X144.998 Y137.141 E5.97846
G1 X144.775 Y137.997 E5.99553
G1 X144.449 Y138.907 E6.01419
G1 X144.032 Y139.792 E6.03305
G1 X143.584 Y140.557 E6.05015
G1 X143.021 Y141.341 E6.06878
G1 X142.684 Y141.746 E6.07894
G1 X142.262 Y142.197 E6.09084
G1 X141.545 Y142.856 E6.10964
G1 X140.770 Y143.441 E6.12836
G1 X140.250 Y143.773 E6.14026
G1 X139.792 Y144.032 E6.15042
G1 X138.918 Y144.445 E6.16907
G1 X138.085 Y144.748 E6.18615
G1 X137.141 Y144.998 E6.20501
G1 X136.545 Y145.108 E6.21670
G1 X136.034 Y145.174 E6.22662
G1 X135.000 Y145.237 E6.24661
G1 X45.000 Y145.237 E7.98272
G1 X43.966 Y145.174 E8.00271
G1 X43.455 Y145.108 E8.01265
G1 X42.849 Y144.996 E8.02454
G1 X41.914 Y144.748 E8.04319
G1 X41.332 Y144.544 E8.05510
G1 X40.845 Y144.342 E8.06526
G1 X39.977 Y143.906 E8.08400
G1 X39.455 Y143.591 E8.09577
G1 X38.945 Y143.239 E8.10772
G1 X38.185 Y142.622 E8.12659
G1 X37.803 Y142.262 E8.13672
G1 X37.378 Y141.815 E8.14862
G1 X36.768 Y141.065 E8.16728
G1 X36.274 Y140.329 E8.18437
G1 X35.809 Y139.480 E8.20304
G1 X35.456 Y138.669 E8.22011
G1 X35.152 Y137.751 E8.23876
G1 X34.951 Y136.888 E8.25584
G1 X34.826 Y136.034 E8.27249
G1 X34.763 Y135.000 E8.29248
G1 X34.763 Y45.000 E10.02859
G1 X34.826 Y43.966 E10.04859
G1 X34.892 Y43.456 E10.05849
G1 X35.002 Y42.859 E10.07021
G1 X35.225 Y42.002 E10.08729
G1 X35.551 Y41.093 E10.10592
G1 X35.925 Y40.289 E10.12302
G1 X36.416 Y39.444 E10.14188
G1 X36.980 Y38.658 E10.16053
G1 X37.317 Y38.254 E10.17068
G1 X37.728 Y37.813 E10.18232
G1 X38.029 Y38.104 F2700.000
G1 X38.718 Y37.470 E10.20038 F2700.000
G1 X39.468 Y36.904 E10.21851
G1 X39.888 Y36.632 E10.22816
G1 X40.402 Y36.339 E10.23958
G1 X41.243 Y35.942 E10.25751
G1 X42.127 Y35.625 E10.27563
G1 X42.947 Y35.411 E10.29198
G1 X43.519 Y35.306 E10.30321
G1 X44.016 Y35.242 E10.31288
G1 X45.000 Y35.182 E10.33189
G1 X135.000 Y35.182 E12.06800
G1 X135.983 Y35.242 E12.08700
G1 X136.813 Y35.363 E12.10318 F2700.000
G1 X137.639 Y35.555 E12.11953
G1 X138.434 Y35.815 E12.13566
G1 X139.287 Y36.180 E12.15357
G1 X140.033 Y36.585 E12.16994
G1 X140.807 Y37.098 E12.18786
G1 X141.468 Y37.630 E12.20423
G1 X141.966 Y38.099 E12.21742
G1 X142.536 Y38.725 E12.23375
G1 X143.044 Y39.392 E12.24991
G1 X143.415 Y39.966 E12.26311
G1 X143.819 Y40.712 E12.27947
G1 X144.152 Y41.480 E12.29562
G1 X144.445 Y42.362 E12.31355
G1 X144.637 Y43.187 E12.32988
G1 X144.758 Y44.017 E12.34606
G1 X144.818 Y45.000 E12.36506
G1 X144.818 Y135.000 E14.10117
G1 X144.758 Y135.983 E14.12018
G1 X144.694 Y136.482 E14.12987
G1 X144.589 Y137.053 E14.14107
G1 X144.375 Y137.873 E14.15741
G1 X144.062 Y138.747 E14.17533
G1 X143.661 Y139.597 E14.19346
G1 X143.232 Y140.329 E14.20983
G1 X142.691 Y141.083 E14.22773
G1 X142.370 Y141.468 E14.23740
G1 X141.966 Y141.901 E14.24882
G1 X141.276 Y142.534 E14.26688
G1 X140.532 Y143.096 E14.28487
G1 X140.034 Y143.415 E14.29629
G1 X139.597 Y143.661 E14.30595
G1 X138.757 Y144.058 E14.32387
G1 X137.961 Y144.348 E14.34022
G1 X137.053 Y144.589 E14.35835
G1 X136.482 Y144.694 E14.36955
G1 X135.983 Y144.758 E14.37924
G1 X135.000 Y144.818 E14.39824
G1 X45.000 Y144.818 E16.13435
G1 X44.017 Y144.758 E16.15336
G1 X43.518 Y144.694 E16.16306
G1 X42.937 Y144.587 E16.17446
G1 X42.039 Y144.348 E16.19238
G1 X41.480 Y144.152 E16.20380
G1 X41.017 Y143.960 E16.21347
G1 X40.182 Y143.541 E16.23149
G1 X39.682 Y143.239 E16.24277
G1 X39.193 Y142.902 E16.25423
G1 X38.463 Y142.309 E16.27236
G1 X38.099 Y141.966 E16.28200
G1 X37.691 Y141.537 E16.29342
G1 X37.105 Y140.816 E16.31135
G1 X36.632 Y140.112 E16.32771
G1 X36.185 Y139.297 E16.34564
G1 X35.848 Y138.520 E16.36198
G1 X35.555 Y137.639 E16.37990
G1 X35.363 Y136.813 E16.39625
G1 X35.242 Y135.983 E16.41242
G1 X35.182 Y135.000 E16.43143
G1 X35.182 Y45.000 E18.16754
G1 X35.242 Y44.016 E18.18654
G1 X35.306 Y43.519 E18.19621
G1 X35.411 Y42.947 E18.20744
G1 X35.625 Y42.127 E18.22379
G1 X35.938 Y41.253 E18.24170
G1 X36.296 Y40.484 E18.25806
G1 X36.768 Y39.671 E18.27619
G1 X37.309 Y38.917 E18.29410
G1 X37.630 Y38.532 E18.30377
G1 X37.987 Y38.148 E18.31388
G1 X38.287 Y38.439 F2700.000
G1 X38.986 Y37.792 E18.33224 F2700.000
G1 X39.706 Y37.249 E18.34965
G1 X40.105 Y36.991 E18.35881
G1 X40.597 Y36.710 E18.36974
G1 X41.403 Y36.329 E18.38694
G1 X42.251 Y36.025 E18.40433
G1 X43.035 Y35.821 E18.41994
G1 X43.582 Y35.720 E18.43068
G1 X44.067 Y35.657 E18.44012
G1 X45.000 Y35.600 E18.45814
G1 X135.000 Y35.600 E20.19425
G1 X135.933 Y35.657 E20.21227
G1 X136.737 Y35.775 E20.22796 F2700.000
G1 X137.526 Y35.959 E20.24358
G1 X138.285 Y36.207 E20.25899
G1 X139.104 Y36.557 E20.27616
G1 X139.816 Y36.943 E20.29180
G1 X140.370 Y37.301 E20.30452
G1 X141.007 Y37.787 E20.31997
G1 X141.605 Y38.330 E20.33555
G1 X142.057 Y38.810 E20.34826
G1 X142.564 Y39.441 E20.36389
G1 X143.057 Y40.183 E20.38107
G1 X143.443 Y40.896 E20.39670
G1 X143.760 Y41.629 E20.41211
G1 X144.041 Y42.475 E20.42931
G1 X144.225 Y43.263 E20.44491
G1 X144.343 Y44.068 E20.46060
G1 X144.400 Y45.000 E20.47863
G1 X144.400 Y135.000 E22.21474
G1 X144.343 Y135.932 E22.23276
G1 X144.280 Y136.418 E22.24221
G1 X144.179 Y136.965 E22.25293
G1 X143.976 Y137.748 E22.26854
G1 X143.675 Y138.587 E22.28573
G1 X143.290 Y139.403 E22.30313
G1 X142.880 Y140.102 E22.31876
G1 X142.361 Y140.825 E22.33593
G1 X142.056 Y141.190 E22.34511
G1 X141.670 Y141.605 E22.35604
G1 X141.008 Y142.213 E22.37338
G1 X140.294 Y142.751 E22.39063
G1 X139.817 Y143.057 E22.40155
G1 X139.403 Y143.290 E22.41073
G1 X138.597 Y143.671 E22.42792
G1 X137.836 Y143.948 E22.44354
G1 X136.965 Y144.179 E22.46093
G1 X136.418 Y144.280 E22.47165
G1 X135.932 Y144.343 E22.48110
G1 X135.000 Y144.400 E22.49912
G1 X45.000 Y144.400 E24.23523
G1 X44.068 Y144.343 E24.25325
G1 X43.581 Y144.279 E24.26271
G1 X43.025 Y144.177 E24.27363
G1 X42.164 Y143.948 E24.29082
G1 X41.629 Y143.760 E24.30175
G1 X41.189 Y143.578 E24.31093
G1 X40.388 Y143.176 E24.32823
G1 X39.630 Y142.699 E24.34551
G1 X39.175 Y142.361 E24.35643
G1 X38.810 Y142.057 E24.36560
G1 X38.159 Y141.428 E24.38305
G1 X37.582 Y140.752 E24.40021
G1 X37.115 Y140.093 E24.41578
G1 X36.667 Y139.321 E24.43300
G1 X36.325 Y138.587 E24.44862
G1 X36.025 Y137.748 E24.46580
G1 X35.821 Y136.965 E24.48142
G1 X35.720 Y136.418 E24.49214
G1 X35.657 Y135.933 E24.50159
G1 X35.600 Y135.000 E24.51961
G1 X35.600 Y45.000 E26.25572
G1 X35.657 Y44.067 E26.27375
G1 X35.720 Y43.582 E26.28318
G1 X35.821 Y43.035 E26.29392
G1 X36.025 Y42.251 E26.30954
G1 X36.325 Y41.413 E26.32671
G1 X36.667 Y40.679 E26.34234
G1 X37.120 Y39.899 E26.35974
G1 X37.639 Y39.175 E26.37692
G1 X38.246 Y38.482 E26.39468
G1 X38.546 Y38.774 F2700.000
G1 X38.857 Y38.466 E26.40313 F2700.000
G1 X39.254 Y38.114 E26.41336
G1 X39.944 Y37.593 E26.43003
G1 X40.321 Y37.349 E26.43870
G1 X40.792 Y37.081 E26.44914
G1 X41.563 Y36.716 E26.46561
G1 X42.376 Y36.425 E26.48227
G1 X43.123 Y36.230 E26.49715
G1 X43.645 Y36.134 E26.50740
G1 X44.118 Y36.073 E26.51660
G1 X45.000 Y36.019 E26.53364
G1 X135.000 Y36.019 E28.26975
G1 X135.882 Y36.073 E28.28679
G1 X136.662 Y36.187 E28.30200 F2700.000
G1 X137.414 Y36.362 E28.31689
G1 X138.137 Y36.598 E28.33156
G1 X138.920 Y36.934 E28.34800
G1 X139.600 Y37.302 E28.36291
G1 X140.132 Y37.646 E28.37514
G1 X140.739 Y38.108 E28.38985
G1 X141.309 Y38.626 E28.40470
G1 X141.743 Y39.088 E28.41693
G1 X142.227 Y39.689 E28.43182
G1 X142.698 Y40.400 E28.44827
G1 X143.066 Y41.079 E28.46317
G1 X143.369 Y41.777 E28.47785
G1 X143.638 Y42.587 E28.49432
G1 X143.813 Y43.338 E28.50919
G1 X143.927 Y44.118 E28.52440
G1 X143.981 Y45.000 E28.54144
G1 X143.981 Y135.000 E30.27755
G1 X143.927 Y135.882 E30.29459
G1 X143.865 Y136.355 E30.30380
G1 X143.770 Y136.877 E30.31403
G1 X143.576 Y137.623 E30.32891
G1 X143.288 Y138.427 E30.34537
G1 X142.919 Y139.208 E30.36203
G1 X142.528 Y139.874 E30.37694
G1 X142.031 Y140.566 E30.39337
G1 X141.743 Y140.912 E30.40206
G1 X141.374 Y141.309 E30.41251
G1 X140.740 Y141.891 E30.42912
G1 X140.056 Y142.407 E30.44563
G1 X139.600 Y142.698 E30.45607
G1 X139.208 Y142.919 E30.46476
G1 X138.437 Y143.284 E30.48121
G1 X137.712 Y143.548 E30.49610
G1 X136.877 Y143.770 E30.51276
G1 X136.355 Y143.865 E30.52299
G1 X135.882 Y143.927 E30.53221
G1 X135.000 Y143.981 E30.54924
G1 X45.000 Y143.981 E32.28535
G1 X44.118 Y143.927 E32.30239
G1 X43.644 Y143.865 E32.31162
G1 X43.112 Y143.768 E32.32205
G1 X42.288 Y143.548 E32.33850
G1 X41.777 Y143.369 E32.34895
G1 X41.361 Y143.196 E32.35764
G1 X40.593 Y142.811 E32.37421
G1 X39.868 Y142.354 E32.39075
G1 X39.433 Y142.031 E32.40119
G1 X39.088 Y141.743 E32.40987
G1 X38.464 Y141.141 E32.42658
G1 X37.912 Y140.494 E32.44301
G1 X37.466 Y139.866 E32.45785
G1 X37.038 Y139.127 E32.47434
G1 X36.712 Y138.427 E32.48923
G1 X36.425 Y137.624 E32.50568
G1 X36.230 Y136.877 E32.52057
G1 X36.135 Y136.355 E32.53079
G1 X36.073 Y135.882 E32.54001
G1 X36.019 Y135.000 E32.55705
G1 X36.019 Y45.000 E34.29316
G1 X36.073 Y44.118 E34.31020
G1 X36.134 Y43.645 E34.31940
G1 X36.230 Y43.123 E34.32965
G1 X36.425 Y42.376 E34.34453
G1 X36.712 Y41.573 E34.36098
G1 X37.038 Y40.873 E34.37587
G1 X37.472 Y40.126 E34.39254
G1 X37.969 Y39.433 E34.40899
G1 X38.504 Y38.817 E34.42474
G1 X38.805 Y39.109 F2700.000
G1 X39.144 Y38.771 E34.43398 F2700.000
G1 X39.522 Y38.436 E34.44372
G1 X40.182 Y37.938 E34.45965
G1 X40.538 Y37.708 E34.46784
G1 X40.986 Y37.452 E34.47780
G1 X41.724 Y37.103 E34.49353
G1 X42.501 Y36.824 E34.50946
G1 X43.211 Y36.640 E34.52361
G1 X43.708 Y36.549 E34.53337
G1 X44.169 Y36.489 E34.54233
G1 X45.000 Y36.438 E34.55839
G1 X135.000 Y36.438 E36.29450
G1 X135.831 Y36.489 E36.31055
G1 X136.586 Y36.599 E36.32529 F2700.000
G1 X137.301 Y36.766 E36.33944
G1 X137.988 Y36.990 E36.35338
G1 X138.737 Y37.310 E36.36909
G1 X139.383 Y37.660 E36.38326
G1 X139.894 Y37.991 E36.39501
G1 X140.471 Y38.430 E36.40899
G1 X141.012 Y38.922 E36.42311
G1 X141.429 Y39.365 E36.43485
G1 X141.890 Y39.938 E36.44901
G1 X142.340 Y40.616 E36.46472
G1 X142.689 Y41.262 E36.47889
G1 X142.977 Y41.926 E36.49284
G1 X143.234 Y42.700 E36.50857
G1 X143.401 Y43.414 E36.52271
G1 X143.511 Y44.169 E36.53744
G1 X143.562 Y45.000 E36.55350
G1 X143.562 Y135.000 E38.28961
G1 X143.511 Y135.831 E38.30566
G1 X143.451 Y136.292 E38.31464
G1 X143.360 Y136.789 E38.32438
G1 X143.176 Y137.499 E38.33853
G1 X142.901 Y138.266 E38.35426
G1 X142.548 Y139.013 E38.37019
G1 X142.177 Y139.647 E38.38436
G1 X141.702 Y140.308 E38.40007
G1 X141.429 Y140.635 E38.40827
G1 X141.078 Y141.012 E38.41822
G1 X140.472 Y141.569 E38.43410
G1 X139.818 Y142.062 E38.44988
G1 X139.384 Y142.340 E38.45984
G1 X139.013 Y142.548 E38.46804
G1 X138.277 Y142.897 E38.48376
G1 X137.587 Y143.148 E38.49791
G1 X136.789 Y143.360 E38.51384
G1 X136.292 Y143.451 E38.52358
G1 X135.831 Y143.511 E38.53256
G1 X135.000 Y143.562 E38.54862
G1 X45.000 Y143.562 E40.28473
G1 X44.169 Y143.511 E40.30078
G1 X43.707 Y143.451 E40.30977
G1 X43.200 Y143.358 E40.31971
G1 X42.413 Y143.148 E40.33543
G1 X41.926 Y142.977 E40.34539
G1 X41.533 Y142.814 E40.35359
G1 X40.799 Y142.446 E40.36944
G1 X40.106 Y142.009 E40.38524
G1 X39.692 Y141.701 E40.39520
G1 X39.365 Y141.429 E40.40339
G1 X38.769 Y140.854 E40.41937
G1 X38.241 Y140.235 E40.43506
G1 X37.818 Y139.638 E40.44918
G1 X37.409 Y138.932 E40.46492
G1 X37.099 Y138.266 E40.47909
G1 X36.824 Y137.499 E40.49480
G1 X36.640 Y136.789 E40.50896
G1 X36.549 Y136.292 E40.51870
G1 X36.489 Y135.831 E40.52768
G1 X36.438 Y135.000 E40.54373
G1 X36.438 Y45.000 E42.27984
G1 X36.489 Y44.169 E42.29590
G1 X36.549 Y43.708 E42.30486
G1 X36.640 Y43.211 E42.31463
G1 X36.824 Y42.501 E42.32878
G1 X37.099 Y41.734 E42.34449
G1 X37.409 Y41.068 E42.35866
G1 X37.817 Y40.363 E42.37438
G1 X38.242 Y39.764 E42.38853
G1 X38.764 Y39.152 E42.40405
G1 X39.073 Y39.434 F2700.000
G1 X39.643 Y38.884 E42.41933 F2700.000
G1 X40.344 Y38.335 E42.43650
G1 X41.001 Y37.921 E42.45149
G1 X41.705 Y37.567 E42.46669
G1 X42.537 Y37.252 E42.48386
G1 X43.288 Y37.052 E42.49884
G1 X43.771 Y36.963 E42.50833
G1 X44.220 Y36.905 E42.51705
G1 X45.000 Y36.857 E42.53213
G1 X135.000 Y36.857 E44.26824
G1 X135.780 Y36.905 E44.28331
G1 X136.511 Y37.011 E44.29756 F2700.000
G1 X137.189 Y37.169 E44.31099
G1 X137.840 Y37.382 E44.32419
G1 X138.554 Y37.687 E44.33917
G1 X139.166 Y38.019 E44.35261
G1 X139.656 Y38.335 E44.36387
G1 X140.202 Y38.752 E44.37711
G1 X140.716 Y39.219 E44.39050
G1 X141.116 Y39.643 E44.40176
G1 X141.552 Y40.186 E44.41519
G1 X141.981 Y40.833 E44.43017
G1 X142.313 Y41.446 E44.44360
G1 X142.585 Y42.074 E44.45682
G1 X142.831 Y42.812 E44.47182
G1 X142.989 Y43.489 E44.48523
G1 X143.095 Y44.220 E44.49948
G1 X143.143 Y45.000 E44.51455
G1 X143.143 Y135.000 E46.25066
G1 X143.095 Y135.780 E46.26573
G1 X142.951 Y136.701 E46.28372
G1 X142.776 Y137.374 E46.29714
G1 X142.514 Y138.106 E46.31213
G1 X142.178 Y138.819 E46.32733
G1 X141.825 Y139.419 E46.34077
G1 X141.372 Y140.050 E46.35574
G1 X140.781 Y140.716 E46.37292
G1 X140.203 Y141.248 E46.38807
G1 X139.580 Y141.717 E46.40312
G1 X138.819 Y142.178 E46.42028
G1 X138.116 Y142.510 E46.43527
G1 X137.462 Y142.748 E46.44870
G1 X136.701 Y142.951 E46.46390
G1 X135.780 Y143.095 E46.48188
G1 X135.000 Y143.143 E46.49695
G1 X45.000 Y143.143 E48.23307
G1 X44.220 Y143.095 E48.24814
G1 X43.770 Y143.037 E48.25689
G1 X43.288 Y142.948 E48.26634
G1 X42.537 Y142.748 E48.28133
G1 X41.705 Y142.432 E48.29851
G1 X41.004 Y142.081 E48.31362
G1 X40.344 Y141.665 E48.32869
G1 X39.643 Y141.116 E48.34585
G1 X39.074 Y140.567 E48.36110
G1 X38.571 Y139.977 E48.37606
G1 X38.170 Y139.411 E48.38945
G1 X37.780 Y138.737 E48.40447
G1 X37.486 Y138.106 E48.41790
G1 X37.224 Y137.375 E48.43288
G1 X37.049 Y136.701 E48.44630
G1 X36.905 Y135.780 E48.46429
G1 X36.857 Y135.000 E48.47936
G1 X36.857 Y45.000 E50.21548
G1 X36.905 Y44.220 E50.23055
G1 X37.011 Y43.489 E50.24480
G1 X37.169 Y42.812 E50.25822
G1 X37.415 Y42.074 E50.27321
G1 X37.692 Y41.435 E50.28665
G1 X38.066 Y40.755 E50.30163
G1 X38.454 Y40.177 E50.31505
G1 X38.751 Y39.799 E50.32432
G1 X39.032 Y39.479 E50.33255
G1 E48.33255 F2400.00000
G92 E0
G1 X85.229 Y85.628 F2700.000
G1 E2.00000 F2400.00000
G1 X85.628 Y85.229 E2.01089 F2700.000
G1 X86.064 Y84.864 E2.02186
G1 X86.598 Y84.497 E2.03435
G1 X87.261 Y84.137 E2.04891
G1 X87.870 Y83.891 E2.06157
G1 X88.591 Y83.684 E2.07605
G1 X89.160 Y83.584 E2.08718
G1 X89.805 Y83.533 E2.09968 F2700.000
G1 X90.555 Y83.553 E2.11416
G1 X91.124 Y83.628 E2.12521
G1 X91.675 Y83.750 E2.13610
G1 X92.213 Y83.920 E2.14699
G1 X92.738 Y84.137 E2.15796
G1 X93.310 Y84.441 E2.17045
G1 X93.933 Y84.861 E2.18493
G1 X94.372 Y85.229 E2.19598
G1 X94.771 Y85.628 E2.20687
G1 X95.136 Y86.064 E2.21784
G1 X95.503 Y86.598 E2.23034
G1 X95.863 Y87.261 E2.24490
G1 X96.109 Y87.870 E2.25755
