; generated by Slic3r 1.2.9 on 2019-12-08 at 13:07:20

; external perimeters extrusion width = 0.40mm
; perimeters extrusion width = 0.67mm
; infill extrusion width = 0.67mm
; solid infill extrusion width = 0.67mm
; top infill extrusion width = 0.67mm
; support material extrusion width = 0.40mm

M190 S60 ; set bed temperature
M104 S200 ; set temperature
G28 ; home all axes
G1 Z5 F5000 ; lift nozzle

M109 S200 ; wait for temperature to be reached
G21 ; set units to millimeters
G90 ; use absolute coordinates
M82 ; use absolute distances for extrusion
G92 E0
G1 Z0.300 F1800.000
G1 E-2.00000 F2400.00000
G92 E0
G1 X36.215 Y106.328 F1800.000
G1 E2.00000 F2400.00000
G1 X35.756 Y106.095 E2.00992 F1800.000
G1 X35.411 Y106.347 E2.01817
G1 X31.855 Y106.903 E2.08760
G1 X28.675 Y105.848 E2.15222
G1 X26.111 Y103.228 E2.22294
G1 X25.143 Y101.298 E2.26459
G1 X24.786 Y99.012 E2.30921
G1 X24.863 Y98.514 E2.31894
G1 X24.855 Y98.414 E2.32087
G1 X24.354 Y96.907 E2.35152
G1 X24.856 Y95.905 E2.37314
G1 X24.879 Y95.810 E2.37502
G1 X24.885 Y94.072 E2.40854
G1 X24.875 Y93.981 E2.41031
G1 X24.354 Y92.412 E2.44220
G1 X24.856 Y91.410 E2.46382
G1 X24.879 Y91.315 E2.46571
G1 X24.866 Y89.639 E2.49804
G1 X24.885 Y83.585 E2.61483
G1 X24.876 Y83.493 E2.61660
G1 X24.355 Y81.924 E2.64849
G1 X24.614 Y81.407 E2.65964
G1 X24.626 Y81.241 E2.66286
G1 X24.355 Y80.426 E2.67943
G1 X26.727 Y75.692 E2.78157
G1 X29.292 Y73.748 E2.84364
G1 X32.684 Y73.091 E2.91030
G1 X35.885 Y73.964 E2.97431
G1 X36.215 Y73.712 E2.98230
G1 X36.215 Y44.627 E3.54336
G1 X36.295 Y43.885 E3.55775
G1 X36.412 Y43.229 E3.57061
G1 X36.508 Y42.814 E3.57881
G1 X36.770 Y41.975 E3.59578
G1 X36.926 Y41.579 E3.60399
G1 X37.147 Y41.098 E3.61420
G1 X37.598 Y40.299 E3.63191
G1 X37.895 Y39.861 E3.64211
G1 X38.219 Y39.441 E3.65234
G1 X38.567 Y39.042 E3.66255
G1 X38.863 Y38.737 E3.67076
G1 X39.522 Y38.153 E3.68774
G1 X39.946 Y37.835 E3.69795
G1 X40.387 Y37.543 E3.70816
G1 X40.846 Y37.278 E3.71838
G1 X41.320 Y37.041 E3.72860
G1 X41.807 Y36.834 E3.73882
G1 X42.306 Y36.656 E3.74904
G1 X42.814 Y36.508 E3.75925
G1 X43.331 Y36.392 E3.76947
G1 X43.885 Y36.295 E3.78031
G1 X44.627 Y36.215 E3.79471
G1 X135.373 Y36.215 E5.54522
G1 X136.115 Y36.295 E5.55961
G1 X136.492 Y36.359 E5.56699
G1 X137.011 Y36.465 E5.57721
G1 X137.523 Y36.602 E5.58742
G1 X138.025 Y36.770 E5.59765
G1 X138.517 Y36.968 E5.60786
G1 X138.995 Y37.195 E5.61808
G1 X139.459 Y37.450 E5.62830
G1 X139.907 Y37.733 E5.63851
G1 X140.337 Y38.043 E5.64873
G1 X140.747 Y38.378 E5.65895
G1 X141.137 Y38.737 E5.66917
G1 X141.503 Y39.118 E5.67938
G1 X141.847 Y39.522 E5.68961
G1 X142.165 Y39.945 E5.69982
G1 X142.457 Y40.387 E5.71004
G1 X142.722 Y40.846 E5.72026
G1 X142.959 Y41.320 E5.73047
G1 X143.167 Y41.807 E5.74069
G1 X143.344 Y42.306 E5.75090
G1 X143.492 Y42.815 E5.76113
G1 X143.608 Y43.331 E5.77133
G1 X143.705 Y43.886 E5.78221
G1 X143.785 Y44.627 E5.79659
G1 X143.785 Y110.661 E7.07039
G1 X144.133 Y110.912 E7.07866
G1 X147.874 Y109.669 E7.15471
G1 X153.425 Y112.451 E7.27448
G1 X154.118 Y114.535 E7.31685
G1 X154.965 Y115.626 E7.34350
G1 X154.965 Y117.050 E7.37097
G1 X155.231 Y117.885 E7.38785
G1 X154.987 Y118.370 E7.39833
G1 X154.965 Y118.465 E7.40021
G1 X154.965 Y127.654 E7.57747
G1 X155.352 Y129.628 E7.61626
G1 X155.014 Y130.301 E7.63080
G1 X154.991 Y130.395 E7.63266
G1 X154.981 Y131.864 E7.66100
G1 X152.725 Y136.366 E7.75814
G1 X147.291 Y138.172 E7.86859
G1 X144.699 Y136.873 E7.92452
G1 X143.855 Y136.690 E7.94118
G1 X143.569 Y136.871 E7.94770
G1 X143.398 Y137.523 E7.96070
G1 X143.128 Y138.290 E7.97639
G1 X142.806 Y138.995 E7.99134
G1 X142.402 Y139.701 E8.00704
G1 X142.020 Y140.254 E8.01999
G1 X141.622 Y140.747 E8.03222
G1 X141.137 Y141.263 E8.04589
G1 X140.668 Y141.691 E8.05813
G1 X140.055 Y142.165 E8.07309
G1 X139.459 Y142.550 E8.08676
G1 X138.902 Y142.853 E8.09900
G1 X138.193 Y143.167 E8.11395
G1 X137.523 Y143.398 E8.12763
G1 X136.910 Y143.558 E8.13985
G1 X136.114 Y143.705 E8.15547
G1 X135.373 Y143.785 E8.16985
G1 X44.627 Y143.785 E9.92033
G1 X43.886 Y143.705 E9.93471
G1 X43.228 Y143.588 E9.94760
G1 X42.815 Y143.492 E9.95579
G1 X42.207 Y143.312 E9.96803
G1 X41.579 Y143.074 E9.98097
G1 X41.098 Y142.853 E9.99119
G1 X40.541 Y142.550 E10.00342
G1 X40.093 Y142.267 E10.01364
G1 X39.522 Y141.847 E10.02731
G1 X39.041 Y141.433 E10.03955
G1 X38.567 Y140.959 E10.05249
G1 X38.219 Y140.559 E10.06272
G1 X37.835 Y140.054 E10.07495
G1 X37.450 Y139.459 E10.08861
G1 X37.147 Y138.902 E10.10085
G1 X36.872 Y138.290 E10.11379
G1 X36.656 Y137.694 E10.12603
G1 X36.465 Y137.011 E10.13970
G1 X36.359 Y136.492 E10.14992
G1 X36.295 Y136.115 E10.15730
G1 X36.215 Y135.373 E10.17169
G1 X36.215 Y106.388 E10.73083
G1 X36.633 Y105.503 F1800.000
G1 X36.175 Y105.270 E10.74074 F1800.000
G1 X35.246 Y105.949 E10.76294
G1 X31.890 Y106.474 E10.82845
G1 X28.904 Y105.482 E10.88916
G1 X26.456 Y102.981 E10.95666
G1 X25.547 Y101.169 E10.99578
G1 X25.209 Y99.012 E11.03788
G1 X25.293 Y98.478 E11.04831
G1 X25.284 Y98.379 E11.05024
G1 X24.806 Y96.939 E11.07950
G1 X25.275 Y96.004 E11.09968
G1 X25.297 Y95.909 E11.10157
G1 X25.298 Y94.150 E11.13550
G1 X25.312 Y94.028 E11.13786
G1 X25.302 Y93.937 E11.13963
G1 X24.806 Y92.444 E11.16997
G1 X25.372 Y91.316 E11.19431
G1 X25.347 Y91.073 E11.19902
G1 X25.298 Y91.011 E11.20055
G1 X25.286 Y89.664 E11.22653
G1 X25.298 Y83.662 E11.34231
G1 X25.312 Y83.541 E11.34467
G1 X25.303 Y83.449 E11.34645
G1 X24.807 Y81.957 E11.37678
G1 X25.066 Y81.440 E11.38793
G1 X25.078 Y81.274 E11.39115
G1 X24.807 Y80.459 E11.40772
G1 X27.058 Y75.967 E11.50463
G1 X29.467 Y74.141 E11.56294
G1 X32.668 Y73.521 E11.62584
G1 X35.585 Y74.316 E11.68416
G1 X36.140 Y74.806 E11.69845
G1 X36.633 Y74.584 E11.70889
G1 X36.633 Y44.649 E12.28633
G1 X36.709 Y43.952 E12.29986
G1 X36.803 Y43.410 E12.31048
G1 X36.914 Y42.918 E12.32021
G1 X37.163 Y42.120 E12.33633
G1 X37.523 Y41.284 E12.35389
G1 X37.952 Y40.523 E12.37073
G1 X38.235 Y40.106 E12.38045
G1 X38.543 Y39.707 E12.39019
G1 X39.157 Y39.035 E12.40775
G1 X39.783 Y38.481 E12.42387
G1 X40.186 Y38.178 E12.43360
G1 X40.607 Y37.900 E12.44333
G1 X41.043 Y37.647 E12.45306
G1 X41.495 Y37.422 E12.46279
G1 X41.958 Y37.224 E12.47251
G1 X42.434 Y37.055 E12.48224
G1 X42.918 Y36.914 E12.49197
G1 X43.410 Y36.803 E12.50170
G1 X43.952 Y36.709 E12.51232
G1 X44.649 Y36.633 E12.52585
G1 X135.351 Y36.633 E14.27548
G1 X136.048 Y36.709 E14.28901
G1 X136.420 Y36.772 E14.29629
G1 X136.914 Y36.873 E14.30602
G1 X137.401 Y37.003 E14.31575
G1 X137.880 Y37.163 E14.32548
G1 X138.348 Y37.351 E14.33521
G1 X138.803 Y37.567 E14.34494
G1 X139.245 Y37.810 E14.35467
G1 X139.672 Y38.080 E14.36440
G1 X140.081 Y38.374 E14.37412
G1 X140.472 Y38.693 E14.38386
G1 X140.843 Y39.035 E14.39359
G1 X141.192 Y39.399 E14.40331
G1 X141.519 Y39.783 E14.41305
G1 X141.822 Y40.186 E14.42277
G1 X142.100 Y40.607 E14.43250
G1 X142.353 Y41.044 E14.44224
G1 X142.578 Y41.494 E14.45196
G1 X142.776 Y41.959 E14.46169
G1 X142.945 Y42.433 E14.47142
G1 X143.086 Y42.918 E14.48116
G1 X143.197 Y43.409 E14.49087
G1 X143.291 Y43.954 E14.50153
G1 X143.366 Y44.650 E14.51503
G1 X143.366 Y111.242 E15.79960
G1 X143.714 Y111.493 E15.80787
G1 X147.842 Y110.121 E15.89177
G1 X153.082 Y112.748 E16.00485
G1 X153.743 Y114.737 E16.04529
G1 X154.546 Y115.772 E16.07055
G1 X154.546 Y117.118 E16.09652
G1 X154.778 Y117.852 E16.11137
G1 X154.568 Y118.271 E16.12041
G1 X154.546 Y118.366 E16.12229
G1 X154.542 Y127.645 E16.30130
G1 X154.913 Y129.568 E16.33907
G1 X154.596 Y130.201 E16.35272
G1 X154.573 Y130.295 E16.35458
G1 X154.563 Y131.764 E16.38292
G1 X152.428 Y136.023 E16.47483
G1 X147.324 Y137.719 E16.57859
G1 X144.838 Y136.474 E16.63223
G1 X144.167 Y136.327 E16.64547
G1 X143.717 Y135.976 E16.65648
G1 X143.273 Y136.149 E16.66566
G1 X143.127 Y136.914 E16.68069
G1 X142.945 Y137.566 E16.69376
G1 X142.688 Y138.258 E16.70799
G1 X142.353 Y138.956 E16.72293
G1 X142.048 Y139.477 E16.73456
G1 X141.626 Y140.081 E16.74879
G1 X141.126 Y140.674 E16.76374
G1 X140.601 Y141.192 E16.77797
G1 X140.081 Y141.626 E16.79103
G1 X139.477 Y142.048 E16.80526
G1 X138.803 Y142.433 E16.82023
G1 X138.133 Y142.740 E16.83445
G1 X137.566 Y142.945 E16.84606
G1 X136.819 Y143.149 E16.86101
G1 X136.046 Y143.291 E16.87617
G1 X135.350 Y143.366 E16.88967
G1 X44.650 Y143.366 E18.63929
G1 X43.954 Y143.291 E18.65280
G1 X43.313 Y143.178 E18.66535
G1 X42.824 Y143.061 E18.67504
G1 X42.212 Y142.871 E18.68740
G1 X41.652 Y142.649 E18.69903
G1 X41.044 Y142.353 E18.71208
G1 X40.523 Y142.048 E18.72372
G1 X39.997 Y141.685 E18.73605
G1 X39.528 Y141.307 E18.74767
G1 X39.035 Y140.843 E18.76073
G1 X38.693 Y140.472 E18.77046
G1 X38.315 Y140.003 E18.78209
G1 X37.952 Y139.476 E18.79442
G1 X37.647 Y138.956 E18.80604
G1 X37.351 Y138.348 E18.81910
G1 X37.129 Y137.788 E18.83072
G1 X36.975 Y137.307 E18.84045
G1 X36.822 Y136.686 E18.85279
G1 X36.709 Y136.048 E18.86530
G1 X36.633 Y135.351 E18.87883
G1 X36.633 Y105.563 E19.45343
G1 X37.052 Y104.679 F1800.000
G1 X36.594 Y104.446 E19.46334 F1800.000
G1 X35.081 Y105.551 E19.49949
G1 X31.926 Y106.044 E19.56108
G1 X29.132 Y105.116 E19.61787
G1 X26.801 Y102.735 E19.68215
G1 X25.950 Y101.039 E19.71875
G1 X25.633 Y99.012 E19.75833
G1 X25.714 Y98.498 E19.76836
G1 X25.705 Y98.317 E19.77186
G1 X25.258 Y96.972 E19.79921
G1 X25.694 Y96.103 E19.81796
G1 X25.716 Y96.008 E19.81984
G1 X25.716 Y94.174 E19.85521
G1 X25.739 Y93.985 E19.85890
G1 X25.729 Y93.893 E19.86067
G1 X25.259 Y92.477 E19.88945
G1 X25.809 Y91.379 E19.91314
G1 X25.828 Y91.244 E19.91577
G1 X25.782 Y90.988 E19.92080
G1 X25.717 Y90.866 E19.92347
G1 X25.717 Y83.687 E20.06195
G1 X25.739 Y83.497 E20.06564
G1 X25.730 Y83.405 E20.06741
G1 X25.259 Y81.989 E20.09620
G1 X25.518 Y81.473 E20.10735
G1 X25.530 Y81.306 E20.11056
G1 X25.259 Y80.491 E20.12713
G1 X27.389 Y76.242 E20.21882
G1 X29.642 Y74.533 E20.27337
G1 X32.652 Y73.951 E20.33250
G1 X35.380 Y74.694 E20.38705
G1 X36.559 Y75.735 E20.41739
G1 X37.052 Y75.513 E20.42783
G1 X37.052 Y44.672 E21.02275
G1 X37.123 Y44.020 E21.03540
G1 X37.185 Y43.653 E21.04259
G1 X37.280 Y43.183 E21.05184
G1 X37.404 Y42.720 E21.06107
G1 X37.556 Y42.266 E21.07032
G1 X37.734 Y41.821 E21.07956
G1 X37.939 Y41.388 E21.08880
G1 X38.170 Y40.969 E21.09804
G1 X38.426 Y40.564 E21.10728
G1 X38.706 Y40.175 E21.11652
G1 X39.009 Y39.803 E21.12577
G1 X39.333 Y39.451 E21.13500
G1 X39.679 Y39.120 E21.14424
G1 X40.044 Y38.809 E21.15349
G1 X40.427 Y38.521 E21.16273
G1 X40.826 Y38.257 E21.17197
G1 X41.241 Y38.017 E21.18121
G1 X41.669 Y37.803 E21.19045
G1 X42.110 Y37.615 E21.19969
G1 X42.561 Y37.454 E21.20894
G1 X43.021 Y37.320 E21.21817
G1 X43.489 Y37.215 E21.22742
G1 X44.020 Y37.123 E21.23782
G1 X44.672 Y37.052 E21.25047
G1 X135.328 Y37.052 E22.99924
G1 X135.980 Y37.123 E23.01189
G1 X136.348 Y37.185 E23.01908
G1 X136.817 Y37.280 E23.02832
G1 X137.280 Y37.404 E23.03756
G1 X137.734 Y37.555 E23.04680
G1 X138.179 Y37.734 E23.05604
G1 X138.611 Y37.939 E23.06528
G1 X139.031 Y38.170 E23.07452
G1 X139.436 Y38.426 E23.08376
G1 X139.825 Y38.706 E23.09300
G1 X140.197 Y39.009 E23.10225
G1 X140.549 Y39.334 E23.11149
G1 X140.881 Y39.679 E23.12073
G1 X141.191 Y40.044 E23.12998
G1 X141.479 Y40.426 E23.13921
G1 X141.743 Y40.826 E23.14845
G1 X141.983 Y41.241 E23.15770
G1 X142.197 Y41.669 E23.16693
G1 X142.385 Y42.110 E23.17618
G1 X142.546 Y42.561 E23.18541
G1 X142.680 Y43.022 E23.19466
G1 X142.785 Y43.488 E23.20389
G1 X142.877 Y44.021 E23.21433
G1 X142.948 Y44.673 E23.22696
G1 X142.948 Y111.822 E24.52229
G1 X143.295 Y112.073 E24.53056
G1 X147.809 Y110.573 E24.62232
G1 X152.740 Y113.044 E24.72870
G1 X153.369 Y114.939 E24.76722
G1 X154.127 Y115.918 E24.79109
G1 X154.127 Y117.186 E24.81556
G1 X154.326 Y117.819 E24.82837
G1 X154.150 Y118.172 E24.83597
G1 X154.127 Y118.267 E24.83786
G1 X154.127 Y120.100 E24.87322
G1 X154.106 Y120.282 E24.87676
G1 X154.127 Y120.357 E24.87826
G1 X154.119 Y127.662 E25.01917
G1 X154.474 Y129.509 E25.05545
G1 X154.177 Y130.101 E25.06821
G1 X154.155 Y130.194 E25.07007
G1 X154.145 Y131.663 E25.09842
G1 X152.132 Y135.681 E25.18510
G1 X147.357 Y137.267 E25.28216
G1 X144.977 Y136.074 E25.33351
G1 X144.348 Y135.937 E25.34593
G1 X143.868 Y135.563 E25.35767
G1 X143.777 Y135.522 E25.35958
G1 X143.211 Y135.412 E25.37072
G1 X142.915 Y135.630 E25.37781
G1 X142.877 Y135.979 E25.38457
G1 X142.785 Y136.512 E25.39501
G1 X142.622 Y137.191 E25.40848
G1 X142.385 Y137.890 E25.42272
G1 X142.061 Y138.611 E25.43797
G1 X141.744 Y139.174 E25.45044
G1 X141.349 Y139.752 E25.46394
G1 X140.991 Y140.196 E25.47495
G1 X140.483 Y140.730 E25.48917
G1 X139.956 Y141.191 E25.50267
G1 X139.360 Y141.625 E25.51688
G1 X138.759 Y141.983 E25.53039
G1 X138.095 Y142.302 E25.54460
G1 X137.439 Y142.546 E25.55810
G1 X136.817 Y142.720 E25.57055
G1 X135.979 Y142.877 E25.58701
G1 X135.327 Y142.948 E25.59964
G1 X44.673 Y142.948 E27.34839
G1 X44.021 Y142.877 E27.36102
G1 X43.398 Y142.767 E27.37323
G1 X42.934 Y142.657 E27.38244
G1 X42.352 Y142.476 E27.39419
G1 X41.821 Y142.266 E27.40520
G1 X41.241 Y141.983 E27.41765
G1 X40.748 Y141.695 E27.42867
G1 X40.248 Y141.349 E27.44040
G1 X39.803 Y140.991 E27.45141
G1 X39.334 Y140.549 E27.46385
G1 X39.009 Y140.197 E27.47309
G1 X38.650 Y139.752 E27.48412
G1 X38.305 Y139.252 E27.49584
G1 X38.017 Y138.759 E27.50685
G1 X37.734 Y138.179 E27.51930
G1 X37.524 Y137.648 E27.53031
G1 X37.343 Y137.068 E27.54204
G1 X37.232 Y136.601 E27.55128
G1 X37.123 Y135.980 E27.56345
G1 X37.052 Y135.328 E27.57610
G1 X37.052 Y104.739 E28.16617
G1 X37.471 Y103.854 F1800.000
G1 X37.013 Y103.622 E28.17609 F1800.000
G1 X34.916 Y105.153 E28.22618
G1 X31.962 Y105.614 E28.28385
G1 X29.360 Y104.751 E28.33673
G1 X27.146 Y102.489 E28.39779
G1 X26.354 Y100.910 E28.43186
G1 X26.057 Y99.012 E28.46892
G1 X26.152 Y98.407 E28.48073
G1 X26.144 Y98.307 E28.48266
G1 X25.711 Y97.004 E28.50915
G1 X26.113 Y96.202 E28.52646
G1 X26.135 Y96.107 E28.52834
G1 X26.135 Y94.199 E28.56516
G1 X26.165 Y93.941 E28.57017
G1 X26.156 Y93.849 E28.57194
G1 X25.711 Y92.510 E28.59917
G1 X26.246 Y91.442 E28.62221
G1 X26.265 Y91.307 E28.62484
G1 X26.175 Y90.810 E28.63458
G1 X26.135 Y90.723 E28.63643
G1 X26.136 Y83.711 E28.77169
G1 X26.166 Y83.453 E28.77670
G1 X26.157 Y83.362 E28.77847
G1 X25.711 Y82.022 E28.80570
G1 X25.970 Y81.505 E28.81685
G1 X25.982 Y81.339 E28.82007
G1 X25.712 Y80.524 E28.83664
G1 X27.720 Y76.517 E28.92310
G1 X29.818 Y74.926 E28.97388
G1 X32.636 Y74.380 E29.02926
G1 X35.176 Y75.073 E29.08005
G1 X36.978 Y76.664 E29.12642
G1 X37.471 Y76.442 E29.13686
G1 X37.471 Y44.695 E29.74927
G1 X37.537 Y44.088 E29.76105
G1 X37.597 Y43.725 E29.76814
G1 X37.688 Y43.280 E29.77689
G1 X37.805 Y42.842 E29.78564
G1 X37.948 Y42.411 E29.79440
G1 X38.117 Y41.990 E29.80315
G1 X38.312 Y41.580 E29.81190
G1 X38.530 Y41.183 E29.82066
G1 X38.773 Y40.799 E29.82941
G1 X39.038 Y40.431 E29.83816
G1 X39.325 Y40.079 E29.84692
G1 X39.632 Y39.745 E29.85567
G1 X39.959 Y39.431 E29.86442
G1 X40.305 Y39.136 E29.87318
G1 X40.667 Y38.864 E29.88193
G1 X41.183 Y38.530 E29.89377
G1 X41.580 Y38.312 E29.90252
G1 X41.990 Y38.117 E29.91128
G1 X42.411 Y37.948 E29.92003
G1 X42.842 Y37.805 E29.92879
G1 X43.280 Y37.688 E29.93753
G1 X43.725 Y37.597 E29.94629
G1 X44.088 Y37.537 E29.95338
G1 X44.695 Y37.471 E29.96516
G1 X135.305 Y37.471 E31.71305
G1 X135.912 Y37.537 E31.72483
G1 X136.275 Y37.597 E31.73193
G1 X136.720 Y37.688 E31.74068
G1 X137.158 Y37.805 E31.74943
G1 X137.589 Y37.948 E31.75819
G1 X138.010 Y38.117 E31.76694
G1 X138.420 Y38.312 E31.77569
G1 X138.817 Y38.530 E31.78445
G1 X139.201 Y38.773 E31.79320
G1 X139.569 Y39.038 E31.80195
G1 X139.921 Y39.325 E31.81071
G1 X140.255 Y39.632 E31.81946
G1 X140.569 Y39.959 E31.82821
G1 X140.864 Y40.305 E31.83697
G1 X141.227 Y40.799 E31.84880
G1 X141.470 Y41.183 E31.85756
G1 X141.688 Y41.581 E31.86632
G1 X141.883 Y41.990 E31.87506
G1 X142.052 Y42.411 E31.88382
G1 X142.195 Y42.842 E31.89258
G1 X142.312 Y43.280 E31.90132
G1 X142.403 Y43.725 E31.91007
G1 X142.463 Y44.089 E31.91720
G1 X142.529 Y44.695 E31.92896
G1 X142.529 Y112.664 E33.24009
G1 X143.174 Y112.817 E33.25287
G1 X143.331 Y112.503 E33.25965
G1 X147.777 Y111.026 E33.35002
G1 X152.397 Y113.341 E33.44971
G1 X152.995 Y115.141 E33.48630
G1 X153.708 Y116.063 E33.50879
G1 X153.708 Y117.254 E33.53175
